Gagan-D-Aspire/High-Value-Data-Projects/csm_targets_2026_Q3.csv
business_id,business_ref_code,company_name,business_group,business_unit,account_motion,account_manager,base_quarter,target_quarter,base_revenue,base_gp,base_take_rate,avg_rev_g,avg_gp_g,target_revenue,target_gp,target_take_rate,hist_avg_tr,tr_delta,guardrail,gp_trend
84093,SGGPGP,GERO PTE. LTD.,Aspire FT Pte Ltd,AspireBA,Key,SG AM - Caroline,2026-Q2,2026-Q3,114357.48189121005,107683.4933186461,0.9416392485896724,-0.06747088946968172,-0.09797242703722768,118517.4437286457,78764.96317348669,0.664585403595312,0.960583027394365,-0.2959976237990529,Risk,Declining
86951,SGEVMG,EVERY MOMENT LOGISTICS PTE. LTD.,Aspire FT Pte Ltd,AspireBA,Key,SG AM - Caroline,2026-Q2,2026-Q3,97752.80528599302,94735.56745751208,0.9691340026544151,-0.06747088946968172,-0.09797242703722768,101308.74174740321,67328.31102193121,0.664585403595312,0.9930057966414437,-0.3284203930461317,Risk,Declining
134453,SGBLVG,BERIKLAN LANCAR SEJAHTERA LIMITED,AFT HK Limited,AspireBA,Key,Eureka,2026-Q2,2026-Q3,70442.66348680141,22380.027374532026,0.31770558162845863,-0.06747088946968172,-0.09797242703722768,73005.14376344119,48518.15293256034,0.664585403595312,0.3307982753151438,0.33378712828016827,Safe,Growing
89483,SGFBPZ,FIBONEX PTE. LTD.,Aspire FT Pte Ltd,AspireBA,Key,SG AM - Caroline,2026-Q2,2026-Q3,65512.125358736295,63500.61604719631,0.9692956181695341,-0.06747088946968172,-0.09797242703722768,67895.24832432331,45122.191009824346,0.664585403595312,0.9928077601918871,-0.32822235659657506,Risk,Declining
99873,SGSUCM,SUCCESS MCMOORE PTE LIMITED,Aspire FT Pte Ltd,AspireX,Key,Eureka,2026-Q2,2026-Q3,60381.585183640476,25931.64303744643,0.42946277343629985,-0.06747088946968172,-0.09797242703722768,62578.07539918029,41588.4754953821,0.664585403595312,0.40524633620794687,0.2593390673873652,Safe,Growing
147170,SGAVNH,AVNM HOLDINGS PTE LTD,Aspire FT Pte Ltd,AspireBA,Key,SG AM - Caroline,2026-Q2,2026-Q3,47785.46748966421,46293.076930602634,0.9687689450901705,-0.06747088946968172,-0.09797242703722768,49523.750965774096,32912.7620231427,0.664585403595312,0.9846016521147645,-0.32001624851945243,Risk,Declining
151475,SGSM5V,SUCCESS MCMOORE PTE LIMITED,AFT HK Limited,AspireBA,Key,Eureka,2026-Q2,2026-Q3,46685.12808413998,12955.411054473996,0.27750616922641047,-0.06747088946968172,-0.09797242703722768,48383.3847088405,32154.891254032013,0.664585403595312,0.25545073420258213,0.4091346693927299,Safe,Growing
125930,SGRAT5,Rasewa,Aspire FT Pte Ltd,AspireBA,Key,Eureka,2026-Q2,2026-Q3,42926.49483726854,6278.318717687672,0.14625742776083528,-0.06747088946968172,-0.09797242703722768,44488.02432694194,29566.09160247877,0.664585403595312,0.17671715978772218,0.48786824380758986,Safe,Growing
91639,SGFT9T,PT REPUBLIK AZERO MANAGEMEN,Aspire FT Pte Ltd,AspireX,Key,Eureka,2026-Q2,2026-Q3,41537.44756678856,6851.321767836123,0.1649432540798228,-0.06747088946968172,-0.09797242703722768,43048.4479302515,28609.37014187797,0.664585403595312,0.2202310643753466,0.4443543392199655,Safe,Growing
99150,SGHLWJ,HERITAGE LINE PTE. LTD.,Aspire FT Pte Ltd,AspireBA,Key,SG AM - Caroline,2026-Q2,2026-Q3,41270.151594579715,39670.49218188595,0.9612393133805727,-0.06747088946968172,-0.09797242703722768,42771.42857986661,28425.267125098715,0.664585403595312,0.9781168626317658,-0.31353145903645374,Risk,Declining
75513,SGDEUP,DELUGS PTE. LTD.,Aspire FT Pte Ltd,AspireBA,Key,SG AM - Caroline,2026-Q2,2026-Q3,37508.996901549035,20393.198229414567,0.5436881792104756,-0.06747088946968172,-0.09797242703722768,38873.455029609046,25834.73079999694,0.664585403595312,0.5777260118428378,0.08685939175247426,Safe,Growing
104231,SGDGZG,PT Digizie Global Learning,Aspire FT Pte Ltd,AspireBA,Key,Eureka,2026-Q2,2026-Q3,36447.79103711293,4503.442298428893,0.12355871701095045,-0.06747088946968172,-0.09797242703722768,37773.64586764741,25103.813684216842,0.664585403595312,0.1637515347886401,0.5008338688066719,Safe,Growing
71455,SGCP3W,SF CAPITAL SG PTE. LTD.,Aspire FT Pte Ltd,AspireBA,Key,SG AM - Caroline,2026-Q2,2026-Q3,30964.17938408314,29352.15751883641,0.9479391381489226,-0.06747088946968172,-0.09797242703722768,32090.557846034906,21326.916337705814,0.664585403595312,0.9633412504154057,-0.2987558468200937,Risk,Declining
135284,SGLC7B,LARES CAPITAL PTE. LTD.,Aspire FT Pte Ltd,AspireBA,Key,SG AM - Caroline,2026-Q2,2026-Q3,30604.568242611353,29612.289534148586,0.9675774315586914,-0.06747088946968172,-0.09797242703722768,31717.865193846897,21079.230241034442,0.664585403595312,0.9882967566458579,-0.3237113530505459,Risk,Declining
122887,SGBLPB,BLAZETEC PTE. LTD.,Aspire FT Pte Ltd,AspireBA,Key,SG AM - Caroline,2026-Q2,2026-Q3,30383.98494125115,29290.642702751295,0.9640158379286363,-0.06747088946968172,-0.09797242703722768,31489.257772853605,20927.30108588873,0.664585403595312,0.9775618625972116,-0.3129764590018995,Risk,Declining
105489,SGRDVT,PT Ordivo Teknologi Indonesia,Aspire FT Pte Ltd,AspireBA,Key,Eureka,2026-Q2,2026-Q3,28449.716155839837,4483.480185853561,0.15759314297880062,-0.06747088946968172,-0.09797242703722768,29484.62643487832,19595.052359080615,0.664585403595312,0.18639667316081043,0.4781887304345016,Safe,Growing
28763,SGPRST,Prism Tech Private Limited,Aspire FT Pte Ltd,AspireOS,Key,SG AM-Rachel,2026-Q2,2026-Q3,28170.47368884879,13305.1577914767,0.4723086284751936,-0.06747088946968172,-0.09797242703722768,29195.226014189244,19402.721063696314,0.664585403595312,0.24446701711857283,0.4201183864767392,Safe,Growing
117955,SGNAMD,NAM HO DMC PTE. LTD.,Aspire FT Pte Ltd,AspireBA,Key,SG AM - Caroline,2026-Q2,2026-Q3,27728.26085358739,380.88251998447606,0.0137362570986921,-0.06747088946968172,-0.09797242703722768,28736.926881046067,19098.14214932897,0.664585403595312,0.08029522530137623,0.5842901782939358,Safe,Growing
138876,SGDBJV,V MEDICAL AESTHETICS PTE. LTD.,Aspire FT Pte Ltd,AspireBA,Key,SG AM-Rachel,2026-Q2,2026-Q3,27464.079603618313,1930.2447027506103,0.07028251922545062,-0.06747088946968172,-0.09797242703722768,28463.135556599456,18916.184431470727,0.664585403595312,0.05727840976601505,0.607306993829297,Safe,Growing
138008,SGDSFP,DOSFARM PTE. LTD.,Aspire FT Pte Ltd,AspireOS,Key,SG AM-Rachel,2026-Q2,2026-Q3,25240.486541513088,24435.432491256615,0.9681046540472824,-0.06747088946968172,-0.09797242703722768,26158.65524402868,17384.660452863427,0.664585403595312,0.9899543181332752,-0.3253689145379631,Risk,Declining
88136,SGPAVT,PAVING THE WAY PTE. LTD.,Aspire FT Pte Ltd,AspireBA,Key,SG AM - Caroline,2026-Q2,2026-Q3,24006.576582368354,22993.004611815493,0.9577794040280913,-0.06747088946968172,-0.09797242703722768,24879.8595611343,16534.791507831123,0.664585403595312,0.9833095614864947,-0.3187241578911827,Risk,Declining
118203,SGSRC7,SORA CLOUD PTE. LTD.,Aspire FT Pte Ltd,AspireBA,Key,SG AM-Rachel,2026-Q2,2026-Q3,23810.178622940508,22875.214511984435,0.9607325872786499,-0.06747088946968172,-0.09797242703722768,24676.317267967563,16399.52027077819,0.664585403595312,0.9805854146231692,-0.31600001102785713,Risk,Declining
176080,SGPPY2,PERSISTENCE AI PTE LTD,Aspire FT Pte Ltd,AspireBA,Key,SG AM-Rachel,2026-Q2,2026-Q3,23789.727584391654,22989.546681421,0.9663644360730028,-0.06747088946968172,-0.09797242703722768,24655.122285616413,16385.434394878157,0.664585403595312,0.9826663892430957,-0.31808098564778364,Risk,Declining
73338,SGBLCA,BLOCKTECH APAC PTE. LTD.,Aspire FT Pte Ltd,AspireX,Key,SG AM - Caroline,2026-Q2,2026-Q3,23304.13549157336,22170.70220173665,0.9513634268798964,-0.06747088946968172,-0.09797242703722768,24151.865895357518,16050.977543646028,0.664585403595312,0.9622579991125421,-0.29767259551723,Risk,Declining
141988,SGATFM,ASIA TRAVELS INTERNATIONAL LIMITED,AFT HK Limited,AspireBA,Key,SG AM - Caroline,2026-Q2,2026-Q3,22956.2554083289,21522.029081751487,0.9375235071632348,-0.06747088946968172,-0.09797242703722768,23791.331040021472,15811.371341302345,0.664585403595312,0.9453830489307886,-0.2807976453354766,Risk,Declining
65061,SGPP5T,POSTEX PTE. LTD.,Aspire FT Pte Ltd,AspireOS,Key,SG AM-Rachel,2026-Q2,2026-Q3,22729.33919903435,20408.061545212524,0.8978730690982673,-0.06747088946968172,-0.09797242703722768,23556.16034002505,15655.080326731431,0.664585403595312,0.9319193336758032,-0.2673339300804911,Risk,Declining
129328,SGWPEZ,WEGO PTE. LTD.,Aspire FT Pte Ltd,AspireOS,Key,SG AM-Rachel,2026-Q2,2026-Q3,22301.978543302554,7130.052574291471,0.319704933822236,-0.06747088946968172,-0.09797242703722768,23113.25366151219,15360.731013036902,0.664585403595312,0.3491483644306248,0.31543703916468724,Safe,Growing
67398,SGMAPC,MAVINA PTE. LTD.,Aspire FT Pte Ltd,AspireBA,Key,SG AM - Caroline,2026-Q2,2026-Q3,22183.85790558881,21502.86789291833,0.969302453361869,-0.06747088946968172,-0.09797242703722768,22990.836170309052,15279.37413523854,0.664585403595312,0.9933551834500304,-0.32876977985471834,Risk,Declining
92687,SGSG9S,SURGE GLOBAL PTE. LTD.,Aspire FT Pte Ltd,AspireOS,Key,SG AM-Rachel,2026-Q2,2026-Q3,21826.901186138406,12499.426061825514,0.5726615040417884,-0.06747088946968172,-0.09797242703722768,22620.89449958154,15033.516300691372,0.664585403595312,0.5918131706589802,0.07277223293633184,Safe,Growing
90404,SGPUNK,PUREST NEST PTE. LTD.,Aspire FT Pte Ltd,AspireBA,Key,SG AM - Caroline,2026-Q2,2026-Q3,21705.618421090556,4822.75258634903,0.22218913521777098,-0.06747088946968172,-0.09797242703722768,22495.199852899063,14949.981473196127,0.664585403595312,0.1654192431440491,0.49916616045126294,Safe,Growing
90656,SGDAZP,DAZZ PTE LTD,Aspire FT Pte Ltd,AspireBA,Key,SG AM-Rachel,2026-Q2,2026-Q3,21391.734046592253,20603.63442579986,0.9631586846079951,-0.06747088946968172,-0.09797242703722768,22169.89736217709,14733.790186109105,0.664585403595312,0.9851462931167534,-0.32056088952144135,Risk,Declining
84694,SGLVTX,LOVE IN THE HAIR PTE. LTD.,Aspire FT Pte Ltd,AspireBA,Key,SG AM-Rachel,2026-Q2,2026-Q3,21222.351800111603,20136.656457300203,0.9488418930645712,-0.06747088946968172,-0.09797242703722768,21994.353527756182,14617.126316061818,0.664585403595312,0.9745615069502693,-0.3099761033549573,Risk,Declining
108372,SGEVSA,EVENTUS SECURITY PTE. LTD.,Aspire FT Pte Ltd,AspireBA,Key,SG AM-Rachel,2026-Q2,2026-Q3,21065.327077094676,19316.911882762888,0.9170003300716407,-0.06747088946968172,-0.09797242703722768,21831.616744238436,14508.973825107872,0.664585403595312,0.9242792486401384,-0.2596938450448264,Risk,Declining
89907,SGYBUE,MAX NOW PTE. LTD.,Aspire FT Pte Ltd,AspireOS,Key,SG AM-Rachel,2026-Q2,2026-Q3,20968.13532342666,17581.36985828124,0.8384803697178759,-0.06747088946968172,-0.09797242703722768,21730.889463384214,14442.031944508311,0.664585403595312,0.8241788312915788,-0.15959342769626672,Risk,Declining
105492,SGML5E,MAGICBLOCK LABS PTE. LTD.,Aspire FT Pte Ltd,AspireOS,Key,SG AM-Rachel,2026-Q2,2026-Q3,20811.88714055513,18979.802395105795,0.9119693119092868,-0.06747088946968172,-0.09797242703722768,21568.95746807501,14334.41430405075,0.664585403595312,0.9408912677886487,-0.2763058641933367,Risk,Declining
152838,SGSTKW,SUPERLINEAR TECHNOLOGY PTE LTD,Aspire FT Pte Ltd,AspireBA,Key,SG AM-Rachel,2026-Q2,2026-Q3,20173.245606417888,17072.909912981948,0.8463144823632345,-0.06747088946968172,-0.09797242703722768,20907.084184113653,13894.542980500337,0.664585403595312,0.875168452156066,-0.21058304856075394,Risk,Declining
80381,SGZUSS,ZUSPRESSO M SDN BHD,Aspire FT Pte Ltd,AspireBA,Key,SG AM-Rachel,2026-Q2,2026-Q3,20149.070429634245,11097.940149497514,0.5507916699310961,-0.06747088946968172,-0.09797242703722768,20882.029591211623,13877.892063764626,0.664585403595312,0.5910174804816889,0.07356792311362315,Safe,Growing
102316,SGDGLZ,PT Digital Laskar Pelangi,Aspire FT Pte Ltd,AspireBA,Key,Eureka,2026-Q2,2026-Q3,20133.479880442603,2616.741279152323,0.1299696473084214,-0.06747088946968172,-0.09797242703722768,20865.871907377026,13867.153902932245,0.664585403595312,0.17648479499041717,0.4881006086048949,Safe,Growing
58863,SGSKHZ,OSOME LTD.,Aspire FT Pte Ltd,AspireOS,Key,SG AM-Rachel,2026-Q2,2026-Q3,20052.106885670357,13787.89968217247,0.6876035401559516,-0.06747088946968172,-0.09797242703722768,20781.538821605463,13811.107365088312,0.664585403595312,0.7304331443005018,-0.06584774070518973,Risk,Growing
120791,SGFLP4,FLYWHEEL AI PTE. LTD,Aspire FT Pte Ltd,AspireBA,Key,SG AM-Rachel,2026-Q2,2026-Q3,19866.50669800584,18824.593700821424,0.9475542926080205,-0.06747088946968172,-0.09797242703722768,20589.187088830506,13683.27321112981,0.664585403595312,0.9644138703053047,-0.29982846670999264,Risk,Declining
115719,SGAPYF,AIRGSM PTE. LTD.,Aspire FT Pte Ltd,AspireOS,Key,SG AM-Rachel,2026-Q2,2026-Q3,19253.487141992737,7962.85450097636,0.41357985918348317,-0.06747088946968172,-0.09797242703722768,19953.867829147443,13261.049304521466,0.664585403595312,0.4201771499083215,0.24440825368699054,Safe,Growing
72111,SGANN3,ANTLER INNOVATION PTE. LTD.,Aspire FT Pte Ltd,AspireOS,Key,SG AM-Rachel,2026-Q2,2026-Q3,18613.178392586975,7192.909939388002,0.3864417880533883,-0.06747088946968172,-0.09797242703722768,19290.26668192343,12820.029668267283,0.664585403595312,0.45172502023324224,0.2128603833620698,Safe,Growing
92684,SGEDGT,EDGE TUTOR INTERNATIONAL PTE. LTD.,Aspire FT Pte Ltd,AspireOS,Key,SG AM-Rachel,2026-Q2,2026-Q3,18121.824814040763,15102.807065013474,0.833404318825102,-0.06747088946968172,-0.09797242703722768,18781.03922139209,12481.604530888248,0.664585403595312,0.8566202471368135,-0.19203484354150147,Risk,Declining
70084,SGTSD5,ATTIX APAC PTE. LTD.,Aspire FT Pte Ltd,AspireOS,Key,SG AM-Rachel,2026-Q2,2026-Q3,18114.985687776527,13189.347603255208,0.728090423618441,-0.06747088946968172,-0.09797242703722768,18773.95130944466,12476.894008066016,0.664585403595312,0.7333297441594611,-0.06874434056414902,Risk,Declining
91424,SGAMGD,AMITY GLOBAL INSTITUTE PTE. LTD.,Aspire FT Pte Ltd,AspireBA,Key,SG AM - Caroline,2026-Q2,2026-Q3,18033.22052829723,13341.491453959687,0.7398285532539564,-0.06747088946968172,-0.09797242703722768,18689.211793260052,12420.577362501997,0.664585403595312,0.7814111238719113,-0.11682572027659921,Risk,Declining
120054,SGCDHK,CODE HOUSE PTE. LTD.,Aspire FT Pte Ltd,AspireBA,Key,SG AM - Caroline,2026-Q2,2026-Q3,17682.104595430363,17129.81970598225,0.9687658849393503,-0.06747088946968172,-0.09797242703722768,18325.323378373763,12178.742433431134,0.664585403595312,0.9914171563647532,-0.3268317527694412,Risk,Declining
68165,SGTP78,SF TREASURY SG PTE. LTD.,Aspire FT Pte Ltd,AspireBA,Key,SG AM - Caroline,2026-Q2,2026-Q3,17579.8953444606,16900.627509210546,0.9613610990315655,-0.06747088946968172,-0.09797242703722768,18219.396079608305,12108.344696829332,0.664585403595312,0.9827096252354973,-0.3181242216401853,Risk,Declining
124255,SGMAA3,Hendra Permana,Aspire FT Pte Ltd,AspireBA,Key,SG AM-Rachel,2026-Q2,2026-Q3,17365.281089063887,8807.379522111049,0.5071832397609539,-0.06747088946968172,-0.09797242703722768,17996.974839504903,11960.526787207042,0.664585403595312,0.5350952122416952,0.12949019135361683,Safe,Growing
124255,SGMAA3,Hendra Permana,Aspire FT Pte Ltd,AspireBA,Key,SG AM-Rachel,2026-Q2,2026-Q3,17365.281089063887,8807.379522111049,0.5071832397609539,-0.06747088946968172,-0.09797242703722768,17996.974839504903,11960.526787207042,0.664585403595312,0.5350952122416952,0.12949019135361683,Safe,Growing
124255,SGMAA3,Hendra Permana,Aspire FT Pte Ltd,AspireBA,Key,Eureka,2026-Q2,2026-Q3,17365.281089063887,8807.379522111049,0.5071832397609539,-0.06747088946968172,-0.09797242703722768,17996.974839504903,11960.526787207042,0.664585403595312,0.5350952122416952,0.12949019135361683,Safe,Growing
124255,SGMAA3,Hendra Permana,Aspire FT Pte Ltd,AspireBA,Key,Eureka,2026-Q2,2026-Q3,17365.281089063887,8807.379522111049,0.5071832397609539,-0.06747088946968172,-0.09797242703722768,17996.974839504903,11960.526787207042,0.664585403595312,0.5350952122416952,0.12949019135361683,Safe,Growing
76492,SGMAGL,MAGIK LABS PTE. LTD.,Aspire FT Pte Ltd,AspireBA,Key,SG AM-Rachel,2026-Q2,2026-Q3,17339.350997185193,16160.294038096767,0.9320010905091067,-0.06747088946968172,-0.09797242703722768,17970.101493272643,11942.66715355532,0.664585403595312,0.9602917066965864,-0.2957063031012743,Risk,Declining
77441,SGGZ7B,COBO SINGAPORE PTE. LTD.,Aspire FT Pte Ltd,AspireOS,Key,SG AM-Rachel,2026-Q2,2026-Q3,17116.26997098883,1040.677210729146,0.06080046718666151,-0.06747088946968172,-0.09797242703722768,17738.905488149798,11789.017663181128,0.664585403595312,0.10110997474999456,0.5634754288453174,Safe,Growing
129875,SGJSP7,Clarus Technology Limited,Aspire FT Pte Ltd,AspireBA,Key,SG AM - Caroline,2026-Q2,2026-Q3,16769.137759161993,15364.970747737756,0.9162648055260292,-0.06747088946968172,-0.09797242703722768,17379.1457094173,11549.926565434831,0.664585403595312,0.9368643827663049,-0.27227897917099286,Risk,Declining
101907,SG4VPC,STARTCAREFULLY PTE. LTD.,Aspire FT Pte Ltd,AspireBA,Key,SG AM-Rachel,2026-Q2,2026-Q3,16623.13496191549,15957.463181422378,0.9599550998040861,-0.06747088946968172,-0.09797242703722768,17227.831794308982,11449.365546092984,0.664585403595312,0.9871869567102551,-0.3226015531149431,Risk,Declining
146972,SGBHLQ,BHINDI LABS PTE. LTD.,Aspire FT Pte Ltd,AspireBA,Key,SG AM - Caroline,2026-Q2,2026-Q3,16214.666068737655,11609.213917063404,0.7159699661929088,-0.06747088946968172,-0.09797242703722768,16804.504100646052,11168.028139946933,0.664585403595312,0.7662007358054471,-0.10161533221013508,Risk,Declining
116073,SGFYDF,"Intrepid Ecommerce Services (Thailand) Co., Ltd.",Aspire FT Pte Ltd,AspireOS,Key,SG AM-Rachel,2026-Q2,2026-Q3,16124.827747184976,4632.963926014678,0.2873186615480892,-0.06747088946968172,-0.09797242703722768,16711.397746403094,11106.15101593509,0.664585403595312,0.30865514005407396,0.3559302635412381,Safe,Growing
80086,SGMSME,MISTER MOBILE TRADING PTE. LTD.,Aspire FT Pte Ltd,AspireX,Key,SG AM - Caroline,2026-Q2,2026-Q3,16113.197757922811,7204.306108212095,0.4471059200319042,-0.06747088946968172,-0.09797242703722768,16699.34469508412,11098.140733959714,0.664585403595312,0.4563497174427637,0.20823568615254834,Safe,Growing
83438,SGBRHP,BRIOHR PTE. LTD.,Aspire FT Pte Ltd,AspireBA,Key,SG AM-Rachel,2026-Q2,2026-Q3,15881.939051909012,15376.587967291916,0.9681807691765224,-0.06747088946968172,-0.09797242703722768,16459.67353213543,10938.858777401301,0.664585403595312,0.9897642053255463,-0.3251788017302343,Risk,Declining
55419,SGVPUA,PX Ventures PTE LTD,Aspire FT Pte Ltd,AspireBA,Key,SG AM - Caroline,2026-Q2,2026-Q3,15644.162631283023,10590.339075283802,0.6769514818330201,-0.06747088946968172,-0.09797242703722768,16213.247560826027,10775.087673802273,0.664585403595312,0.6803847848540286,-0.015799381258716605,Risk,Growing
103624,SGPCZC,PRIMROSE CAPITAL MANAGEMENT PTE. LTD. (AP),Aspire FT Pte Ltd,AspireBA,Key,SG AM - Caroline,2026-Q2,2026-Q3,15212.890510989528,14157.400203332156,0.93061868769154,-0.06747088946968172,-0.09797242703722768,15766.287131098805,10478.044296220874,0.664585403595312,0.9444841792659315,-0.2798987756706195,Risk,Declining
123896,SGCLMS,COFFEE MEETS BAGEL PTE. LTD.,Aspire FT Pte Ltd,AspireOS,Key,SG AM-Rachel,2026-Q2,2026-Q3,15067.936804659452,12418.877051161222,0.8241922707905794,-0.06747088946968172,-0.09797242703722768,15616.060469501126,10378.205849692204,0.664585403595312,0.8863293018353623,-0.22174389824005025,Risk,Declining
86460,SGPPGY,PREFER PTE. LTD.,Aspire FT Pte Ltd,AspireBA,Key,SG AM-Rachel,2026-Q2,2026-Q3,15035.432429053513,14242.10523491769,0.947236157132212,-0.06747088946968172,-0.09797242703722768,15582.373687988429,10355.81810640476,0.664585403595312,0.975806925252769,-0.311221521657457,Risk,Declining
90493,SGKRMQ,KRIS MANAGEMENT & SERVICES PTE. LTD.,Aspire FT Pte Ltd,AspireBA,Key,SG AM - Caroline,2026-Q2,2026-Q3,14989.653535797832,14230.69351020888,0.9493677406368047,-0.06747088946968172,-0.09797242703722768,15534.929504051679,10324.287394274907,0.664585403595312,0.9772504205326995,-0.31266501693738746,Risk,Declining
110959,SGLYNM,LYNCHPIN MANAGEMENT SERVICES PTE. LTD.,Aspire FT Pte Ltd,AspireBA,Key,SG AM - Caroline,2026-Q2,2026-Q3,14950.392442749859,5452.365719524974,0.3646971636633579,-0.06747088946968172,-0.09797242703722768,15494.240217184864,10297.245888140518,0.664585403595312,0.4076518190291956,0.2569335845661164,Safe,Growing
72538,SGABHT,ABHIBHA TECHNOLOGIES PTE. LTD.,Aspire FT Pte Ltd,AspireBA,Key,SG AM-Rachel,2026-Q2,2026-Q3,14882.796191178779,14318.759787773255,0.9621014494749424,-0.06747088946968172,-0.09797242703722768,15424.18502875859,10250.688232466297,0.664585403595312,0.9772780551878893,-0.3126926515925773,Risk,Declining
69274,SGTRT9,TRIPLO TECHNOLOGY SERVICES PTE. LTD.,Aspire FT Pte Ltd,AspireBA,Key,SG AM-Rachel,2026-Q2,2026-Q3,14696.997040368262,8833.662157700208,0.6010521832070032,-0.06747088946968172,-0.09797242703722768,15231.627095190552,10122.717040470503,0.664585403595312,0.6271934153352401,0.03739198826007195,Safe,Growing
145670,SGELSG,ELSER GLOBAL PTE. LTD.,Aspire FT Pte Ltd,AspireBA,Key,SG AM-Rachel,2026-Q2,2026-Q3,14694.774607961106,13333.338058708772,0.9073523353999077,-0.06747088946968172,-0.09797242703722768,15229.323817753871,10121.186315905656,0.664585403595312,0.9441643830787737,-0.27957897948346166,Risk,Declining
118501,SGMMWC,MMW CAPITAL INVESTMENT PTE LTD,Aspire FT Pte Ltd,AspireBA,Key,SG AM - Caroline,2026-Q2,2026-Q3,14652.723606507012,14202.431206422909,0.9692690306473715,-0.06747088946968172,-0.09797242703722768,15185.743134477636,10092.22322992156,0.664585403595312,0.9934560883885294,-0.32887068479321735,Risk,Declining
90121,SGTERJ,TERRAVERDE JOURNEYS PTE. LTD.,Aspire FT Pte Ltd,AspireBA,Key,SG AM - Caroline,2026-Q2,2026-Q3,14344.96367815892,13277.32999122922,0.9255743192605475,-0.06747088946968172,-0.09797242703722768,14866.787877797306,9880.250221931816,0.664585403595312,0.9366568572973646,-0.27207145370205255,Risk,Declining
60315,SGBAZT,BAZAAR TECHNOLOGIES PTE LTD,Aspire FT Pte Ltd,AspireOS,Key,SG AM-Rachel,2026-Q2,2026-Q3,14250.082922880421,9128.130084614466,0.6405668046996433,-0.06747088946968172,-0.09797242703722768,14768.455662111159,9814.900066683616,0.664585403595312,0.6697609346114073,-0.005175531016095247,Risk,Growing
131028,SGSMMQ,SMK IMPORT AND EXPORT PTE. LTD.,Aspire FT Pte Ltd,AspireBA,Key,SG AM-Rachel,2026-Q2,2026-Q3,14242.25025645709,12725.04712039884,0.8934716699441237,-0.06747088946968172,-0.09797242703722768,14760.338068170471,9809.505232238322,0.664585403595312,0.9371480544170786,-0.27256265082176656,Risk,Declining
114025,SGWXHM,DIGIMENTAL GLOBAL NETWORK SOLUTION PTE. LTD.,Aspire FT Pte Ltd,AspireBA,Key,SG AM-Rachel,2026-Q2,2026-Q3,13789.011609853236,10345.916269488775,0.7503015126984066,-0.06747088946968172,-0.09797242703722768,14290.612039701069,9497.33217002876,0.664585403595312,0.7838907256314162,-0.11930532203610411,Risk,Declining
136203,SGGTG8,IDA GLOBAL TRANSLATION PTE. LTD.,Aspire FT Pte Ltd,AspireBA,Key,SG AM-Rachel,2026-Q2,2026-Q3,13753.16862997741,4798.018541559718,0.34886640821822007,-0.06747088946968172,-0.09797242703722768,14253.46520610306,9472.644926629739,0.664585403595312,0.37450196158649407,0.29008344200881797,Safe,Growing
55188,SGPRLF,Oxixo Private Ltd.,Aspire FT Pte Ltd,AspireBA,Key,SG AM-Rachel,2026-Q2,2026-Q3,13742.314195210216,8880.063540526105,0.6461839988799839,-0.06747088946968172,-0.09797242703722768,14242.215921487374,9465.168816273264,0.664585403595312,0.7138599509654585,-0.04927454737014647,Risk,Growing
81634,SGSUG2,SUNGIL GARMENT PTE. LTD.,Aspire FT Pte Ltd,AspireBA,Key,SG AM-Rachel,2026-Q2,2026-Q3,13731.555933920525,13268.383775124032,0.9662695064546665,-0.06747088946968172,-0.09797242703722768,14231.066308834728,9457.758946448575,0.664585403595312,0.9886816786144664,-0.3240962750191544,Risk,Declining
133221,SGMBS6,MAZON INTERNATIONAL PTE. LTD.,Aspire FT Pte Ltd,AspireBA,Key,SG AM-Rachel,2026-Q2,2026-Q3,13543.462459730597,12916.988426151524,0.9537434363301263,-0.06747088946968172,-0.09797242703722768,14036.130591692607,9328.207514196538,0.664585403595312,0.9838015179121906,-0.3192161143168786,Risk,Declining
116405,SG48H5,PENGYUAN PHARMA LIMITED,AFT HK Limited,AspireBA,Key,SG AM - Caroline,2026-Q2,2026-Q3,13098.708967277073,12651.939274589487,0.9658920818987813,-0.06747088946968172,-0.09797242703722768,13575.198380321217,9021.878694472201,0.664585403595312,0.9892811162019169,-0.3246957126066049,Risk,Declining
173232,SGPL4F,PANGO LABS PTE LTD,Aspire FT Pte Ltd,AspireBA,Key,SG AM-Rachel,2026-Q2,2026-Q3,13050.004443952826,11607.848658680683,0.8894900157723382,-0.06747088946968172,-0.09797242703722768,13524.722141189759,8988.332922717049,0.664585403595312,0.9145877860099947,-0.25000238241468264,Risk,Declining
84818,SGTRS9,EXO TRAVEL (SINGAPORE) CO. PTE. LTD. (USD),Aspire FT Pte Ltd,AspireBA,Key,SG AM - Caroline,2026-Q2,2026-Q3,12912.5799939634,4626.249400500303,0.358274597536903,-0.06747088946968172,-0.09797242703722768,13382.29862635532,8893.68033362934,0.664585403595312,0.5157337929714105,0.1488516106239015,Safe,Growing
174591,SGZYLU,ZYNK LABS PTE LTD,AFT HK Limited,AspireBA,Key,SG AM-Rachel,2026-Q2,2026-Q3,12842.981812473437,12322.17365793207,0.9594480345650302,-0.06747088946968172,-0.09797242703722768,13310.168684160548,8845.743826884522,0.664585403595312,0.9794500717914046,-0.3148646681960926,Risk,Declining
139091,SGLMFD,LMF DIGITAL PTE. LTD.,Aspire FT Pte Ltd,AspireBA,Key,SG AM-Rachel,2026-Q2,2026-Q3,12748.960964115055,12065.255721309071,0.9463716890552546,-0.06747088946968172,-0.09797242703722768,13212.727656076046,8780.98594190824,0.664585403595312,0.973748213424631,-0.309162809829319,Risk,Declining
68432,SGARP6,ARMADA-GROUP PTE. LTD.,Aspire FT Pte Ltd,AspireBA,Key,SG AM - Caroline,2026-Q2,2026-Q3,12686.38813048749,8002.024479276885,0.6307567131772278,-0.06747088946968172,-0.09797242703722768,13147.878621576916,8737.88822014287,0.664585403595312,0.6688493974721568,-0.004263993876844729,Risk,Growing
120816,SGARL4,AROHA LABS PTE. LTD.,Aspire FT Pte Ltd,AspireBA,Key,SG AM - Caroline,2026-Q2,2026-Q3,12561.027595941434,9517.239614251264,0.7576800179410766,-0.06747088946968172,-0.09797242703722768,13017.957869098393,8651.544784421523,0.664585403595312,0.7740064794525372,-0.10942107585722516,Risk,Declining
67575,SGSTNE,STELLAR NATION TRADING PTE.LTD.,Aspire FT Pte Ltd,AspireBA,Key,SG AM - Caroline,2026-Q2,2026-Q3,12531.872712969724,12116.945521091455,0.9668902484583294,-0.06747088946968172,-0.09797242703722768,12987.742424119444,8631.464040725377,0.664585403595312,0.9887561142036168,-0.3241707106083047,Risk,Declining
150792,SGEZRZ,LENDTECH INVESTMENT HOLDINGS PTE LTD,Aspire FT Pte Ltd,AspireOS,Key,SG AM-Rachel,2026-Q2,2026-Q3,12418.478959385737,5803.420088746402,0.46732132878159344,-0.06747088946968172,-0.09797242703722768,12870.223766071735,8553.36285593676,0.664585403595312,0.5196846755379201,0.14490072805739196,Safe,Growing
80606,SGHRZQ,HORIZON QUANTUM COMPUTING PTE. LTD.,Aspire FT Pte Ltd,AspireBA,Key,SG AM-Rachel,2026-Q2,2026-Q3,12364.805574171472,6489.815667121308,0.5248619259066813,-0.06747088946968172,-0.09797242703722768,12814.597913642518,8516.394726349756,0.664585403595312,0.5608938613544323,0.10369154224087973,Safe,Growing
108293,SGLP5D,LETSVIBE PTE. LTD.,Aspire FT Pte Ltd,AspireOS,Key,SG AM-Rachel,2026-Q2,2026-Q3,12254.46520721332,4857.605208310684,0.39639471214552574,-0.06747088946968172,-0.09797242703722768,12700.24371472441,8440.396594908947,0.664585403595312,0.6108853297995767,0.05370007379573538,Safe,Growing
123082,SGGDFQ,GODSOURCE FURNITURE PTE. LTD.,Aspire FT Pte Ltd,AspireBA,Key,SG AM-Rachel,2026-Q2,2026-Q3,12233.304203238906,11717.891437403952,0.9578680659556809,-0.06747088946968172,-0.09797242703722768,12678.31294066133,8425.821722577077,0.664585403595312,0.9829579107181357,-0.3183725071228236,Risk,Declining
67457,SGRARH,RARIUM INTERNATIONAL PTE. LTD.,Aspire FT Pte Ltd,AspireBA,Key,SG AM - Caroline,2026-Q2,2026-Q3,12206.578529669656,11797.59188664318,0.9664945715924916,-0.06747088946968172,-0.09797242703722768,12650.615072004453,8407.414123357017,0.664585403595312,0.9902394618106144,-0.32565405821530236,Risk,Declining
60213,SGNPQM,UPSURGE LABS PTE LTD,Aspire FT Pte Ltd,AspireBA,Key,SG AM - Caroline,2026-Q2,2026-Q3,12085.2671637691,8838.448176049073,0.7313407354821418,-0.06747088946968172,-0.09797242703722768,12524.890784061128,8323.85959671247,0.664585403595312,0.788339197861899,-0.12375379426658695,Risk,Declining
56856,SGTNKF,Tonik Financial Pte Ltd,Aspire FT Pte Ltd,AspireBA,Key,SG AM - Caroline,2026-Q2,2026-Q3,12010.420332868955,5667.020925121929,0.47184201452242064,-0.06747088946968172,-0.09797242703722768,12447.321263267426,8272.30802542909,0.664585403595312,0.5015314424435955,0.16305396115171655,Safe,Growing
70216,SGSTWN,SUNERA TECH PTE. LTD.,Aspire FT Pte Ltd,AspireBA,Key,SG AM-Rachel,2026-Q2,2026-Q3,11917.462632989336,11546.662272086598,0.968885964041011,-0.06747088946968172,-0.09797242703722768,12350.982057625353,8208.282395565402,0.664585403595312,0.9878238234771126,-0.3232384198818006,Risk,Declining
69417,SGZAUT,ZAURAC TECHNOLOGIES PTE. LTD.,Aspire FT Pte Ltd,AspireBA,Key,SG AM-Rachel,2026-Q2,2026-Q3,11819.087796924161,4766.760905127848,0.4033103896874652,-0.06747088946968172,-0.09797242703722768,12249.02865759543,8140.525654058602,0.664585403595312,0.4571665626301942,0.20741884096511787,Safe,Growing
126651,SGKSFP,KALEI SG PTE. LTD.,Aspire FT Pte Ltd,AspireBA,Key,SG AM-Rachel,2026-Q2,2026-Q3,11780.108141051509,8376.761637800992,0.7110937809313922,-0.06747088946968172,-0.09797242703722768,12208.631045694148,8113.677990848902,0.664585403595312,0.7293081966226095,-0.06472279302729744,Risk,Declining
111587,SGGTYF,GOTYME FINANCIAL PTE. LTD.,Aspire FT Pte Ltd,AspireBA,Key,SG AM - Caroline,2026-Q2,2026-Q3,11736.348263964093,11366.144173932977,0.9684566202617034,-0.06747088946968172,-0.09797242703722768,12163.279323318746,8083.537898130303,0.664585403595312,0.9338617940478957,-0.26927639045258367,Risk,Declining
83575,SGPP8Y,POURQUOI PAS PTE. LTD.,Aspire FT Pte Ltd,AspireBA,Key,SG AM-Rachel,2026-Q2,2026-Q3,11665.174501031977,11055.982818485127,0.9477768907363574,-0.06747088946968172,-0.09797242703722768,12089.516485035128,8034.516192479249,0.664585403595312,0.971625425655324,-0.3070400220600119,Risk,Declining
129420,SGRCCB,RACKSYS CREATION PTE. LTD.,Aspire FT Pte Ltd,AspireBA,Key,SG AM - Caroline,2026-Q2,2026-Q3,11588.803817472832,11192.447473190277,0.9657983385925514,-0.06747088946968172,-0.09797242703722768,12010.367678664506,7981.915051053342,0.664585403595312,0.9847588368434351,-0.3201734332481231,Risk,Declining
112237,SGDPUP,DPUNION PTE. LTD.,Aspire FT Pte Ltd,AspireBA,Scaled,SG AM - Caroline,2026-Q2,2026-Q3,11575.931069668684,11164.809915896527,0.964484830524831,-0.06747088946968172,-0.09797242703722768,11997.026661196474,7973.048805574977,0.664585403595312,0.9845381519617581,-0.31995274836644605,Risk,Declining
130625,SGTAZP,TAZAPAY PTE. LTD.,Aspire FT Pte Ltd,AspireOS,Key,SG AM-Rachel,2026-Q2,2026-Q3,11562.086377715908,4828.521680692051,0.4176168143838003,-0.06747088946968172,-0.09797242703722768,11982.678343339889,7963.513122961345,0.664585403595312,0.4831081318613885,0.18147727173392353,Safe,Growing
81753,SGBANS,BANDLAB SINGAPORE PTE. LTD.,Aspire FT Pte Ltd,AspireOS,Key,SG AM-Rachel,2026-Q2,2026-Q3,11549.807306115268,6058.792148575889,0.5245795005920094,-0.06747088946968172,-0.09797242703722768,11969.952598129326,7955.055778444533,0.664585403595312,0.5310264649827368,0.13355893861257528,Safe,Growing
66817,SGKRRT,KRRAVE TECHNOLOGIES PTE. LTD.,Aspire FT Pte Ltd,AspireBA,Key,SG AM - Caroline,2026-Q2,2026-Q3,11505.967945189726,8458.937870780852,0.7351782927847683,-0.06747088946968172,-0.09797242703722768,11924.518500546317,7924.860940365339,0.664585403595312,0.8246890427795094,-0.16010363918419734,Risk,Declining
94208,SGVADF,VIAS DEVELOPMENT PTE. LTD.,Aspire FT Pte Ltd,AspireBA,Key,SG AM - Caroline,2026-Q2,2026-Q3,11366.699153767086,10987.988400862523,0.9666824336791695,-0.06747088946968172,-0.09797242703722768,11780.183552997441,7828.938040995661,0.664585403595312,0.9883478176706694,-0.32376241407535733,Risk,Declining
81235,SGDEDX,DECUBE DATA PTE. LTD.,Aspire FT Pte Ltd,AspireBA,Key,SG AM-Rachel,2026-Q2,2026-Q3,11097.261619663237,9842.183485990816,0.8869019964845608,-0.06747088946968172,-0.09797242703722768,11500.944737500293,7643.360000099012,0.664585403595312,0.9069750478606591,-0.24238964426534704,Risk,Declining
127034,SGMC4R,MUST COMPANY SG PTE. LTD.,Aspire FT Pte Ltd,AspireBA,Key,SG AM-Rachel,2026-Q2,2026-Q3,11011.922964786883,3885.5531399870474,0.3528496478237255,-0.06747088946968172,-0.09797242703722768,11412.50173351033,7584.582070597161,0.664585403595312,0.41739697682059407,0.24718842677471797,Safe,Growing
66036,SGSCNR,SCALE INSIGHTS PTE. LTD.,Aspire FT Pte Ltd,AspireBA,Key,SG AM-Rachel,2026-Q2,2026-Q3,11011.154765049405,9291.897676812498,0.8438622356218246,-0.06747088946968172,-0.09797242703722768,11411.705589107243,7584.052964647715,0.664585403595312,0.8707153982264727,-0.20612999463116066,Risk,Declining
150189,SGENMN,MEDIATROPY PTE LTD (USD),Aspire FT Pte Ltd,AspireBA,Key,SG AM-Rachel,2026-Q2,2026-Q3,10952.823697115591,6646.991148109468,0.6068746591675663,-0.06747088946968172,-0.09797242703722768,11351.252622260225,7543.876805277156,0.664585403595312,0.6471650318911111,0.017420371704200965,Safe,Growing
144668,SGHMGC,KIM HENG MARINE & OILFIELD PTE LTD,Aspire FT Pte Ltd,AspireBA,Key,SG AM - Caroline,2026-Q2,2026-Q3,10875.393303532319,7148.999909665218,0.6573555282219751,-0.06747088946968172,-0.09797242703722768,11271.00555698187,7490.545777011801,0.664585403595312,-0.005781855251025905,0.670367258846338,Safe,Growing
137316,SGPVPB,PIVENE PTE. LTD.,Aspire FT Pte Ltd,AspireBA,Key,SG AM-Rachel,2026-Q2,2026-Q3,10655.866839427745,10305.807143448512,0.9671486420340786,-0.06747088946968172,-0.09797242703722768,11043.493417625621,7339.344530054896,0.664585403595312,0.9922359893526234,-0.3276505857573113,Risk,Declining
102393,SGHYJD,TELEPORT EVERYWHERE PTE. LTD.,Aspire FT Pte Ltd,AspireOS,Key,SG AM-Rachel,2026-Q2,2026-Q3,10606.993562648522,5478.02622476018,0.5164541858543694,-0.06747088946968172,-0.09797242703722768,10992.842286324687,7305.682527516705,0.664585403595312,0.5581860567243254,0.10639934687098662,Safe,Growing
137806,SGEQTJ,LEARTBAR PARTNERS PTE. LTD.,Aspire FT Pte Ltd,AspireBA,Key,SG AM - Caroline,2026-Q2,2026-Q3,10597.098055416782,8817.263489887493,0.8320450979860932,-0.06747088946968172,-0.09797242703722768,10982.586811981348,7298.866888961175,0.664585403595312,0.8989429755994013,-0.23435757200408924,Risk,Declining
117503,SGKASE,KAIN SUITE PTE. LTD.,Aspire FT Pte Ltd,AspireBA,Key,SG AM-Rachel,2026-Q2,2026-Q3,10439.758927036379,5638.681448791726,0.5401160590201891,-0.06747088946968172,-0.09797242703722768,10819.524186031975,7190.4978478833,0.664585403595312,0.5722050863840225,0.09238031721128959,Safe,Growing
84773,SGBRP3,JOIN BRANDS PTE. LTD.,Aspire FT Pte Ltd,AspireBA,Key,SG AM-Rachel,2026-Q2,2026-Q3,10350.671073685471,7033.653227382293,0.6795359621912788,-0.06747088946968172,-0.09797242703722768,10727.195599639468,7129.137617032251,0.664585403595312,0.7123913781221167,-0.047805974526804684,Risk,Growing
134433,SGYDNT,YDNE TIME PTE LTD,Aspire FT Pte Ltd,AspireBA,Key,SG AM - Caroline,2026-Q2,2026-Q3,10320.332792997973,9868.89231585038,0.956257178309804,-0.06747088946968172,-0.09797242703722768,10695.753708695902,7108.241795249722,0.664585403595312,0.9761180195852908,-0.3115326159899787,Risk,Declining
115418,SGFYWD,"Intrepid Philippines, Inc.",Aspire FT Pte Ltd,AspireOS,Key,SG AM-Rachel,2026-Q2,2026-Q3,10301.782217250993,3784.435368626264,0.3673573454396061,-0.06747088946968172,-0.09797242703722768,10676.528321944921,7095.464883836545,0.664585403595312,0.37462356988226714,0.2899618337130449,Safe,Growing
85644,SGGRVW,GREAT VISION SHIPPING PTE. LTD.,Aspire FT Pte Ltd,AspireBA,Key,SG AM - Caroline,2026-Q2,2026-Q3,10276.934570476464,9956.494396283879,0.9688194789997843,-0.06747088946968172,-0.09797242703722768,10650.77679673041,7078.350796058664,0.664585403595312,0.991291912073397,-0.3267065084780849,Risk,Declining
125582,SGKNSG,KINGMIDAS CAPITAL PTE. LTD,Aspire FT Pte Ltd,AspireBA,Key,SG AM-Rachel,2026-Q2,2026-Q3,10251.523724435723,9935.92792816826,0.9692147426323363,-0.06747088946968172,-0.09797242703722768,10624.441584849863,7060.848798642262,0.664585403595312,0.9875502537175685,-0.3229648501222565,Risk,Declining
85191,SGMP9G,MONETRACK PTE. LTD.,Aspire FT Pte Ltd,AspireBA,Key,SG AM - Caroline,2026-Q2,2026-Q3,10187.82805767156,9143.133126210734,0.8974565603633095,-0.06747088946968172,-0.09797242703722768,10558.42887211226,7016.977713305121,0.664585403595312,0.9163419915480444,-0.25175658795273237,Risk,Declining
65951,SGATAG,Atlasv Global Pte. Ltd.,Aspire FT Pte Ltd,AspireBA,Key,SG AM - Caroline,2026-Q2,2026-Q3,10181.251875478576,4118.316475383492,0.4045000090118984,-0.06747088946968172,-0.09797242703722768,10551.613469305928,7012.448296080411,0.664585403595312,0.42667946611514723,0.2379059374801648,Safe,Growing
105066,SGHNPB,HONGTEX PTE. LTD.,Aspire FT Pte Ltd,AspireBA,Key,SG AM-Rachel,2026-Q2,2026-Q3,10137.934827047595,9677.820222328992,0.9546145627715976,-0.06747088946968172,-0.09797242703722768,10506.720684286458,6982.613206429729,0.664585403595312,0.9800133612619694,-0.3154279576666573,Risk,Declining
114313,SGEXLP,CILLIA EXPRESS LIMITED,AFT HK Limited,AspireBA,Key,SG AM - Caroline,2026-Q2,2026-Q3,10112.80237472778,6570.644580975284,0.6497352897348748,-0.06747088946968172,-0.09797242703722768,10480.673993205854,6965.302955725603,0.664585403595312,0.6300765376053339,0.034508865989978155,Safe,Growing
109572,SGSPLU,SUNA OPTOELECTRONICS (SINGAPORE) PTE LTD,Aspire FT Pte Ltd,AspireBA,Key,SG AM-Rachel,2026-Q2,2026-Q3,9998.261611046346,9676.000551887353,0.9677682909594054,-0.06747088946968172,-0.09797242703722768,10361.966600477805,6886.411755219685,0.664585403595312,0.9887458834215425,-0.3241604798262304,Risk,Declining
77903,SGMUTW,MULTIPLIER TECHNOLOGIES PTE. LTD. (USD Advance/SGD Debit),Aspire FT Pte Ltd,AspireOS,Key,SG AM-Rachel,2026-Q2,2026-Q3,9984.950156998739,3479.1925800361078,0.3484436602417531,-0.06747088946968172,-0.09797242703722768,10348.170918027095,6877.243346030308,0.664585403595312,0.348855911595958,0.315729491999354,Safe,Growing
65252,SGBYAW,DC Byte Asia Pte. Ltd.,Aspire FT Pte Ltd,AspireBA,Key,SG AM-Rachel,2026-Q2,2026-Q3,9884.421365406415,8561.078223151715,0.8661182993588125,-0.06747088946968172,-0.09797242703722768,10243.98520841182,6808.003044156776,0.664585403595312,0.9250275431182666,-0.2604421395229546,Risk,Declining
80992,SGNVDN,INVIDEO INNOVATION PTE. LTD.,Aspire FT Pte Ltd,AspireOS,Key,SG AM-Rachel,2026-Q2,2026-Q3,9810.32403490593,4866.56366481082,0.49606553743741705,-0.06747088946968172,-0.09797242703722768,10167.192452460893,6756.967699449933,0.664585403595312,0.52686977060592,0.13771563298939205,Safe,Growing
82427,SGTPBD,TERRA PAYMENT SERVICES (SINGAPORE) PTE LTD,Aspire FT Pte Ltd,AspireBA,Key,SG AM - Caroline,2026-Q2,2026-Q3,9748.104113805024,9072.227050777632,0.9306657935597721,-0.06747088946968172,-0.09797242703722768,10102.709168324815,6714.113050037206,0.664585403595312,0.9484561197109782,-0.28387071611566617,Risk,Declining
134548,SGGVDN,GREENBOY VENTURES LIMITED,AFT HK Limited,AspireBA,Key,SG AM - Caroline,2026-Q2,2026-Q3,9626.830754270786,9322.353236719238,0.9683719881107838,-0.06747088946968172,-0.09797242703722768,9977.024269298654,6630.584700692069,0.664585403595312,0.9935859623016613,-0.32900055870634926,Risk,Declining
119967,SGGTTH,GLORY TOP TRADING PTE. LTD.,Aspire FT Pte Ltd,AspireBA,Key,SG AM - Caroline,2026-Q2,2026-Q3,9551.50553463488,9133.310500115747,0.9562168463387569,-0.06747088946968172,-0.09797242703722768,9898.958957506993,6578.703633948215,0.664585403595312,0.9745899150789071,-0.3100045114835951,Risk,Declining
142151,SGAEP5,CHRONOAI PTE. LTD.,Aspire FT Pte Ltd,AspireBA,Key,SG AM - Caroline,2026-Q2,2026-Q3,9461.73196349882,9087.575625174402,0.9604558298874005,-0.06747088946968172,-0.09797242703722768,9805.919709095077,6516.871107492177,0.664585403595312,0.9859126595411065,-0.3213272559457945,Risk,Declining
123816,SGJNMR,Jingkaida Microelectronics Technology Pte Ltd,Aspire FT Pte Ltd,AspireBA,Key,SG AM - Caroline,2026-Q2,2026-Q3,9415.44076560183,9074.173450170534,0.9637545045497949,-0.06747088946968172,-0.09797242703722768,9757.94458450194,6484.9875399519115,0.664585403595312,0.9871944725362858,-0.32260906894097374,Risk,Declining
80816,SGSSHW,"(USD) SPROUT SOLUTIONS PHIL., INC",Aspire FT Pte Ltd,AspireBA,Key,SG AM-Rachel,2026-Q2,2026-Q3,9390.431661970892,1877.9236160568444,0.19998267211314757,-0.06747088946968172,-0.09797242703722768,9732.025729143588,6467.762247002853,0.664585403595312,0.2822336520836738,0.38235175151163825,Safe,Growing
147380,SGDYMA,Dyment labs PTE LTD,Aspire FT Pte Ltd,AspireBA,Key,SG AM-Rachel,2026-Q2,2026-Q3,9385.8149967448,8881.45664528177,0.946263765944891,-0.06747088946968172,-0.09797242703722768,9727.241124305334,6464.582468465377,0.664585403595312,0.9737972090170471,-0.3092118054217351,Risk,Declining
135388,SGHECK,HELMSMAN CAPITAL PTE. LTD.,Aspire FT Pte Ltd,AspireBA,Key,SG AM - Caroline,2026-Q2,2026-Q3,9358.790288575921,9056.385461146741,0.9676876158024057,-0.06747088946968172,-0.09797242703722768,9699.233343120231,6445.968905902667,0.664585403595312,0.9894406535779866,-0.32485524998267457,Risk,Declining
125931,SGESH9,ESSENCE SHIPPING PTE. LTD.,Aspire FT Pte Ltd,AspireBA,Key,SG AM - Caroline,2026-Q2,2026-Q3,9278.54213543241,8795.019537878235,0.9478880851650473,-0.06747088946968172,-0.09797242703722768,9616.066017141844,6390.697115001377,0.664585403595312,0.9395294653957598,-0.2749440618004477,Risk,Declining
107087,SGFGZX,OSOME LTD.,Aspire FT Pte Ltd,AspireOS,Key,SG AM-Rachel,2026-Q2,2026-Q3,9235.671356599118,5808.849772595759,0.6289580419560069,-0.06747088946968172,-0.09797242703722768,9571.635735590073,6361.16939840444,0.664585403595312,0.6519638949938382,0.012621508601473819,Safe,Growing
58755,SGASLS,Ascenda Loyalty Pte Ltd,Aspire FT Pte Ltd,AspireOS,Key,SG AM-Rachel,2026-Q2,2026-Q3,9158.243584526586,3848.399305693085,0.4202115034585006,-0.06747088946968172,-0.09797242703722768,9491.39138718469,6307.840175733207,0.664585403595312,0.38689990719738504,0.277685496397927,Safe,Growing
143847,SGMPR3,MOBIVERSA PTE. LTD.,Aspire FT Pte Ltd,AspireBA,Key,SG AM-Rachel,2026-Q2,2026-Q3,8996.845554616753,5061.5694268235675,0.5625937886892157,-0.06747088946968172,-0.09797242703722768,9324.122209764799,6196.675521948551,0.664585403595312,0.5912852314610282,0.07330017213428386,Safe,Growing
95603,SGRNCW,PT. RINAIYANTI CAHAYA INTERMA,Aspire FT Pte Ltd,AspireBA,Key,Eureka,2026-Q2,2026-Q3,8996.685893810585,1340.7524762710727,0.14902737431274166,-0.06747088946968172,-0.09797242703722768,9323.956741005799,6196.565553826569,0.664585403595312,0.19081446421241266,0.4737709393828994,Safe,Growing
78038,SGZUZG,MATHRIX SINGAPORE PTE. LTD.,Aspire FT Pte Ltd,AspireBA,Key,SG AM-Rachel,2026-Q2,2026-Q3,8744.235809561913,8328.578755049068,0.9524650222654883,-0.06747088946968172,-0.09797242703722768,9062.323324814484,6022.687804333044,0.664585403595312,0.9782033294753995,-0.3136179258800874,Risk,Declining
83894,SGYUTW,YUKICHI TRADING PTE. LTD.,Aspire FT Pte Ltd,AspireBA,Key,SG AM-Rachel,2026-Q2,2026-Q3,8727.363892123369,8241.090449436066,0.9442817500567181,-0.06747088946968172,-0.09797242703722768,9044.837660627514,6011.067087142214,0.664585403595312,0.9660885550176314,-0.3015031514223193,Risk,Declining
120222,SGUPWW,UNITE PROPERTIES PTE. LTD.,Aspire FT Pte Ltd,AspireBA,Key,SG AM - Caroline,2026-Q2,2026-Q3,8696.245966941751,8424.576499387776,0.9687601444822617,-0.06747088946968172,-0.09797242703722768,9012.587764200336,5989.634276709251,0.664585403595312,0.9919751937754486,-0.3273897901801366,Risk,Declining
74188,SGERAA,ERA AGRO TECHNOLOGY PTE. LTD.,Aspire FT Pte Ltd,AspireBA,Key,SG AM-Rachel,2026-Q2,2026-Q3,8666.10871463501,2471.9992202547987,0.2852490433313139,-0.06747088946968172,-0.09797242703722768,8981.354214411278,5968.876915416976,0.664585403595312,0.30326670870595046,0.3613186948893616,Safe,Growing
65171,SGLETF,SD LEGOS TECHNOLOGIES PTE LTD,Aspire FT Pte Ltd,AspireBA,Key,SG AM - Caroline,2026-Q2,2026-Q3,8649.84555358679,6141.746996440824,0.7100412323424729,-0.06747088946968172,-0.09797242703722768,8964.499451237883,5957.675485830882,0.664585403595312,0.7249734789281276,-0.06038807533281554,Risk,Declining
91438,SGECME,ECOMMERCE ENABLERS PTE. LTD. (SGD),Aspire FT Pte Ltd,AspireOS,Key,SG AM-Rachel,2026-Q2,2026-Q3,8619.9027908566,3365.887958783349,0.3904786446494096,-0.06747088946968172,-0.09797242703722768,8933.46746593821,5937.052081356135,0.664585403595312,0.46320237966119215,0.2013830239341199,Safe,Growing
90181,SGWULN,WULOOK INVESTMENT MANAGEMENT PTE. LTD.,Aspire FT Pte Ltd,AspireBA,Key,SG AM-Rachel,2026-Q2,2026-Q3,8512.427097930165,8248.42119424124,0.9689858250001202,-0.06747088946968172,-0.09797242703722768,8822.082148791027,5863.027025405282,0.664585403595312,0.9919435190032481,-0.327358115407936,Risk,Declining
125477,SGKBLP,OKBL PTE. LTD.,Aspire FT Pte Ltd,AspireBA,Key,SG AM - Caroline,2026-Q2,2026-Q3,8408.600115997673,6139.121032196365,0.7301002482585015,-0.06747088946968172,-0.09797242703722768,8714.47827115051,5791.5150589551395,0.664585403595312,0.7278268828976117,-0.06324147930229962,Risk,Declining
176595,SGDP67,DIGITAL PATHOLOGY PTE LTD,Aspire FT Pte Ltd,AspireBA,Scaled,SG AM - Caroline,2026-Q2,2026-Q3,8372.508985849625,8105.470293593695,0.9681052964281971,-0.06747088946968172,-0.09797242703722768,8677.074260361836,5766.656899349065,0.664585403595312,0.983982608114123,-0.31939720451881093,Risk,Declining
58127,SGWDHP,WOODHOO PTE. LTD.,Aspire FT Pte Ltd,AspireBA,Key,SG AM - Caroline,2026-Q2,2026-Q3,8348.485986086138,8088.8446760651605,0.9688995932371804,-0.06747088946968172,-0.09797242703722768,8652.177380196435,5750.110796196078,0.664585403595312,0.989812822754302,-0.32522741915899,Risk,Declining
134985,SGUUDK,HAPPY SUPPLIER PTE. LTD.,Aspire FT Pte Ltd,AspireBA,Key,SG AM-Rachel,2026-Q2,2026-Q3,8316.998474042706,6164.435190857561,0.7411850813844345,-0.06747088946968172,-0.09797242703722768,8619.544452511716,5728.423428780232,0.664585403595312,0.7295925881097782,-0.06500718451446619,Risk,Declining
56632,SGPRPH,PRIVYR PTE. LTD.,Aspire FT Pte Ltd,AspireBA,Key,SG AM-Rachel,2026-Q2,2026-Q3,8283.95361079753,2777.868217438693,0.3353312135666652,-0.06747088946968172,-0.09797242703722768,8585.297522136781,5705.663418735106,0.664585403595312,0.39639024003691575,0.2681951635583963,Safe,Growing
76663,SGMEPR,MEDIQ PTE. LTD.,Aspire FT Pte Ltd,AspireBA,Key,SG AM-Rachel,2026-Q2,2026-Q3,8164.24428110104,7734.188688153784,0.947324506942698,-0.06747088946968172,-0.09797242703722768,8461.233547384396,5623.212312002653,0.664585403595312,0.9722904626117322,-0.3077050590164202,Risk,Declining
123806,SGKPTZ,SHOPUP PTE. LTD.,Aspire FT Pte Ltd,AspireBA,Key,SG AM - Caroline,2026-Q2,2026-Q3,8155.943090441695,3947.477466420262,0.48400012391534253,-0.06747088946968172,-0.09797242703722768,8452.630385784654,5617.494776378692,0.664585403595312,0.4950662623611054,0.16951914123420664,Safe,Growing
116072,SGFYDR,INTREPID DIGITAL COMMERCE PTE. LTD.,Aspire FT Pte Ltd,AspireOS,Key,SG AM-Rachel,2026-Q2,2026-Q3,8065.213064486999,2821.6781861215914,0.34985786036404837,-0.06747088946968172,-0.09797242703722768,8358.599889766792,5555.003481232395,0.664585403595312,0.36568263492318204,0.29890276867213,Safe,Growing
159924,SGFLJY,One Funnel Limited,AFT HK Limited,AspireBA,Key,SG AM-Rachel,2026-Q2,2026-Q3,7950.184573693363,4382.126278769579,0.5511980556111548,-0.06747088946968172,-0.09797242703722768,8239.387027963878,5475.7763533573525,0.664585403595312,0.5602379228259124,0.10434748076939959,Safe,Growing
98527,SGWALH,WALKER HOLDINGS PTE. LTD.,Aspire FT Pte Ltd,AspireBA,Key,SG AM-Rachel,2026-Q2,2026-Q3,7910.97444801163,5240.82809757971,0.6624756699722316,-0.06747088946968172,-0.09797242703722768,8198.750562494144,5448.769951552463,0.664585403595312,0.6871815164275382,-0.02259611283222618,Risk,Growing
110521,SGTTKK,TRY-V Technologies Pte. Ltd.,Aspire FT Pte Ltd,AspireBA,Key,SG AM-Rachel,2026-Q2,2026-Q3,7806.681829206325,7533.428098225431,0.9649974551340624,-0.06747088946968172,-0.09797242703722768,8090.664109590875,5376.937272626557,0.664585403595312,0.9854852918896014,-0.3208998882942894,Risk,Declining
125793,SGNSG8,NINE SMART PTE. LTD.,Aspire FT Pte Ltd,AspireBA,Key,SG AM-Rachel,2026-Q2,2026-Q3,7775.3450536317705,7499.26865528254,0.964493357343636,-0.06747088946968172,-0.09797242703722768,8058.187401688828,5355.3537265980285,0.664585403595312,0.9773512895769783,-0.3127658859816662,Risk,Declining
124956,SGKH5E,KAYNES HOLDING PTE. LTD.,Aspire FT Pte Ltd,AspireBA,Scaled,SG AM - Caroline,2026-Q2,2026-Q3,7754.515687159291,7476.481237504953,0.9641454784707271,-0.06747088946968172,-0.09797242703722768,8036.600329046271,5341.007273213434,0.664585403595312,0.9826280399083959,-0.3180426363130838,Risk,Declining
92525,SGVBPX,VIBEFAM PTE. LTD.,Aspire FT Pte Ltd,AspireBA,Key,SG AM-Rachel,2026-Q2,2026-Q3,7739.476399473347,6770.124766238704,0.8747522980623593,-0.06747088946968172,-0.09797242703722768,8021.013959859396,5330.648799756788,0.664585403595312,0.8372767118454721,-0.1726913082501601,Risk,Declining
72736,SGKNEN,KINETIC INNOVATION PTE. LTD.,Aspire FT Pte Ltd,AspireBA,Key,SG AM-Rachel,2026-Q2,2026-Q3,7667.725433969524,6207.630575062631,0.8095791416267479,-0.06747088946968172,-0.09797242703722768,7946.652922208486,5281.229539537792,0.664585403595312,0.7975705358117562,-0.13298513221644415,Risk,Declining
104921,SGTTMS,TTMFS SINGAPORE PTE LTD,Aspire FT Pte Ltd,AspireOS,Key,SG AM-Rachel,2026-Q2,2026-Q3,7666.381576757193,2629.916605076935,0.34304535702348443,-0.06747088946968172,-0.09797242703722768,7945.260179740676,5280.303943222719,0.664585403595312,0.4288048673086106,0.23578053628670143,Safe,Growing
147173,SGSGG4,Stadioo Global Limited,AFT HK Limited,AspireBA,Key,SG AM - Caroline,2026-Q2,2026-Q3,7558.915718336811,7284.258071007493,0.9636644119919158,-0.06747088946968172,-0.09797242703722768,7833.885054847627,5206.285660895193,0.664585403595312,0.9787615080122194,-0.31417610441690735,Risk,Declining
121003,SGCTYN,LION CITY INNOVATIONS PTE. LTD.,Aspire FT Pte Ltd,AspireBA,Key,SG AM - Caroline,2026-Q2,2026-Q3,7471.5311115050345,7081.145541073059,0.9477502583331493,-0.06747088946968172,-0.09797242703722768,7743.321673670807,5146.098559664841,0.664585403595312,0.9581234995862101,-0.2935380959908981,Risk,Declining
115951,SGSKPL,SKINSEOUL PTE. LTD.,Aspire FT Pte Ltd,AspireBA,Key,SG AM-Rachel,2026-Q2,2026-Q3,7460.94546108433,3309.71133952488,0.44360481614402064,-0.06747088946968172,-0.09797242703722768,7732.350950922117,5138.80757745917,0.664585403595312,0.5097238586212262,0.15486154497408589,Safe,Growing
146268,SGGDL7,Goodsol HK Limited,AFT HK Limited,AspireBA,Key,SG AM - Caroline,2026-Q2,2026-Q3,7319.082489385562,1795.7101510435334,0.2453463468471283,-0.06747088946968172,-0.09797242703722768,7585.327455061288,5041.097908124507,0.664585403595312,0.34208701734895064,0.3224983862463614,Safe,Growing
104000,SGRPBE,RADIAROSE PTE. LTD.,Aspire FT Pte Ltd,AspireBA,Key,SG AM-Rachel,2026-Q2,2026-Q3,7299.895213407163,5755.726783301348,0.788467041654275,-0.06747088946968172,-0.09797242703722768,7565.442206947489,5027.882462481205,0.664585403595312,0.8243584624294918,-0.1597730588341798,Risk,Declining
108170,SGYNCA,YING CONSERVATION RESEARCH PTE. LTD.,Aspire FT Pte Ltd,AspireBA,Key,SG AM - Caroline,2026-Q2,2026-Q3,7276.959923345271,7028.309839145642,0.9658304997115715,-0.06747088946968172,-0.09797242703722768,7541.672603906593,5012.085531250971,0.664585403595312,0.9900132517404027,-0.3254278481450906,Risk,Declining
74054,SGPL5G,Primal Co Ltd,Aspire FT Pte Ltd,AspireBA,Key,SG AM-Rachel,2026-Q2,2026-Q3,7271.957973112409,4077.2300124149733,0.5606784345413252,-0.06747088946968172,-0.09797242703722768,7536.488698617206,5008.640383462024,0.664585403595312,0.586539578832829,0.07804582476248301,Safe,Growing
121299,SGHGFS,HIGH FIVE SOLUTIONS PTE. LTD.,Aspire FT Pte Ltd,AspireBA,Key,SG AM-Rachel,2026-Q2,2026-Q3,7106.623457696002,5745.57141496778,0.8084811935189428,-0.06747088946968172,-0.09797242703722768,7365.1398388556045,4894.7644323417635,0.664585403595312,0.8304691705274793,-0.16588376693216722,Risk,Declining
87141,SGTCZF,THE CARE SVC PTE. LTD.,Aspire FT Pte Ltd,AspireBA,Key,SG AM - Caroline,2026-Q2,2026-Q3,7101.986553326991,6795.409438439012,0.956832202851136,-0.06747088946968172,-0.09797242703722768,7360.334258638719,4891.570713873814,0.664585403595312,0.9789719874218039,-0.31438658382649187,Risk,Declining
62907,SGAMEN,AMENLI INSURANCE PTE. LTD.,Aspire FT Pte Ltd,AspireBA,Key,SG AM - Caroline,2026-Q2,2026-Q3,7044.900249090008,4641.2452970032655,0.6588092283638475,-0.06747088946968172,-0.09797242703722768,7301.171336036773,4852.251899078522,0.664585403595312,0.7745977333302423,-0.11001232973493025,Risk,Growing
54182,SGFEXR,PROPERTY SCOUT HOLDING PTE. LTD.,Aspire FT Pte Ltd,AspireOS,Key,SG AM-Rachel,2026-Q2,2026-Q3,6964.754575510646,6117.123674143167,0.8782970896996278,-0.06747088946968172,-0.09797242703722768,7218.110217503464,4797.050692094985,0.664585403595312,0.8885244449499194,-0.2239390413546074,Risk,Declining
80725,SGSPSV,SPROUT SOLUTIONS PHIL INC,Aspire FT Pte Ltd,AspireBA,Key,SG AM-Rachel,2026-Q2,2026-Q3,6944.780375461809,4415.12949967993,0.6357478942429963,-0.06747088946968172,-0.09797242703722768,7197.409419521879,4783.293243913648,0.664585403595312,0.6678170969778079,-0.0032316933824958483,Risk,Growing
146925,SGLT93,LUSTRON TECHNOLOGY PTE. LTD.,Aspire FT Pte Ltd,AspireBA,Key,SG AM-Rachel,2026-Q2,2026-Q3,6894.78486636289,6673.204894531105,0.9678626706813157,-0.06747088946968172,-0.09797242703722768,7145.5952326551815,4748.858291622882,0.664585403595312,0.988219760445516,-0.3236343568502039,Risk,Declining
144644,SGMGHM,MADINA GLOBAL SOLUTION PTE. LTD.,Aspire FT Pte Ltd,AspireBA,Key,SG AM-Rachel,2026-Q2,2026-Q3,6874.424144518025,3821.662106931795,0.555924689339886,-0.06747088946968172,-0.09797242703722768,7124.493852442744,4734.83462233798,0.664585403595312,0.5911895130039934,0.07339589059131868,Safe,Growing
79689,SGPSGR,PURPLE STONE CONSULTING PTE. LTD.,Aspire FT Pte Ltd,AspireBA,Key,SG AM-Rachel,2026-Q2,2026-Q3,6845.929354361871,6294.164459497155,0.9194024848484361,-0.06747088946968172,-0.09797242703722768,7094.962512358637,4715.208524769474,0.664585403595312,0.9677490398101065,-0.3031636362147945,Risk,Declining
55758,SGMMUS,IMMUNI SOFTWARE PTE. LTD.,Aspire FT Pte Ltd,AspireOS,Key,SG AM-Rachel,2026-Q2,2026-Q3,6831.152491937916,4171.000914422657,0.6105852444876976,-0.06747088946968172,-0.09797242703722768,7079.648114630964,4705.030799574809,0.664585403595312,0.6349106246304453,0.0296747789648667,Safe,Growing
92699,SGWATH,WAFFO TECHNOLOGIES PTE. LTD.,Aspire FT Pte Ltd,AspireBA,Key,SG AM-Rachel,2026-Q2,2026-Q3,6804.923977254017,5500.9456376249145,0.8083772362501402,-0.06747088946968172,-0.09797242703722768,7052.46548992004,4686.96562396052,0.664585403595312,0.8514517365797873,-0.1868663329844753,Risk,Declining
124505,SGBWXZ,Benjamin Warwick Limited,AFT HK Limited,AspireBA,Key,SG AM - Caroline,2026-Q2,2026-Q3,6745.610413120708,6054.701986696484,0.8975765892023121,-0.06747088946968172,-0.09797242703722768,6990.994286783526,4646.112759614551,0.664585403595312,0.912846642722556,-0.24826123912724396,Risk,Declining
70699,SGNTCD,INTELLECT COMPANY PTE. LTD.,Aspire FT Pte Ltd,AspireOS,Key,SG AM-Rachel,2026-Q2,2026-Q3,6732.005055586268,3197.986953129194,0.4750422684955473,-0.06747088946968172,-0.09797242703722768,6976.894009570969,4636.741921192437,0.664585403595312,0.5130939286501032,0.15149147494520887,Safe,Growing
72147,SGCP9H,CARGOAI PTE. LTD.,Aspire FT Pte Ltd,AspireBA,Key,SG AM-Rachel,2026-Q2,2026-Q3,6727.200695377194,4375.787697431909,0.6504618927808811,-0.06747088946968172,-0.09797242703722768,6971.914882002623,4633.432865687875,0.664585403595312,0.6481387610260091,0.01644664256930295,Safe,Growing
133261,SGJVHF,CAVAS C A PTE LTD,Aspire FT Pte Ltd,AspireBA,Key,SG AM - Caroline,2026-Q2,2026-Q3,6718.8721400601835,6492.765265511585,0.9663474955565128,-0.06747088946968172,-0.09797242703722768,6963.283360305917,4627.696482357429,0.664585403595312,0.9860854929635495,-0.3215000893682375,Risk,Declining
99918,SGJTY5,DIGITAL ASSET NETWORK SECURITY PTE LTD,Aspire FT Pte Ltd,AspireBA,Key,SG AM-Rachel,2026-Q2,2026-Q3,6712.2521892069035,6455.8417059701615,0.9617996350540818,-0.06747088946968172,-0.09797242703722768,6956.422596674496,4623.136918990469,0.664585403595312,0.9824019950465058,-0.3178165914511938,Risk,Declining
108958,SGMBBP,MOBBIN PTE. LTD.,Aspire FT Pte Ltd,AspireOS,Key,SG AM-Rachel,2026-Q2,2026-Q3,6699.606504716301,2940.014836481055,0.43883395754831006,-0.06747088946968172,-0.09797242703722768,6943.316902361894,4614.427065846331,0.664585403595312,0.4676952952503623,0.19689010834494974,Safe,Growing
138436,SGYNQE,YAQITE INTERNATIONAL PTE. LTD.,Aspire FT Pte Ltd,AspireBA,Key,SG AM-Rachel,2026-Q2,2026-Q3,6654.43067914922,6192.505422172469,0.9305838050993404,-0.06747088946968172,-0.09797242703722768,6896.4977238001,4583.311723165841,0.664585403595312,0.9618603109481793,-0.2972749073528672,Risk,Declining
96850,SGGP5G,GOROCKY PTE. LTD.,Aspire FT Pte Ltd,AspireBA,Key,SG AM-Rachel,2026-Q2,2026-Q3,6647.287304082171,4331.987696833574,0.6516925624943657,-0.06747088946968172,-0.09797242703722768,6889.094495445117,4578.391645661635,0.664585403595312,0.6906603655852048,-0.026074961989892786,Risk,Growing
122962,SGEP8R,ERANOVA PTE. LTD.,Aspire FT Pte Ltd,AspireBA,Key,SG AM - Caroline,2026-Q2,2026-Q3,6633.712909299564,6406.250973896563,0.9657112180594777,-0.06747088946968172,-0.09797242703722768,6875.0263073109245,4569.042133172618,0.664585403595312,0.9836069839861861,-0.319021580390874,Risk,Declining
69527,SGTAPG,TABLEVIBE PTE. LTD.,Aspire FT Pte Ltd,AspireOS,Key,SG AM-Rachel,2026-Q2,2026-Q3,6623.93999260777,4659.9255103826445,0.70349754309113,-0.06747088946968172,-0.09797242703722768,6864.897882961861,4562.310930188812,0.664585403595312,0.723406495827094,-0.058821092231782,Risk,Declining
80746,SGDGP4,DIGITIBLE PTE. LTD.,Aspire FT Pte Ltd,AspireBA,Key,SG AM-Rachel,2026-Q2,2026-Q3,6613.17520980319,5858.637371318574,0.8859038488249774,-0.06747088946968172,-0.09797242703722768,6853.741511562335,4554.896568599599,0.664585403595312,0.9687994340127152,-0.30421403041740314,Risk,Declining
83147,SGGEKD,META 1 NETWORK PTE. LTD.,Aspire FT Pte Ltd,AspireBA,Key,SG AM - Caroline,2026-Q2,2026-Q3,6600.410529833906,4741.910794021238,0.7184266452196821,-0.06747088946968172,-0.09797242703722768,6840.512493093627,4546.104756021402,0.664585403595312,0.7290465319401139,-0.06446112834480189,Risk,Declining
122858,SGNUPR,NUTRIMOTION PTE. LTD.,Aspire FT Pte Ltd,AspireBA,Key,SG AM - Caroline,2026-Q2,2026-Q3,6594.482286932002,6200.890935233667,0.940315049070903,-0.06747088946968172,-0.09797242703722768,6834.368599551056,4542.021614051766,0.664585403595312,0.9595445177065318,-0.2949591141112198,Risk,Declining
107154,SGAPMP,APPLABS MEDIA PTE. LTD.,Aspire FT Pte Ltd,AspireBA,Key,SG AM-Rachel,2026-Q2,2026-Q3,6575.1612820719565,6193.681015808843,0.9419816108080467,-0.06747088946968172,-0.09797242703722768,6814.3447579238,4528.714061182388,0.664585403595312,0.9393834759840441,-0.2747980723887321,Risk,Declining
104726,SGBLTH,BLUE TECHNOLOGY COMPANY LIMITED,Aspire FT Pte Ltd,AspireBA,Scaled,SG AM-Rachel,2026-Q2,2026-Q3,6574.384941768878,1246.4041728984653,0.18958490930150992,-0.06747088946968172,-0.09797242703722768,6813.5401768271995,4528.179348329578,0.664585403595312,0.14361965934816198,0.52096574424715,Safe,Growing
93539,SGNTAL,INITIA LABS PTE. LTD.,Aspire FT Pte Ltd,AspireBA,Key,SG AM - Caroline,2026-Q2,2026-Q3,6568.528632975571,2501.9719844475653,0.38090295776242383,-0.06747088946968172,-0.09797242703722768,6807.470834127537,4524.145751761965,0.664585403595312,0.4099181482378118,0.25466725535750023,Safe,Growing
102761,SGAYK4,SHARDLAB PTE. LTD.,Aspire FT Pte Ltd,AspireBA,Key,SG AM - Caroline,2026-Q2,2026-Q3,6538.522806248955,4543.802367145893,0.6949279679506998,-0.06747088946968172,-0.09797242703722768,6776.373490763626,4503.478911271718,0.664585403595312,0.7140992795898576,-0.0495138759945456,Risk,Declining
133106,SGGCAC,GRAND CORNERSTONE PTE. LTD.,Aspire FT Pte Ltd,AspireBA,Key,SG AM-Rachel,2026-Q2,2026-Q3,6484.980525210869,6081.730535222131,0.937817856442117,-0.06747088946968172,-0.09797242703722768,6720.883511663951,4466.601081116265,0.664585403595312,0.9766966562327136,-0.3121112526374016,Risk,Declining
77290,SGGLDA,GOLDIE AGENCY PTE. LTD.,Aspire FT Pte Ltd,AspireBA,Key,SG AM-Rachel,2026-Q2,2026-Q3,6461.768079048836,2231.723498685247,0.3453735063505643,-0.06747088946968172,-0.09797242703722768,6696.826670464612,4450.613255598574,0.664585403595312,0.44398524395848016,0.22060015963683188,Safe,Growing
86540,SGEMBA,Embassy Alliance Travel Pte Ltd,Aspire FT Pte Ltd,AspireBA,Key,SG AM - Caroline,2026-Q2,2026-Q3,6460.740366520532,4735.072247535145,0.7328993240576923,-0.06747088946968172,-0.09797242703722768,6695.761573019932,4449.905407383433,0.664585403595312,0.7321421771684709,-0.06755677357315881,Risk,Declining
113081,SGLPRM,YOBO LABS PTE. LTD.,Aspire FT Pte Ltd,AspireBA,Key,SG AM - Caroline,2026-Q2,2026-Q3,6457.211919936719,5889.08264484137,0.9120163187859387,-0.06747088946968172,-0.09797242703722768,6692.10477276051,4447.475151307158,0.664585403595312,0.9346388025269561,-0.27005339893164404,Risk,Declining
146485,SGSYPB,SYNGENTIX PTE. LTD.,Aspire FT Pte Ltd,AspireBA,Key,SG AM-Rachel,2026-Q2,2026-Q3,6336.689392281996,6031.054459492759,0.9517674113612864,-0.06747088946968172,-0.09797242703722768,6567.198018491985,4364.463945609829,0.664585403595312,0.9735638460995443,-0.30897844250423223,Risk,Declining
147638,SGBMM2,BEFITTING MOTION PTE. LTD.,Aspire FT Pte Ltd,AspireBA,Key,SG AM-Rachel,2026-Q2,2026-Q3,6289.493011200442,6086.4940143221875,0.9677241080454736,-0.06747088946968172,-0.09797242703722768,6518.284783026114,4331.956923276592,0.664585403595312,0.9907416341852867,-0.32615623058997467,Risk,Declining
107103,SGQUFM,QUANTUM FRONTIER PTE LTD,Aspire FT Pte Ltd,AspireBA,Key,SG AM - Caroline,2026-Q2,2026-Q3,6280.9490596198475,6075.46376667801,0.9672843560755969,-0.06747088946968172,-0.09797242703722768,6509.4300296341435,4326.072183419851,0.664585403595312,0.9902834446592665,-0.3256980410639545,Risk,Declining
84886,SGPATN,PATEN INTERNATIONAL PTE. LTD.,Aspire FT Pte Ltd,AspireBA,Key,SG AM - Caroline,2026-Q2,2026-Q3,6273.955578150231,5279.046273939407,0.841422322517598,-0.06747088946968172,-0.09797242703722768,6502.182147529403,4321.255346766061,0.664585403595312,0.8296242594082239,-0.1650388558129119,Risk,Declining
87493,SGGTZ7,GETGO TECHNOLOGIES PTE. LTD.,Aspire FT Pte Ltd,AspireOS,Key,SG AM-Rachel,2026-Q2,2026-Q3,6269.768405084794,1277.5697341111468,0.2037666547738885,-0.06747088946968172,-0.09797242703722768,6497.84265841196,4318.371385639548,0.664585403595312,0.28920675359238196,0.3753786500029301,Safe,Growing
95083,SGGP5E,GLINTS PTE. LTD.,Aspire FT Pte Ltd,AspireOS,Key,SG AM-Rachel,2026-Q2,2026-Q3,6243.217331134924,3047.7134503342,0.4881639207296618,-0.06747088946968172,-0.09797242703722768,6470.325740753853,4300.084043812036,0.664585403595312,0.4971485495421494,0.16743685405316266,Safe,Growing
137290,SGDRDU,SPRING STAR FINANCIAL CONSULTING PTE. LTD.,Aspire FT Pte Ltd,AspireBA,Key,SG AM-Rachel,2026-Q2,2026-Q3,6220.419414630877,6024.23054611962,0.9684605079763904,-0.06747088946968172,-0.09797242703722768,6446.698508484353,4284.38173011837,0.664585403595312,0.9926359102794339,-0.32805050668412183,Risk,Declining
105103,SGTML4,TIME LOGISTICS & TECHNOLOGY PTE. LTD.,Aspire FT Pte Ltd,AspireBA,Key,SG AM - Caroline,2026-Q2,2026-Q3,6204.3656007228965,5919.767059874832,0.9541293084316461,-0.06747088946968172,-0.09797242703722768,6430.0607078349885,4273.324490658873,0.664585403595312,0.9814041965126735,-0.3168187929173615,Risk,Declining
137265,SGS2GT,OMNISHELF PTE. LTD.,Aspire FT Pte Ltd,AspireBA,Key,SG AM - Caroline,2026-Q2,2026-Q3,6161.698381204447,3630.0572511863375,0.5891325778391571,-0.06747088946968172,-0.09797242703722768,6385.841390439156,4243.936977760655,0.664585403595312,0.6459223950172247,0.018663008578087337,Safe,Growing
77244,SGPPYK,PROPFUNNELS PTE. LIMITED,Aspire FT Pte Ltd,AspireBA,Scaled,SG AM-Rachel,2026-Q2,2026-Q3,6161.586667976825,591.3104680893147,0.09596724025038719,-0.06747088946968172,-0.09797242703722768,6385.725613439265,4243.860034056455,0.664585403595312,0.07575776567710044,0.5888276379182116,Safe,Growing
50195,SGDEPK,Deliveree Private Limited,Aspire FT Pte Ltd,AspireBA,Key,SG AM-Rachel,2026-Q2,2026-Q3,6161.182868110875,3733.2621600338225,0.6059326983064383,-0.06747088946968172,-0.09797242703722768,6385.307124617205,4243.581912493746,0.664585403595312,0.6217004091476909,0.04288499444762117,Safe,Growing
91832,SGFRPA,FIRST PAGE DIGITAL PTE. LTD.,Aspire FT Pte Ltd,AspireOS,Key,SG AM-Rachel,2026-Q2,2026-Q3,6161.04509809629,-249.26306963886833,-0.040457919990861374,-0.06747088946968172,-0.09797242703722768,6385.164342967233,4243.487021893274,0.664585403595312,-0.02385921335117783,0.6884446169464898,Safe,Growing
115420,SG7BGM,PT INTREPID DIGITAL INDONESIA,Aspire FT Pte Ltd,AspireOS,Key,SG AM-Rachel,2026-Q2,2026-Q3,6152.501154719217,8.142247208207648,0.0013234044177240366,-0.06747088946968172,-0.09797242703722768,6376.309598077203,4237.6022876868,0.664585403595312,0.013430882892510944,0.6511545207028011,Safe,Growing
63053,SGTNAP,Tinai Private Limited,Aspire FT Pte Ltd,AspireBA,Key,SG AM - Caroline,2026-Q2,2026-Q3,6104.112473599032,5707.354777435489,0.9350015751053796,-0.06747088946968172,-0.09797242703722768,6326.160690485651,4204.274055695204,0.664585403595312,0.9620299376379633,-0.29744453404265125,Risk,Declining
111928,SGTPVY,TPA VENTURES PTE. LTD. (PHP),Aspire FT Pte Ltd,AspireOS,Key,SG AM-Rachel,2026-Q2,2026-Q3,6084.891994298371,2864.6449607738273,0.47077991909437994,-0.06747088946968172,-0.09797242703722768,6306.241031218225,4191.0357409014805,0.664585403595312,0.4253679979796913,0.23921740561562072,Safe,Growing
74424,SGMVST,MVS TECHNOLOGY PTE. LTD.,Aspire FT Pte Ltd,AspireBA,Key,SG AM-Rachel,2026-Q2,2026-Q3,6083.579538337633,5725.6857759287395,0.9411705295947048,-0.06747088946968172,-0.09797242703722768,6304.880832279767,4190.131772540995,0.664585403595312,0.9461309443491585,-0.2815455407538464,Risk,Declining
78894,SGDAGC,Dagaz Company Limited,Aspire FT Pte Ltd,AspireBA,Key,SG AM - Caroline,2026-Q2,2026-Q3,6080.359363525967,5621.166199779076,0.924479272310542,-0.06747088946968172,-0.09797242703722768,6301.543517740076,4187.913842010711,0.664585403595312,0.9412980795643753,-0.27671267596906324,Risk,Declining
103959,SGSQPY,SQUAREX PTE. LTD.,Aspire FT Pte Ltd,AspireOS,Key,SG AM-Rachel,2026-Q2,2026-Q3,6042.5547325035395,4022.2322363272683,0.6656509397740755,-0.06747088946968172,-0.09797242703722768,6262.3636743596035,4161.875489984898,0.664585403595312,0.713586996573017,-0.04900159297770501,Risk,Growing
70664,SGHRCH,HRC SG HOLDINGS PTE. LTD.,Aspire FT Pte Ltd,AspireBA,Key,SG AM - Caroline,2026-Q2,2026-Q3,6042.306672029399,3393.996478047582,0.5617054317614861,-0.06747088946968172,-0.09797242703722768,6262.10659023359,4161.704635627254,0.664585403595312,0.6230208729995925,0.04156453059571952,Safe,Growing
122552,SGCPS7,CYBROG PTE. LTD.,Aspire FT Pte Ltd,AspireBA,Key,SG AM - Caroline,2026-Q2,2026-Q3,6040.692411459219,2322.5150722500703,0.38447828726459393,-0.06747088946968172,-0.09797242703722768,6260.433607992938,4160.592796049642,0.664585403595312,0.40729373476660297,0.2572916688287091,Safe,Growing
89596,SGSACE,Sasi Capital Limited,AFT HK Limited,AspireBA,Key,SG AM - Caroline,2026-Q2,2026-Q3,6032.11916423088,5839.277047531757,0.9680307846299465,-0.06747088946968172,-0.09797242703722768,6251.548493270641,4154.6878784959345,0.664585403595312,0.9888473463485755,-0.3242619427532635,Risk,Declining
102400,SGCLBN,COVE LIVING PTE. LTD.,Aspire FT Pte Ltd,AspireOS,Key,SG AM-Rachel,2026-Q2,2026-Q3,6023.343708647912,3537.5528912798286,0.5873071606723768,-0.06747088946968172,-0.09797242703722768,6242.453814496259,4148.643687732091,0.664585403595312,0.6308545090368755,0.033730894558436586,Safe,Growing
99490,SGBRLG,X HOLDINGS LABO PTE. LTD.,Aspire FT Pte Ltd,AspireBA,Key,SG AM-Rachel,2026-Q2,2026-Q3,5976.282049577553,5787.861356719655,0.9684719209543973,-0.06747088946968172,-0.09797242703722768,6193.680201800292,4116.22945665374,0.664585403595312,0.9926871794054982,-0.3281017758101862,Risk,Declining
122276,SGGPDD,GRAAS PTE. LTD.,Aspire FT Pte Ltd,AspireOS,Key,SG AM-Rachel,2026-Q2,2026-Q3,5944.357348232729,3096.7684340039286,0.5209593321176434,-0.06747088946968172,-0.09797242703722768,6160.594181256498,4094.2409703372805,0.664585403595312,0.5794714674153755,0.08511393617993657,Safe,Growing
105159,SGRPKP,RENTLY PTE. LTD.,Aspire FT Pte Ltd,AspireBA,Key,SG AM - Caroline,2026-Q2,2026-Q3,5940.302735752588,2945.873697178642,0.4959130583443949,-0.06747088946968172,-0.09797242703722768,6156.392074857254,4091.4483117599884,0.664585403595312,0.5668963072410071,0.0976890963543049,Safe,Growing
110383,SGPSEC,POSEIDON CONSULTANCY LIMITED,AFT HK Limited,AspireBA,Key,SG AM-Rachel,2026-Q2,2026-Q3,5932.821641576277,2927.745670466131,0.4934828395900108,-0.06747088946968172,-0.09797242703722768,6148.6388422448645,4086.2956265351154,0.664585403595312,0.4675073449861367,0.19707805860917532,Safe,Growing
71355,SGUANN,UANGCERMAT INTERNATIONAL PTE. LTD.,Aspire FT Pte Ltd,AspireOS,Key,SG AM-Rachel,2026-Q2,2026-Q3,5827.248615088237,5312.198684052656,0.9116135306631701,-0.06747088946968172,-0.09797242703722768,6039.225404495665,4013.581052849813,0.664585403595312,0.9126269844091855,-0.2480415808138735,Risk,Declining
93695,SGSGLK,SERVI GROUP PTE. LTD.,Aspire FT Pte Ltd,AspireBA,Key,SG AM-Rachel,2026-Q2,2026-Q3,5822.034478055389,3940.631491976293,0.6768478453415994,-0.06747088946968172,-0.09797242703722768,6033.821593724701,4009.9897590876394,0.664585403595312,0.6878658509570138,-0.02328044736170176,Risk,Growing
77008,SGPXLT,PIXELATION LABS PTE. LTD.,Aspire FT Pte Ltd,AspireBA,Key,SG AM - Caroline,2026-Q2,2026-Q3,5808.775985577718,3840.8492344456417,0.6612149003476584,-0.06747088946968172,-0.09797242703722768,6020.080799417567,4000.8578277573124,0.664585403595312,0.659739176758276,0.004846226837036061,Safe,Growing
116549,SGCSUV,OCEAN STAR GLOBAL PTE. LTD.,Aspire FT Pte Ltd,AspireBA,Key,SG AM-Rachel,2026-Q2,2026-Q3,5769.668926024802,5306.355405428382,0.9196984217748462,-0.06747088946968172,-0.09797242703722768,5979.551149294938,3973.9224138729883,0.664585403595312,0.9232158208228333,-0.2586304172275212,Risk,Declining
52843,SGTNYA,TINY ASSETS PTE. LTD.,Aspire FT Pte Ltd,AspireBA,Key,SG AM - Caroline,2026-Q2,2026-Q3,5761.995732544093,231.88951922633578,0.04024465306640372,-0.06747088946968172,-0.09797242703722768,5971.598829415824,3968.6374181566084,0.664585403595312,0.06650416315704868,0.5980812404382634,Safe,Growing
128220,SGNEV8,NEW VISION MEDICAL SUPPLIES PTE. LTD.,Aspire FT Pte Ltd,AspireBA,Key,SG AM - Caroline,2026-Q2,2026-Q3,5732.66847664517,5516.981651375484,0.9623758418704323,-0.06747088946968172,-0.09797242703722768,5941.204741130261,3948.4379507264357,0.664585403595312,0.975794057420492,-0.3112086538251799,Risk,Declining
116044,SGQUHN,PO QUAN HOLDINGS PTE. LTD.,Aspire FT Pte Ltd,AspireBA,Key,SG AM - Caroline,2026-Q2,2026-Q3,5709.5432734867745,5161.506634993321,0.9040139268164664,-0.06747088946968172,-0.09797242703722768,5917.238316557831,3932.510214779231,0.664585403595312,0.9041293949824667,-0.23954399138715465,Risk,Declining
101000,SGAVRE,AVIRAL ELECTRONICS PTE. LTD.,Aspire FT Pte Ltd,AspireBA,Key,SG AM-Rachel,2026-Q2,2026-Q3,5704.200297191109,5309.210197349913,0.9307545178531513,-0.06747088946968172,-0.09797242703722768,5911.700979761036,3928.83018156929,0.664585403595312,0.9437330620549992,-0.27914765845968714,Risk,Declining
116075,SGFYDC,INTREPID MALAYSIA SDN. BHD.,Aspire FT Pte Ltd,AspireOS,Key,SG AM-Rachel,2026-Q2,2026-Q3,5691.0049462345505,1082.5479426993104,0.1902208753860911,-0.06747088946968172,-0.09797242703722768,5898.025623862928,3919.741739650436,0.664585403595312,0.20395038094193849,0.4606350226533735,Safe,Growing
91687,SGECEF,ECOMMERCE ENABLERS PTE. LTD. (USD),Aspire FT Pte Ltd,AspireOS,Key,SG AM-Rachel,2026-Q2,2026-Q3,5674.157634698781,-106.55740058209436,-0.018779421976307338,-0.06747088946968172,-0.09797242703722768,5880.565460663296,3908.1379700435687,0.664585403595312,-0.007580471044909264,0.6721658746402213,Safe,Growing
114625,SGPSPB,POSEIDON PHAROS PTE. LTD.,Aspire FT Pte Ltd,AspireBA,Key,SG AM - Caroline,2026-Q2,2026-Q3,5668.180337571964,5135.260954296417,0.9059805172847007,-0.06747088946968172,-0.09797242703722768,5874.370728458972,3904.021041441393,0.664585403595312,0.9351936731525158,-0.27060826955720374,Risk,Declining
84486,SGTT7X,TANGE TECHNOLOGY (SINGAPORE) PTE. LTD.,Aspire FT Pte Ltd,AspireBA,Key,SG AM - Caroline,2026-Q2,2026-Q3,5660.081158249672,5486.234973739082,0.9692855668231531,-0.06747088946968172,-0.09797242703722768,5865.976926726864,3898.442643329561,0.664585403595312,0.9930461537198448,-0.3284607501245328,Risk,Declining
145961,SGGSTQ,GRAPESEED SERVICES PTE. LTD.,Aspire FT Pte Ltd,AspireBA,Key,SG AM-Rachel,2026-Q2,2026-Q3,5605.738457388318,3982.123583394947,0.710365568009428,-0.06747088946968172,-0.09797242703722768,5809.657411073964,3861.013515289086,0.664585403595312,0.7284868142655178,-0.06390141067020572,Risk,Declining
116971,SGMPN4,MANGOSTAR PTE. LTD.,Aspire FT Pte Ltd,AspireBA,Key,SG AM - Caroline,2026-Q2,2026-Q3,5601.185114864282,5355.100070578982,0.9560655398386593,-0.06747088946968172,-0.09797242703722768,5804.9384324164685,3857.8773509534367,0.664585403595312,0.9683463541723564,-0.30376095057704433,Risk,Declining
85545,SGNCRG,INCRED GLOBAL WEALTH PTE. LTD.,Aspire FT Pte Ltd,AspireBA,Key,SG AM - Caroline,2026-Q2,2026-Q3,5593.130592942131,4378.483161486416,0.7828322776892682,-0.06747088946968172,-0.09797242703722768,5796.590912578827,3852.329711113118,0.664585403595312,0.7652776907099255,-0.10069228711461342,Risk,Declining
83461,SGTEEJ,TEECOM JOINT STOCK COMPANY,Aspire FT Pte Ltd,AspireBA,Key,SG AM-Rachel,2026-Q2,2026-Q3,5576.240225320309,1480.0349247231702,0.2654180711230306,-0.06747088946968172,-0.09797242703722768,5779.086127049535,3840.6962861572842,0.664585403595312,0.2033216724470019,0.46126373114831015,Safe,Growing
133410,SGNNTX,Nonce Technology Pte. Ltd.,Aspire FT Pte Ltd,AspireBA,Key,SG AM-Rachel,2026-Q2,2026-Q3,5556.048211744108,5384.818025000228,0.969181299330351,-0.06747088946968172,-0.09797242703722768,5758.159592176529,3826.788816532856,0.664585403595312,0.9907362342037923,-0.32615083060848027,Risk,Declining
70402,SGGLPQ,RAON WORLD SOLUTION PTE. LTD,Aspire FT Pte Ltd,AspireBA,Key,SG AM-Rachel,2026-Q2,2026-Q3,5548.73692682412,3225.184287835078,0.5812465666273797,-0.06747088946968172,-0.09797242703722768,5750.582345941665,3821.753089285718,0.664585403595312,0.6043252539068261,0.06026014968848592,Safe,Growing
72657,SGANSG,ANSOVA GLOBAL TRAVEL PTE. LTD.,Aspire FT Pte Ltd,AspireBA,Key,SG AM - Caroline,2026-Q2,2026-Q3,5536.742131307295,2893.509281749317,0.5226014167046141,-0.06747088946968172,-0.09797242703722768,5738.151217875604,3813.4915430227893,0.664585403595312,0.5912114211767848,0.07337398241852722,Safe,Growing
139243,SGQVYK,CKNIGHT PTE LTD,Aspire FT Pte Ltd,AspireBA,Scaled,SG AM - Caroline,2026-Q2,2026-Q3,5495.950492122613,813.6485364778689,0.14804509932250617,-0.06747088946968172,-0.09797242703722768,5695.875708466705,3785.395856540079,0.664585403595312,0.16794174805816897,0.49664365553714307,Safe,Growing
121341,SGPAV3,PANACEA VENTURES PTE. LTD.,Aspire FT Pte Ltd,AspireBA,Key,SG AM - Caroline,2026-Q2,2026-Q3,5433.1616817777995,5261.926894137893,0.9684833992306527,-0.06747088946968172,-0.09797242703722768,5630.802840703586,3742.1493784546224,0.664585403595312,0.9911619798285809,-0.32657657623326886,Risk,Declining
70049,SGTAPB,TANKARD PTE. LTD.,Aspire FT Pte Ltd,AspireBA,Key,SG AM-Rachel,2026-Q2,2026-Q3,5420.358150225423,5207.27421428574,0.9606882183733889,-0.06747088946968172,-0.09797242703722768,5617.533557354637,3733.3308064247403,0.664585403595312,0.9844228872500125,-0.31983748365470044,Risk,Declining
146263,SGTFSU,GALAXY MINES AND MINERALS EXPORTS LIMITED,AFT HK Limited,AspireBA,Key,SG AM - Caroline,2026-Q2,2026-Q3,5399.015825620644,5195.376225773399,0.9622820887316373,-0.06747088946968172,-0.09797242703722768,5595.414866792776,3718.631047530686,0.664585403595312,0.9744296964695383,-0.3098442928742262,Risk,Declining
63024,SGCAG5,CAPX GLOBAL PTE. LTD.,Aspire FT Pte Ltd,AspireBA,Key,SG AM - Caroline,2026-Q2,2026-Q3,5394.402731480124,3737.6654456672036,0.6928784578606457,-0.06747088946968172,-0.09797242703722768,5590.633962944839,3715.453728617355,0.664585403595312,0.7110413521352966,-0.04645594853998458,Risk,Declining
103445,SGCNM8,KG CONNECT LIMITED,AFT HK Limited,AspireBA,Key,SG AM - Caroline,2026-Q2,2026-Q3,5369.38838028278,1975.0256536215804,0.3678306566301254,-0.06747088946968172,-0.09797242703722768,5564.7096691302895,3698.2248213496887,0.664585403595312,0.4299942733902445,0.23459113020506756,Safe,Growing
79892,SGFCGY,FOCUS GLOBAL INC,Aspire FT Pte Ltd,AspireOS,Key,SG AM-Rachel,2026-Q2,2026-Q3,5343.107512659187,1718.6252698755177,0.32165275840017354,-0.06747088946968172,-0.09797242703722768,5537.472787046069,3680.1235870770693,0.664585403595312,0.3163989224596882,0.34818648113562384,Safe,Growing
86188,SGTSAK,HR TECH SOLUTIONS PTE. LTD.,Aspire FT Pte Ltd,AspireBA,Key,SG AM-Rachel,2026-Q2,2026-Q3,5311.400593816101,5044.419499307138,0.9497343328198967,-0.06747088946968172,-0.09797242703722768,5504.612471239456,3658.285100834462,0.664585403595312,0.9692627642620109,-0.3046773606666988,Risk,Declining
107790,SGSP3G,SHOPTASTIC PTE LTD,Aspire FT Pte Ltd,AspireBA,Key,SG AM-Rachel,2026-Q2,2026-Q3,5265.561276867839,3219.774306827433,0.6114778914400328,-0.06747088946968172,-0.09797242703722768,5457.105665588179,3626.712771227184,0.664585403595312,0.6474587503962039,0.01712665319910811,Safe,Growing
107250,SGQELS,QUANTUM EMPIRE PTE. LTD.,Aspire FT Pte Ltd,AspireBA,Key,SG AM - Caroline,2026-Q2,2026-Q3,5204.278547986124,4910.873207675333,0.9436222835489217,-0.06747088946968172,-0.09797242703722768,5393.593665746438,3584.503623179215,0.664585403595312,0.9659454500802521,-0.3013600464849401,Risk,Declining
91494,SGJGCC,JGC CONSTRUCTION INTERNATIONAL PTE. LTD.,Aspire FT Pte Ltd,AspireOS,Key,SG AM-Rachel,2026-Q2,2026-Q3,5202.220316603079,3456.2152805757223,0.6643731080640863,-0.06747088946968172,-0.09797242703722768,5391.460562445399,3583.0859938609833,0.664585403595312,0.7099879388024743,-0.04540253520716231,Risk,Growing
70215,SGFACT,Factail Technologies Pte. Ltd.,Aspire FT Pte Ltd,AspireBA,Key,SG AM-Rachel,2026-Q2,2026-Q3,5198.888574413176,5039.295449933682,0.9693024533618692,-0.06747088946968172,-0.09797242703722768,5388.007622060739,3580.7912200818537,0.664585403595312,0.9881523783859673,-0.3235669747906552,Risk,Declining
134854,SGQPUW,QUAK PTE. LTD,Aspire FT Pte Ltd,AspireBA,Key,SG AM-Rachel,2026-Q2,2026-Q3,5173.678638614846,4597.327031357197,0.8885992641761846,-0.06747088946968172,-0.09797242703722768,5361.88062889886,3563.427601786634,0.664585403595312,0.6887417902450218,-0.02415638664970976,Risk,Declining
105386,SGNTFZ,ONELOT TECHNOLOGIES INCORPORATED PTE. LTD.,Aspire FT Pte Ltd,AspireBA,Key,SG AM - Caroline,2026-Q2,2026-Q3,5168.63123299121,4418.923753572892,0.854950479996917,-0.06747088946968172,-0.09797242703722768,5356.649614696012,3559.9511461014217,0.664585403595312,0.9328227324863607,-0.2682373288910487,Risk,Declining
105899,SGPP3P,PROCREDIT PTE. LTD.,Aspire FT Pte Ltd,AspireBA,Key,SG AM - Caroline,2026-Q2,2026-Q3,5163.579753948242,4955.709739513621,0.9597430417772327,-0.06747088946968172,-0.09797242703722768,5351.414378895777,3556.471884804206,0.664585403595312,0.98096066384903,-0.316375260253718,Risk,Declining
138643,SGPWNU,POWER INNOVATION (SINGAPORE) PTE. LTD.,Aspire FT Pte Ltd,AspireBA,Key,SG AM - Caroline,2026-Q2,2026-Q3,5161.623023049254,4571.439845036105,0.8856593797381787,-0.06747088946968172,-0.09797242703722768,5349.386468343904,3555.1241650516345,0.664585403595312,0.9287722205779587,-0.2641868169826467,Risk,Declining
150613,SGRYNL,orynda Limited,AFT HK Limited,AspireBA,Key,SG AM - Caroline,2026-Q2,2026-Q3,5135.737615598216,4659.436737409755,0.9072575521105587,-0.06747088946968172,-0.09797242703722768,5322.559432016801,3537.2953082869208,0.664585403595312,0.9241621723259942,-0.25957676873068214,Risk,Declining
179972,SGTNAD,TINY AWAY ESCAPE TALBINGO PTE LTD,Aspire FT Pte Ltd,AspireBA,Key,SG AM - Caroline,2026-Q2,2026-Q3,5133.918971409416,4975.151660406816,0.9690748311598275,-0.06747088946968172,-0.09797242703722768,5320.674631330883,3536.042697262373,0.664585403595312,0.9849680436007451,-0.32038264000543304,Risk,Declining
70484,SGCLGS,COLABS GLOBAL PTE. LTD.,Aspire FT Pte Ltd,AspireOS,Key,SG AM-Rachel,2026-Q2,2026-Q3,5123.9038852881185,2714.5486082698917,0.5297813286591835,-0.06747088946968172,-0.09797242703722768,5310.295228197928,3529.1446974421797,0.664585403595312,0.6542067659051091,0.010378637690202974,Safe,Growing
74194,SGBEDH,BEAM DATA PTE LTD,Aspire FT Pte Ltd,AspireBA,Key,SG AM - Caroline,2026-Q2,2026-Q3,5115.824729041099,4958.781460828857,0.9693024533618693,-0.06747088946968172,-0.09797242703722768,5301.92217791695,3523.580090441872,0.664585403595312,0.9902423654299951,-0.32565696183468307,Risk,Declining
77547,SGRUGC,RUGGABLE CORPORATION PTE. LTD.,Aspire FT Pte Ltd,AspireBA,Key,SG AM-Rachel,2026-Q2,2026-Q3,5106.369863184427,4934.72634840268,0.9663863920200432,-0.06747088946968172,-0.09797242703722768,5292.1233740818325,3517.067948440359,0.664585403595312,0.9872607622455924,-0.3226753586502804,Risk,Declining
98978,SGTL7P,RENTLY SERVICE PTE. LTD.,Aspire FT Pte Ltd,AspireBA,Key,SG AM - Caroline,2026-Q2,2026-Q3,5093.181013561513,4192.471425200308,0.8231538235215077,-0.06747088946968172,-0.09797242703722768,5278.454756015231,3507.983984385977,0.664585403595312,0.9105850158910298,-0.24599961229571776,Risk,Declining
60553,SGQAAT,QOALA TECHNOLOGY PTE. LTD.,Aspire FT Pte Ltd,AspireBA,Key,SG AM-Rachel,2026-Q2,2026-Q3,5082.395565686016,2911.2111998115975,0.57280295525731,-0.06747088946968172,-0.09797242703722768,5267.276967815168,3500.555389503735,0.664585403595312,0.5445440206685993,0.12004138292671274,Safe,Growing
87629,SGFTXV,FUNPOWER TECHNOLOGY PTE. LTD.,Aspire FT Pte Ltd,AspireBA,Key,SG AM-Rachel,2026-Q2,2026-Q3,5068.057419790183,4283.980675599239,0.8452904773475504,-0.06747088946968172,-0.09797242703722768,5252.417245728956,3490.6798351037555,0.664585403595312,0.9081043145557768,-0.24351891096046474,Risk,Declining
80159,SGGP7R,GEONODE PTE. LTD.,Aspire FT Pte Ltd,AspireBA,Key,SG AM-Rachel,2026-Q2,2026-Q3,5056.137338981585,4204.674435682291,0.8315981457357333,-0.06747088946968172,-0.09797242703722768,5240.063550254811,3482.4697494111774,0.664585403595312,0.875692374245245,-0.211106970649933,Risk,Declining
58971,SGACPM,ACHERON PTE. LTD.,Aspire FT Pte Ltd,AspireBA,Key,SG AM - Caroline,2026-Q2,2026-Q3,5040.112940517192,3277.4520881108942,0.6502735408493798,-0.06747088946968172,-0.09797242703722768,5223.456235089409,3471.4327701593443,0.664585403595312,0.6299212250867401,0.03466417850857195,Safe,Growing
128829,SGLNDN,LINDER INTERNATION PTE. LTD.,Aspire FT Pte Ltd,AspireBA,Key,SG AM-Rachel,2026-Q2,2026-Q3,5039.726021941107,4880.002957095805,0.9683071928612931,-0.06747088946968172,-0.09797242703722768,5223.055241644903,3471.166275769188,0.664585403595312,0.9914295842382552,-0.3268441806429432,Risk,Declining
123885,SGCA87,CLOUD AMBASSADORS TECHNOLOGY PTE. LTD.,Aspire FT Pte Ltd,AspireBA,Key,SG AM-Rachel,2026-Q2,2026-Q3,5038.096107089349,2607.459577839299,0.5175485982036382,-0.06747088946968172,-0.09797242703722768,5221.366035669647,3470.043654134367,0.664585403595312,0.5619258525397887,0.10265955105552338,Safe,Growing
94677,SGSPCQ,SYNKRONOUS PTE. LTD.,Aspire FT Pte Ltd,AspireBA,Key,SG AM-Rachel,2026-Q2,2026-Q3,5036.399613023362,4424.1773363314605,0.8784404884972218,-0.06747088946968172,-0.09797242703722768,5219.607828539895,3468.8751753394367,0.664585403595312,0.9032500634081577,-0.23866465981284568,Risk,Declining
103207,SGQHJA,AJ HACKETT INTERNATIONAL PTE. LTD.,Aspire FT Pte Ltd,AspireBA,Key,SG AM - Caroline,2026-Q2,2026-Q3,5023.923201831302,3310.1951501348817,0.6588864951057097,-0.06747088946968172,-0.09797242703722768,5206.677565150597,3460.281911026266,0.664585403595312,0.7030940868048812,-0.03850868320956913,Risk,Growing
86112,SGANPH,ANPRI HOLDINGS PTE. LTD.,Aspire FT Pte Ltd,AspireBA,Key,SG AM - Caroline,2026-Q2,2026-Q3,5019.60504064769,4729.198678636603,0.9421455752674887,-0.06747088946968172,-0.09797242703722768,5202.202322983435,3457.307730404416,0.664585403595312,0.9768233203529064,-0.3122379167575944,Risk,Declining
59273,SGCEAB,Ocean Bay Energy Pte Ltd,Aspire FT Pte Ltd,AspireBA,Key,SG AM - Caroline,2026-Q2,2026-Q3,5016.772448460497,4840.567990220671,0.9648769283338937,-0.06747088946968172,-0.09797242703722768,5199.266690092609,3455.3567516348585,0.664585403595312,0.9828864269132018,-0.3183010233178898,Risk,Declining
107711,SGHAHM,HATI HEALTH PTE. LTD.,Aspire FT Pte Ltd,AspireBA,Scaled,SG AM - Caroline,2026-Q2,2026-Q3,4971.429921979355,4176.133648133121,0.8400266550414152,-0.06747088946968172,-0.09797242703722768,5152.274746567167,3424.126591881275,0.664585403595312,0.8252152200955674,-0.16062981650025532,Risk,Declining
79727,SGAMES,AMERICAN STUDY EDUCATION JOINT STOCK COMPANY,Aspire FT Pte Ltd,AspireBA,Key,SG AM - Caroline,2026-Q2,2026-Q3,4968.2502258981585,4088.7582304042344,0.8229775161264287,-0.06747088946968172,-0.09797242703722768,5148.979383245545,3421.9365415181815,0.664585403595312,0.6576591055173713,0.006926298077940762,Safe,Declining
67502,SGQAPF,Qapita Fintech Pte Ltd,Aspire FT Pte Ltd,AspireOS,Key,SG AM-Rachel,2026-Q2,2026-Q3,4939.424512160232,2522.7156263926813,0.5107306772645432,-0.06747088946968172,-0.09797242703722768,5119.105081631219,3402.0825167226967,0.664585403595312,0.5607877406516062,0.10379766294370585,Safe,Growing
151523,SGALJZ,ACP LUCENTE VENTURES SPV PTE LTD,Aspire FT Pte Ltd,AspireBA,Key,SG AM - Caroline,2026-Q2,2026-Q3,4891.475075525304,4344.239117795836,0.8881245535794334,-0.06747088946968172,-0.09797242703722768,5069.411396843665,3369.056819162022,0.664585403595312,0.9091703372659039,-0.24458493367059186,Risk,Declining
87708,SGRDPE,RIDMIK PTE. LTD.,Aspire FT Pte Ltd,AspireBA,Key,SG AM-Rachel,2026-Q2,2026-Q3,4886.675269109761,4547.860525487536,0.9306655906186397,-0.06747088946968172,-0.09797242703722768,5064.43698872139,3365.7509001324315,0.664585403595312,0.9582734380403021,-0.29368803444499003,Risk,Declining
141727,SGWCYA,Concision Technology Limited,Aspire FT Pte Ltd,AspireBA,Key,SG AM - Caroline,2026-Q2,2026-Q3,4880.185173951509,3456.5799676341144,0.7082886907824658,-0.06747088946968172,-0.09797242703722768,5057.710804522586,3361.2807762920133,0.664585403595312,0.7189726998427454,-0.054387296247433325,Risk,Declining
96109,SGMEHX,MASTER ENTERPRISE PTE. LTD.,Aspire FT Pte Ltd,AspireBA,Key,SG AM - Caroline,2026-Q2,2026-Q3,4847.788667879807,2518.407413159776,0.5194961219836359,-0.06747088946968172,-0.09797242703722768,5024.13581649504,3338.9673293230185,0.664585403595312,0.5293050591594517,0.13528034443586034,Safe,Growing
123356,SGAPG5,APPFACTORY GLOBAL PTE. LTD.,Aspire FT Pte Ltd,AspireBA,Key,SG AM-Rachel,2026-Q2,2026-Q3,4840.227917045957,3503.4576483144206,0.7238208010776109,-0.06747088946968172,-0.09797242703722768,5016.300029569007,3333.7597797062945,0.664585403595312,0.6906936822616027,-0.02610827866629062,Risk,Declining
97373,SGPPJD,AP PREMIER PTE. LTD.,Aspire FT Pte Ltd,AspireBA,Key,SG AM-Rachel,2026-Q2,2026-Q3,4835.230707868357,4568.579539470002,0.9448524414844498,-0.06747088946968172,-0.09797242703722768,5011.12103779941,3330.31789737088,0.664585403595312,0.9336695520145037,-0.2690841484191917,Risk,Declining
3363,SGPRPP,Propseller Pte. Ltd.,Aspire FT Pte Ltd,AspireOS,Key,SG AM-Rachel,2026-Q2,2026-Q3,4808.419880741965,2729.2178834345,0.5675914231960473,-0.06747088946968172,-0.09797242703722768,4983.334917969547,3311.8516477094026,0.664585403595312,0.596783120227829,0.06780228336748306,Safe,Growing
102906,SGWS5A,WOOSA SLEEP PTE. LTD.,Aspire FT Pte Ltd,AspireOS,Key,SG AM-Rachel,2026-Q2,2026-Q3,4792.950884305176,1801.3512770124269,0.37583345218726666,-0.06747088946968172,-0.09797242703722768,4967.303208592806,3301.1972076629386,0.664585403595312,0.37984545321179547,0.28473995038351657,Safe,Growing
142855,SGZWER,ECOMWARTS GROUP PRIVATE LIMITED,Aspire FT Pte Ltd,AspireBA,Key,SG AM-Rachel,2026-Q2,2026-Q3,4788.583757348064,2636.5662273063854,0.550594154954601,-0.06747088946968172,-0.09797242703722768,4962.777219432885,3298.1893013304248,0.664585403595312,0.5760703229379999,0.08851508065731217,Safe,Growing
76600,SGDCXM,DF CAPITAL MANAGEMENT PTE. LTD.,Aspire FT Pte Ltd,AspireBA,Key,SG AM - Caroline,2026-Q2,2026-Q3,4781.52832509449,4348.596982694718,0.9094575388944878,-0.06747088946968172,-0.09797242703722768,4955.465132971506,3293.329795398365,0.664585403595312,0.9341537496386382,-0.26956834604332613,Risk,Declining
118593,SGSP45,SGAPH PTE. LTD.,Aspire FT Pte Ltd,AspireBA,Key,SG AM-Rachel,2026-Q2,2026-Q3,4776.416771382595,3913.557874055802,0.8193501659033353,-0.06747088946968172,-0.09797242703722768,4950.167637176767,3289.809157017574,0.664585403595312,0.7635708026680318,-0.09898539907271975,Risk,Declining
111507,SGXAPM,XAPADS MEDIA PTE. LTD.,Aspire FT Pte Ltd,AspireBA,Key,SG AM-Rachel,2026-Q2,2026-Q3,4769.936059267942,2907.8141583529473,0.6096128170739503,-0.06747088946968172,-0.09797242703722768,4943.451177346877,3285.3454958507946,0.664585403595312,0.6418263356586641,0.022759067936647948,Safe,Growing
70361,SGATN2,ATAB INTERNATIONAL PTE. LTD.,Aspire FT Pte Ltd,AspireBA,Key,SG AM - Caroline,2026-Q2,2026-Q3,4757.326174982831,4608.8157766395725,0.9687828009094217,-0.06747088946968172,-0.09797242703722768,4930.382585537491,3276.6603004887315,0.664585403595312,0.9931354877776488,-0.3285500841823368,Risk,Declining
150091,SGBN5B,Beynor International Limited,AFT HK Limited,AspireBA,Key,SG AM - Caroline,2026-Q2,2026-Q3,4750.825746745133,2799.940738570941,0.5893587531576432,-0.06747088946968172,-0.09797242703722768,4923.645692374643,3272.1830596271216,0.664585403595312,0.5521703080272778,0.1124150955680342,Safe,Growing
110911,SGAMWC,AMW CYBERTECH PTE. LTD.,Aspire FT Pte Ltd,AspireBA,Key,SG AM-Rachel,2026-Q2,2026-Q3,4745.0235379292235,4544.655873259676,0.9577730936279001,-0.06747088946968172,-0.09797242703722768,4917.632417637659,3268.186725009114,0.664585403595312,0.9882648733225826,-0.3236794697272706,Risk,Declining
79131,SGWSAF,WHITE STORM CONSULTING PTE. LTD.,Aspire FT Pte Ltd,AspireBA,Key,SG AM-Rachel,2026-Q2,2026-Q3,4731.906331723317,4586.648416417974,0.9693024533618692,-0.06747088946968172,-0.09797242703722768,4904.038049147939,3259.15210613975,0.664585403595312,0.99225363629242,-0.327668232697108,Risk,Declining
76401,SGEMPQ,EMURGO GROUP PTE. LTD.,Aspire FT Pte Ltd,AspireBA,Key,SG AM - Caroline,2026-Q2,2026-Q3,4703.403702086654,3289.3351689808896,0.6993520814557304,-0.06747088946968172,-0.09797242703722768,4874.49858440793,3239.5206090435213,0.664585403595312,0.702991024507037,-0.03840562091172495,Risk,Declining
68092,SGZGNP,ZIGNIFY PTE. LTD.,Aspire FT Pte Ltd,AspireBA,Scaled,SG AM-Rachel,2026-Q2,2026-Q3,4700.59402615937,1535.025857573823,0.3265599728526267,-0.06747088946968172,-0.09797242703722768,4871.586701397735,3237.5854140979686,0.664585403595312,0.36186365976440077,0.30272174383091127,Safe,Growing
68726,SGKNPS,SYLNDR PTE LTD,Aspire FT Pte Ltd,AspireBA,Key,SG AM-Rachel,2026-Q2,2026-Q3,4682.8351072683045,2178.138128365878,0.4651323564618268,-0.06747088946968172,-0.09797242703722768,4853.1817694637175,3225.3537649804553,0.664585403595312,0.5180396112980437,0.14654579229726838,Safe,Growing
74389,SGZERB,ZERO BYTE LABS PTE. LTD.,Aspire FT Pte Ltd,AspireBA,Key,SG AM-Rachel,2026-Q2,2026-Q3,4664.383876335894,4288.6817695775635,0.9194530045727148,-0.06747088946968172,-0.09797242703722768,4834.059341376008,3212.6452783920627,0.664585403595312,0.9474203924261454,-0.28283498883083336,Risk,Declining
123617,SGKYLE,OKYA LIMITED,AFT HK Limited,AspireBA,Key,SG AM - Caroline,2026-Q2,2026-Q3,4641.354160116502,3957.73474939367,0.8527112159211586,-0.06747088946968172,-0.09797242703722768,4810.191877254028,3196.7833101157603,0.664585403595312,0.8500716390134003,-0.18548623541808829,Risk,Declining
112673,SGMZVJ,STAPLE AI PTE. LTD.,Aspire FT Pte Ltd,AspireBA,Key,SG AM-Rachel,2026-Q2,2026-Q3,4630.950468886858,2295.853205097923,0.4957628505255374,-0.06747088946968172,-0.09797242703722768,4799.40973279362,3189.6176542879166,0.664585403595312,0.5113495196213671,0.15323588397394494,Safe,Growing
89633,SGEMTV,Emerging Travel Asia PTE. LTD.,Aspire FT Pte Ltd,AspireBA,Key,SG AM - Caroline,2026-Q2,2026-Q3,4607.633315665539,3939.162771122567,0.8549210627785349,-0.06747088946968172,-0.09797242703722768,4775.24437562487,3173.557710640898,0.664585403595312,0.8803685749409182,-0.2157831713456062,Risk,Declining
119185,SGYWPT,YOWA PTE. LTD.,Aspire FT Pte Ltd,AspireBA,Key,SG AM-Rachel,2026-Q2,2026-Q3,4600.5571817703,4055.8442676485333,0.8815984906610462,-0.06747088946968172,-0.09797242703722768,4767.910834461878,3168.6839462273083,0.664585403595312,0.9250600540220575,-0.26047465042674545,Risk,Declining
63847,SGACM4,ACE MANAGEMENT SERVICES PTE. LTD.,Aspire FT Pte Ltd,AspireBA,Key,SG AM-Rachel,2026-Q2,2026-Q3,4581.905029043112,3028.367309036235,0.6609406545619041,-0.06747088946968172,-0.09797242703722768,4748.580175682896,3155.837072560915,0.664585403595312,0.6768506371783699,-0.012265233583057866,Risk,Growing
98042,SGFUEH,FUTAO ELECTRONICS PTE. LTD.,Aspire FT Pte Ltd,AspireBA,Key,SG AM - Caroline,2026-Q2,2026-Q3,4580.921966818982,4384.97848295222,0.9572261904293413,-0.06747088946968172,-0.09797242703722768,4747.5613527785845,3155.159977729861,0.664585403595312,0.9851515478763893,-0.3205661442810772,Risk,Declining
110948,SGRML3,RUYI MANAGEMENT PTE LTD,Aspire FT Pte Ltd,AspireBA,Key,SG AM-Rachel,2026-Q2,2026-Q3,4580.070435632141,4439.028633200331,0.9692053202207263,-0.06747088946968172,-0.09797242703722768,4746.678845592779,3154.5734763356068,0.664585403595312,0.9871080113504577,-0.32252260775514563,Risk,Declining
83001,SGANU7,ACCTIVA INTERNATIONAL PTE. LTD.,Aspire FT Pte Ltd,AspireBA,Key,SG AM - Caroline,2026-Q2,2026-Q3,4570.004277988293,3998.5704361657235,0.8749598890804291,-0.06747088946968172,-0.09797242703722768,4736.246513117557,3147.640300447121,0.664585403595312,0.8878058773605337,-0.2232204737652217,Risk,Declining
143080,SGFPSF,SOLO FORTIS PTE. LTD.,Aspire FT Pte Ltd,AspireBA,Key,SG AM-Rachel,2026-Q2,2026-Q3,4537.011418335754,4320.226385781244,0.9522185393498459,-0.06747088946968172,-0.09797242703722768,4702.053478060726,3124.9161084437283,0.664585403595312,0.9581581025392252,-0.29357269894391314,Risk,Declining
134956,SGCP2N,CHOVA CR PTE. LTD.,Aspire FT Pte Ltd,AspireBA,Key,SG AM - Caroline,2026-Q2,2026-Q3,4526.026774431365,4318.084373441338,0.9540563033862848,-0.06747088946968172,-0.09797242703722768,4690.669247713156,3117.350315123567,0.664585403595312,0.9314515827118061,-0.266866179116494,Risk,Declining
142469,SGCCHR,CROSSPOINT CAPITAL ASIA PTE. LTD.,Aspire FT Pte Ltd,AspireBA,Key,SG AM - Caroline,2026-Q2,2026-Q3,4511.242211906476,4357.030497871044,0.9658161307259401,-0.06747088946968172,-0.09797242703722768,4675.346869779344,3107.1672864003845,0.664585403595312,0.9860037918353746,-0.3214183882400625,Risk,Declining
116786,SGGHYA,GREAT PRO HOLDING PTE. LTD.,Aspire FT Pte Ltd,AspireBA,Key,SG AM - Caroline,2026-Q2,2026-Q3,4485.99963632282,4348.290453268162,0.9693024533618692,-0.06747088946968172,-0.09797242703722768,4649.186049500458,3089.781187096956,0.664585403595312,0.9903877322328033,-0.32580232863749126,Risk,Declining
86698,SGMEUN,MILIEU INSIGHT PTE. LTD.,Aspire FT Pte Ltd,AspireOS,Key,SG AM-Rachel,2026-Q2,2026-Q3,4483.381376760655,1868.6233007623614,0.41678883497358954,-0.06747088946968172,-0.09797242703722768,4646.472545974549,3087.9778322610323,0.664585403595312,0.49786316139823306,0.16672224219707898,Safe,Growing
114867,SGE6W2,KAEDE PTE. LTD.,Aspire FT Pte Ltd,AspireBA,Key,SG AM-Rachel,2026-Q2,2026-Q3,4482.06399773699,2881.4053766096254,0.6428746617773546,-0.06747088946968172,-0.09797242703722768,4645.107244887777,3087.0704730872512,0.664585403595312,0.6925243706904934,-0.0279389670951814,Risk,Growing
68139,SGDEKB,DEKANG BIOTECH PTE. LTD.,Aspire FT Pte Ltd,AspireBA,Key,SG AM - Caroline,2026-Q2,2026-Q3,4475.314624451742,4190.584328268009,0.9363775912808332,-0.06747088946968172,-0.09797242703722768,4638.112350847534,3082.42176860841,0.664585403595312,0.9621064205350912,-0.29752101693977917,Risk,Declining
114067,SGWP8H,WAVESHORE PTE LTD,Aspire FT Pte Ltd,AspireBA,Key,SG AM-Rachel,2026-Q2,2026-Q3,4461.606437148633,4321.7254399508065,0.9686478403758035,-0.06747088946968172,-0.09797242703722768,4623.905503246048,3072.9801050613596,0.664585403595312,0.9921559686078415,-0.32757056501252946,Risk,Declining
67484,SGHDPB,BO HOLDINGS PTE. LTD.,Aspire FT Pte Ltd,AspireBA,Key,SG AM - Caroline,2026-Q2,2026-Q3,4459.7824249692985,4073.9874797831594,0.9134946711691221,-0.06747088946968172,-0.09797242703722768,4622.0151392991565,3071.7237967747724,0.664585403595312,0.9282145427670957,-0.26362913917178366,Risk,Declining
96714,SGATD6,Atas Digital Pte Ltd,Aspire FT Pte Ltd,AspireBA,Key,SG AM-Rachel,2026-Q2,2026-Q3,4451.567845037552,4188.752591794879,0.9409611933611997,-0.06747088946968172,-0.09797242703722768,4613.501739050089,3066.0659152342773,0.664585403595312,0.954606933108519,-0.2900215295132069,Risk,Declining
139287,SGSWRL,SWRM LABS PTE. LTD.,Aspire FT Pte Ltd,AspireBA,Key,SG AM-Rachel,2026-Q2,2026-Q3,4441.391493664433,4036.180911109295,0.9087649482975855,-0.06747088946968172,-0.09797242703722768,4602.955204347849,3059.056842212657,0.664585403595312,0.9469551415546869,-0.2823697379593748,Risk,Declining
82348,SGTGMR,TGM RESEARCH PTE. LTD.,Aspire FT Pte Ltd,AspireOS,Key,SG AM-Rachel,2026-Q2,2026-Q3,4426.693568902409,2143.058992945205,0.4841218303431318,-0.06747088946968172,-0.09797242703722768,4587.722615783436,3048.9334861937755,0.664585403595312,0.48653069635659524,0.1780547072387168,Safe,Growing
53431,SGMGBZ,Mighty Bear Games Pte. Ltd.,Aspire FT Pte Ltd,AspireOS,Key,SG AM-Rachel,2026-Q2,2026-Q3,4418.132705349286,2232.671585451421,0.5053428075503928,-0.06747088946968172,-0.09797242703722768,4578.850335215112,3043.037098031465,0.664585403595312,0.5262807520844388,0.13830465151087323,Safe,Growing
76632,SGLKAP,LKA PACIFIC PTE. LTD.,Aspire FT Pte Ltd,AspireBA,Key,SG AM - Caroline,2026-Q2,2026-Q3,4403.313976321281,4267.92060185679,0.9692519372471358,-0.06747088946968172,-0.09797242703722768,4563.49254790936,3032.830536756541,0.664585403595312,0.9820163280118596,-0.3174309244165475,Risk,Declining
128853,SGNDDX,YD INDUSTRIAL DEVELOPMENT PTE. LTD.,Aspire FT Pte Ltd,AspireBA,Key,SG AM-Rachel,2026-Q2,2026-Q3,4398.991000867808,2869.6815015540483,0.6523499368350455,-0.06747088946968172,-0.09797242703722768,4559.012316344496,3029.8530402538054,0.664585403595312,0.659411986507314,0.005173417087998011,Safe,Growing
66401,SGNP8F,NEXTBILLION.AI PTE. LTD.,Aspire FT Pte Ltd,AspireBA,Key,SG AM-Rachel,2026-Q2,2026-Q3,4387.5463486704775,2314.9174239921012,0.5276109333166524,-0.06747088946968172,-0.09797242703722768,4547.151344063895,3021.970411203669,0.664585403595312,0.5533877664063643,0.1111976371889477,Safe,Growing
120483,SGWTUE,WSPN TECHNOLOGY SG PTE. LTD.,Aspire FT Pte Ltd,AspireBA,Key,SG AM - Caroline,2026-Q2,2026-Q3,4387.061982061195,3638.1531151907006,0.8292914780021798,-0.06747088946968172,-0.09797242703722768,4546.649357736368,3021.6367984175904,0.664585403595312,0.846492073477029,-0.181906669881717,Risk,Declining
128403,SGWVWJ,ADVISCENT PTE. LTD.,Aspire FT Pte Ltd,AspireBA,Key,SG AM-Rachel,2026-Q2,2026-Q3,4350.930596735266,2992.240582179718,0.6877242731531858,-0.06747088946968172,-0.09797242703722768,4509.203627414346,2996.750912618608,0.664585403595312,0.7292113258281332,-0.06462592223282115,Risk,Growing
