Gagan-D-Aspire/High-Value-Data-Projects/csm_targets_2026_Q3.csv
business_id,business_ref_code,company_name,business_group,business_unit,account_motion,account_manager,base_quarter,target_quarter,base_revenue,base_gp,base_take_rate,avg_rev_g,avg_gp_g,target_revenue,target_gp,target_take_rate,hist_avg_tr,tr_delta,guardrail,gp_trend
77441,SGGZ7B,COBO SINGAPORE PTE. LTD.,Aspire FT Pte Ltd,AspireOS,Key,SG AM-Rachel,2026-Q2,2026-Q3,155380.61418653378,-359.96955106067094,-0.0023166953802134477,-0.053509920070583396,-0.07109854868880477,162796.64412984913,112527.99945787452,0.6912181762673218,0.024633668585512563,0.6665845076818093,Safe,Growing
84093,SGGPGP,GERO PTE. LTD.,Aspire FT Pte Ltd,AspireBA,Key,SG AM - Caroline,2026-Q2,2026-Q3,118307.96817064834,116737.02455529248,0.9867215738749742,-0.053509920070583396,-0.07109854868880477,123954.58914122218,85679.66504616078,0.6912181762673218,0.9721431586302763,-0.2809249823629545,Risk,Declining
86951,SGEVMG,EVERY MOMENT LOGISTICS PTE. LTD.,Aspire FT Pte Ltd,AspireBA,Key,SG AM - Caroline,2026-Q2,2026-Q3,87178.44789311042,87178.44789311042,1.0,-0.053509920070583396,-0.07109854868880477,91339.31431374975,63135.39426145779,0.6912181762673218,0.9998769239252232,-0.30865874765790136,Risk,Declining
89483,SGFBPZ,FIBONEX PTE. LTD.,Aspire FT Pte Ltd,AspireBA,Key,SG AM - Caroline,2026-Q2,2026-Q3,70332.6779340948,70332.6779340948,1.0,-0.053509920070583396,-0.07109854868880477,73689.52684528932,50935.54035600274,0.6912181762673218,0.9999982563372223,-0.30878008006990043,Risk,Declining
150792,SGEZRZ,LENDTECH INVESTMENT HOLDINGS PTE LTD,Aspire FT Pte Ltd,AspireOS,Key,SG AM-Rachel,2026-Q2,2026-Q3,62970.02959269492,39786.63558735373,0.6318344749828311,-0.053509920070583396,-0.07109854868880477,65975.472887122,45603.44604741061,0.6912181762673218,0.6082941676896267,0.08292400857769511,Safe,Growing
115418,SGFYWD,"Intrepid Philippines, Inc.",Aspire FT Pte Ltd,AspireOS,Key,SG AM-Rachel,2026-Q2,2026-Q3,60472.72185140816,32379.82437769284,0.5354451294131528,-0.053509920070583396,-0.07109854868880477,63358.97325639643,43794.873944456354,0.6912181762673218,0.4878128033393598,0.20340537292796207,Safe,Growing
147170,SGAVNH,AVNM HOLDINGS PTE LTD,Aspire FT Pte Ltd,AspireBA,Key,SG AM - Caroline,2026-Q2,2026-Q3,54972.24202499999,54972.24202499999,1.0,-0.053509920070583396,-0.07109854868880477,57595.96567960703,39811.37835741323,0.6912181762673218,0.9996824985725762,-0.30846432230525433,Risk,Declining
130625,SGTAZP,TAZAPAY PTE. LTD.,Aspire FT Pte Ltd,AspireOS,Key,SG AM-Rachel,2026-Q2,2026-Q3,53580.46624268383,4683.174212436397,0.08740450654581348,-0.053509920070583396,-0.07109854868880477,56137.76300787437,38803.44216603004,0.6912181762673218,0.25740078686069434,0.4338173894066275,Safe,Growing
176080,SGPPY2,PERSISTENCE AI PTE LTD,Aspire FT Pte Ltd,AspireBA,Key,SG AM-Rachel,2026-Q2,2026-Q3,52708.79723437123,52543.797234371246,0.9968695927689962,-0.053509920070583396,-0.07109854868880477,55224.49084655488,38172.171848247075,0.6912181762673218,0.9968392055099237,-0.3056210292426018,Risk,Declining
134985,SGUUDK,HAPPY SUPPLIER PTE. LTD.,Aspire FT Pte Ltd,AspireBA,Key,SG AM-Rachel,2026-Q2,2026-Q3,51653.43104786979,44815.06580476406,0.8676106290641511,-0.053509920070583396,-0.07109854868880477,54118.7539797647,37407.86642775282,0.6912181762673218,0.8327809822735902,-0.14156280600626836,Risk,Declining
65951,SGATAG,Atlasv Global Pte. Ltd.,Aspire FT Pte Ltd,AspireBA,Key,SG AM - Caroline,2026-Q2,2026-Q3,45613.219847081346,16368.6489750576,0.35885756431871324,-0.053509920070583396,-0.07109854868880477,47790.25464622876,33033.492659917145,0.6912181762673218,0.3922868995017969,0.29893127676552494,Safe,Growing
99150,SGHLWJ,HERITAGE LINE PTE. LTD.,Aspire FT Pte Ltd,AspireBA,Key,SG AM - Caroline,2026-Q2,2026-Q3,45374.360925,45374.360925,1.0,-0.053509920070583396,-0.07109854868880477,47539.99542863656,32860.50893993898,0.6912181762673218,0.9890255328414055,-0.29780735657408364,Risk,Declining
125930,SGRAT5,Rasewa,Aspire FT Pte Ltd,AspireBA,Key,Eureka,2026-Q2,2026-Q3,43319.062238310566,7201.609841364609,0.16624574654332291,-0.053509920070583396,-0.07109854868880477,45386.601128908515,31372.043659296516,0.6912181762673218,0.18042164574010813,0.5107965305272137,Safe,Growing
110959,SGLYNM,LYNCHPIN MANAGEMENT SERVICES PTE. LTD.,Aspire FT Pte Ltd,AspireBA,Key,SG AM - Caroline,2026-Q2,2026-Q3,37879.74107272415,1672.409673161806,0.04415050435405559,-0.053509920070583396,-0.07109854868880477,39687.67120294693,27432.839709198084,0.6912181762673218,0.22547583644076646,0.4657423398265554,Safe,Growing
135284,SGLC7B,LARES CAPITAL PTE. LTD.,Aspire FT Pte Ltd,AspireBA,Key,SG AM - Caroline,2026-Q2,2026-Q3,35806.21185,35806.21185,1.0,-0.053509920070583396,-0.07109854868880477,37515.17625734565,25931.171714949593,0.6912181762673218,0.997361797962883,-0.3061436216955612,Risk,Declining
105489,SGRDVT,PT Ordivo Teknologi Indonesia,Aspire FT Pte Ltd,AspireBA,Key,Eureka,2026-Q2,2026-Q3,33592.83846178621,5598.438328440344,0.16665570951406475,-0.053509920070583396,-0.07109854868880477,35196.162642333526,24328.227353241822,0.6912181762673218,0.18736531393625394,0.5038528623310679,Safe,Growing
87141,SGTCZF,THE CARE SVC PTE. LTD.,Aspire FT Pte Ltd,AspireBA,Key,SG AM - Caroline,2026-Q2,2026-Q3,31897.134338756914,31895.632233276003,0.9999529078234753,-0.053509920070583396,-0.07109854868880477,33419.52569111826,23100.183599933673,0.6912181762673218,0.9954031980251729,-0.304185021757851,Risk,Declining
65061,SGPP5T,POSTEX PTE. LTD.,Aspire FT Pte Ltd,AspireOS,Key,SG AM-Rachel,2026-Q2,2026-Q3,31153.512604417963,22036.132826701793,0.7073402317906453,-0.053509920070583396,-0.07109854868880477,32640.412263834027,22561.646237620884,0.6912181762673218,0.8753150322661767,-0.18409685599885484,Risk,Growing
72538,SGABHT,ABHIBHA TECHNOLOGIES PTE. LTD.,Aspire FT Pte Ltd,AspireBA,Key,SG AM-Rachel,2026-Q2,2026-Q3,29740.721550000002,29410.72155000001,0.9889041024292166,-0.053509920070583396,-0.07109854868880477,31160.19129984811,21538.49060242188,0.6912181762673218,0.9879992335855218,-0.2967810573181999,Risk,Declining
120816,SGARL4,AROHA LABS PTE. LTD.,Aspire FT Pte Ltd,AspireBA,Key,SG AM - Caroline,2026-Q2,2026-Q3,29689.433604437734,20068.986552773746,0.6759639412512739,-0.053509920070583396,-0.07109854868880477,31106.45547530163,21501.347423778643,0.6912181762673218,0.7306658373497094,-0.03944766108238751,Risk,Growing
90656,SGDAZP,DAZZ PTE LTD,Aspire FT Pte Ltd,AspireBA,Key,SG AM-Rachel,2026-Q2,2026-Q3,29557.59383421836,28937.52576880923,0.9790217001800976,-0.053509920070583396,-0.07109854868880477,30968.323236174314,21405.867909365337,0.6912181762673218,0.9887739660343233,-0.2975557897670015,Risk,Declining
116072,SGFYDR,INTREPID DIGITAL COMMERCE PTE. LTD.,Aspire FT Pte Ltd,AspireOS,Key,SG AM-Rachel,2026-Q2,2026-Q3,28981.19791406981,15876.28488607359,0.5478132730450718,-0.053509920070583396,-0.07109854868880477,30364.417002558373,20988.436943928857,0.6912181762673218,0.4515552174471922,0.23966295882012967,Safe,Growing
55419,SGVPUA,PX Ventures PTE LTD,Aspire FT Pte Ltd,AspireBA,Key,SG AM - Caroline,2026-Q2,2026-Q3,28797.765198025,14191.939110974141,0.49281390459935576,-0.053509920070583396,-0.07109854868880477,30172.229381521753,20855.59336701477,0.6912181762673218,0.612563630111832,0.07865454615548984,Safe,Growing
117955,SGNAMD,NAM HO DMC PTE. LTD.,Aspire FT Pte Ltd,AspireBA,Key,SG AM - Caroline,2026-Q2,2026-Q3,28185.515101167046,6806.774014672032,0.24149901075926022,-0.053509920070583396,-0.07109854868880477,29530.757717514854,20412.19649329276,0.6912181762673218,0.13547883831603494,0.5557393379512869,Safe,Growing
59273,SGCEAB,Ocean Bay Energy Pte Ltd,Aspire FT Pte Ltd,AspireBA,Key,SG AM - Caroline,2026-Q2,2026-Q3,26860.40089157757,26841.172663795383,0.9992841421890983,-0.053509920070583396,-0.07109854868880477,28142.398252343937,19452.537195773843,0.6912181762673218,0.9979911287327232,-0.30677295246540137,Risk,Declining
60213,SGNPQM,UPSURGE LABS PTE LTD,Aspire FT Pte Ltd,AspireBA,Key,SG AM - Caroline,2026-Q2,2026-Q3,26731.381203965953,13237.00919670219,0.49518612957935393,-0.053509920070583396,-0.07109854868880477,28007.220693162475,19359.100009844165,0.6912181762673218,0.69551420306248,-0.00429602679515817,Risk,Growing
80606,SGHRZQ,HORIZON QUANTUM COMPUTING PTE. LTD.,Aspire FT Pte Ltd,AspireBA,Key,SG AM-Rachel,2026-Q2,2026-Q3,26508.843757138617,12583.864781664739,0.47470440042395307,-0.053509920070583396,-0.07109854868880477,27774.061944715108,19197.936444961604,0.6912181762673218,0.5289940833807449,0.1622240928865769,Safe,Growing
65414,SGARBW,ARTA TECH PTE. LTD.,Aspire FT Pte Ltd,AspireBA,Key,SG AM-Rachel,2026-Q2,2026-Q3,25678.48860760656,16964.55309795834,0.6606523209832936,-0.053509920070583396,-0.07109854868880477,26904.075476406546,18596.58598496011,0.6912181762673218,0.6759441153135496,0.015274060953772262,Safe,Growing
79727,SGAMES,AMERICAN STUDY EDUCATION JOINT STOCK COMPANY,Aspire FT Pte Ltd,AspireBA,Key,SG AM - Caroline,2026-Q2,2026-Q3,24960.53869957159,21121.71824810374,0.8462044230025478,-0.053509920070583396,-0.07109854868880477,26151.859144315633,18076.640383733735,0.6912181762673218,0.7360534128815073,-0.044835236614185425,Risk,Declining
138876,SGDBJV,V MEDICAL AESTHETICS PTE. LTD.,Aspire FT Pte Ltd,AspireBA,Key,SG AM-Rachel,2026-Q2,2026-Q3,24871.3404511213,3622.012036934835,0.1456299488181201,-0.053509920070583396,-0.07109854868880477,26058.403628091877,18012.04223224743,0.6912181762673218,0.07103569594378153,0.6201824803235403,Safe,Growing
85820,SGRUKP,IRUKANDJI PRIVATE LTD.,Aspire FT Pte Ltd,AspireBA,Key,SG AM-Rachel,2026-Q2,2026-Q3,24349.521184073954,23283.595682642917,0.9562239645957303,-0.053509920070583396,-0.07109854868880477,25511.67889050252,17634.136156210687,0.6912181762673218,0.9055674296332338,-0.21434925336591193,Risk,Declining
146268,SGGDL7,Goodsol HK Limited,AFT HK Limited,AspireBA,Key,SG AM - Caroline,2026-Q2,2026-Q3,24241.174190541864,8408.974190541863,0.34688807251848297,-0.053509920070583396,-0.07109854868880477,25398.160694935294,17555.67031609755,0.6912181762673218,0.35490700769292705,0.3363111685743948,Safe,Growing
67398,SGMAPC,MAVINA PTE. LTD.,Aspire FT Pte Ltd,AspireBA,Key,SG AM - Caroline,2026-Q2,2026-Q3,23811.424062792838,23811.424062792838,1.0,-0.053509920070583396,-0.07109854868880477,24947.899386739362,17244.44151580262,0.6912181762673218,1.0,-0.30878182373267815,Risk,Declining
118203,SGSRC7,SORA CLOUD PTE. LTD.,Aspire FT Pte Ltd,AspireBA,Key,SG AM-Rachel,2026-Q2,2026-Q3,23706.32563587669,23706.32563587669,1.0,-0.053509920070583396,-0.07109854868880477,24837.784805877076,17168.32831603855,0.6912181762673218,0.9892144160037457,-0.29799623973642386,Risk,Declining
118392,SGZKAL,ZKAI LABS PTE. LTD.,Aspire FT Pte Ltd,AspireBA,Scaled,SG AM-Rachel,2026-Q2,2026-Q3,23378.732882475757,3650.2673492862673,0.1561362357676124,-0.053509920070583396,-0.07109854868880477,24494.556654964344,16931.082779521046,0.6912181762673218,0.19425527426156006,0.49696290200576176,Safe,Growing
84694,SGLVTX,LOVE IN THE HAIR PTE. LTD.,Aspire FT Pte Ltd,AspireBA,Key,SG AM-Rachel,2026-Q2,2026-Q3,23226.494456885277,23059.877087963738,0.9928264091152099,-0.053509920070583396,-0.07109854868880477,24335.052170292987,16820.830380520052,0.6912181762673218,0.9851254192457366,-0.29390724297841475,Risk,Declining
116075,SGFYDC,INTREPID MALAYSIA SDN. BHD.,Aspire FT Pte Ltd,AspireOS,Key,SG AM-Rachel,2026-Q2,2026-Q3,23056.374780436876,11455.161532092312,0.4968327259241081,-0.053509920070583396,-0.07109854868880477,24156.81299566205,16697.628223292264,0.6912181762673218,0.364031289492199,0.32718688677512286,Safe,Growing
108958,SGMBBP,MOBBIN PTE. LTD.,Aspire FT Pte Ltd,AspireOS,Key,SG AM-Rachel,2026-Q2,2026-Q3,22552.887032338498,12034.678565656275,0.5336203098255135,-0.053509920070583396,-0.07109854868880477,23629.29470658829,16332.99799357104,0.6912181762673218,0.5059824345027072,0.18523574176461466,Safe,Growing
80381,SGZUSS,ZUSPRESSO M SDN BHD,Aspire FT Pte Ltd,AspireBA,Key,SG AM-Rachel,2026-Q2,2026-Q3,22513.698568746317,8951.920083367906,0.39762103308050095,-0.053509920070583396,-0.07109854868880477,23588.23584995542,16304.617365569648,0.6912181762673218,0.5548380786898508,0.13638009757747105,Safe,Growing
58755,SGASLS,Ascenda Loyalty Pte Ltd,Aspire FT Pte Ltd,AspireOS,Key,SG AM-Rachel,2026-Q2,2026-Q3,22328.15525056661,10809.439556007585,0.48411700092121485,-0.053509920070583396,-0.07109854868880477,23393.836891639352,16170.245272134147,0.6912181762673218,0.4230386417639568,0.26817953450336507,Safe,Growing
80725,SGSPSV,SPROUT SOLUTIONS PHIL INC,Aspire FT Pte Ltd,AspireBA,Key,SG AM-Rachel,2026-Q2,2026-Q3,21371.384010452395,17556.631636492522,0.8215018563096269,-0.053509920070583396,-0.07109854868880477,22391.400726059775,15477.343173937825,0.6912181762673218,0.7505651922112926,-0.05934701594397074,Risk,Declining
115719,SGAPYF,AIRGSM PTE. LTD.,Aspire FT Pte Ltd,AspireOS,Key,SG AM-Rachel,2026-Q2,2026-Q3,21260.594281467682,10401.099937108378,0.4892196238453575,-0.053509920070583396,-0.07109854868880477,22275.323207785106,15397.10828345037,0.6912181762673218,0.44189035321108927,0.24932782305623258,Safe,Growing
88951,SGBXNV,BIXIN VENTURES PTE. LTD.,Aspire FT Pte Ltd,AspireBA,Scaled,SG AM - Caroline,2026-Q2,2026-Q3,21225.16819251047,7205.551465925397,0.33948147786494115,-0.053509920070583396,-0.07109854868880477,22238.206296984663,15371.452400058211,0.6912181762673218,0.3652719867851082,0.32594618948221366,Safe,Growing
124956,SGKH5E,KAYNES HOLDING PTE. LTD.,Aspire FT Pte Ltd,AspireBA,Scaled,SG AM - Caroline,2026-Q2,2026-Q3,20625.32199974652,20625.32199974652,1.0,-0.053509920070583396,-0.07109854868880477,21609.73055252142,14937.038542142081,0.6912181762673218,0.9980294413591996,-0.3068112650918777,Risk,Declining
152838,SGSTKW,SUPERLINEAR TECHNOLOGY PTE LTD,Aspire FT Pte Ltd,AspireBA,Key,SG AM-Rachel,2026-Q2,2026-Q3,20600.971940402167,16924.856498953493,0.8215562133629648,-0.053509920070583396,-0.07109854868880477,21584.218309785243,14919.404016245491,0.6912181762673218,0.8646511024944893,-0.17343292622716744,Risk,Declining
101907,SG4VPC,STARTCAREFULLY PTE. LTD.,Aspire FT Pte Ltd,AspireBA,Key,SG AM-Rachel,2026-Q2,2026-Q3,20580.41694570596,20580.41694570596,1.0,-0.053509920070583396,-0.07109854868880477,21562.682263128667,14904.517909351525,0.6912181762673218,0.9961448172642301,-0.30492664099690825,Risk,Declining
91639,SGFT9T,PT REPUBLIK AZERO MANAGEMEN,Aspire FT Pte Ltd,AspireX,Key,Eureka,2026-Q2,2026-Q3,20494.58594990286,4232.517075036397,0.20651878917595104,-0.053509920070583396,-0.07109854868880477,21472.754712306312,14842.35835167591,0.6912181762673218,0.23105067179491742,0.4601675044724044,Safe,Growing
120791,SGFLP4,FLYWHEEL AI PTE. LTD,Aspire FT Pte Ltd,AspireBA,Key,SG AM-Rachel,2026-Q2,2026-Q3,20301.723196917766,20126.368981089305,0.9913625944887731,-0.053509920070583396,-0.07109854868880477,21270.686976070407,14702.685459552462,0.6912181762673218,0.9791696070581433,-0.2879514307908214,Risk,Declining
98527,SGWALH,WALKER HOLDINGS PTE. LTD.,Aspire FT Pte Ltd,AspireBA,Key,SG AM-Rachel,2026-Q2,2026-Q3,20234.166051895296,15256.625882200613,0.7540031965276649,-0.053509920070583396,-0.07109854868880477,21199.905453200063,14653.759984400598,0.6912181762673218,0.7166669065957019,-0.02544873032838002,Risk,Declining
72111,SGANN3,ANTLER INNOVATION PTE. LTD.,Aspire FT Pte Ltd,AspireOS,Key,SG AM-Rachel,2026-Q2,2026-Q3,20227.256202469867,12546.547653803233,0.6202792671539517,-0.053509920070583396,-0.07109854868880477,21192.665809414437,14648.755811026273,0.6912181762673218,0.51593495476034,0.17528322150698183,Safe,Growing
105492,SGML5E,MAGICBLOCK LABS PTE. LTD.,Aspire FT Pte Ltd,AspireOS,Key,SG AM-Rachel,2026-Q2,2026-Q3,20119.397042528537,18592.849157624747,0.9241255649124593,-0.053509920070583396,-0.07109854868880477,21079.658730834908,14570.643264265233,0.6912181762673218,0.9433568194595285,-0.2521386431922067,Risk,Declining
65171,SGLETF,SD LEGOS TECHNOLOGIES PTE LTD,Aspire FT Pte Ltd,AspireBA,Key,SG AM - Caroline,2026-Q2,2026-Q3,18929.35501183039,8118.720243748576,0.4288957673768901,-0.053509920070583396,-0.07109854868880477,19832.818190363425,13708.804419784374,0.6912181762673218,0.6372050960923963,0.054013080174925565,Safe,Growing
80086,SGMSME,MISTER MOBILE TRADING PTE. LTD.,Aspire FT Pte Ltd,AspireX,Key,SG AM - Caroline,2026-Q2,2026-Q3,18494.049432173913,5047.455851541549,0.2729232378259215,-0.053509920070583396,-0.07109854868880477,19376.736278793695,13393.55231264063,0.6912181762673218,0.40768208084458324,0.2835360954227386,Safe,Growing
70699,SGNTCD,INTELLECT COMPANY PTE. LTD.,Aspire FT Pte Ltd,AspireOS,Key,SG AM-Rachel,2026-Q2,2026-Q3,18269.89587889468,8222.121709127721,0.45003659372935384,-0.053509920070583396,-0.07109854868880477,19141.884290116184,13231.218349334207,0.6912181762673218,0.49108506038107597,0.20013311588624588,Safe,Growing
150279,SGTAYX,THE LO AND BEHOLD GROUP PTE LTD,Aspire FT Pte Ltd,AspireBA,Key,SG AM-Rachel,2026-Q2,2026-Q3,18153.168213356752,10369.783460944647,0.5712382179830604,-0.053509920070583396,-0.07109854868880477,19019.58542853572,13146.68315327299,0.6912181762673218,0.5504287742030924,0.1407894020642294,Safe,Growing
79133,SGUDLX,USD - PT DATA SINERGITAMA JAYA,Aspire FT Pte Ltd,AspireBA,Key,Eureka,2026-Q2,2026-Q3,18083.823768,10836.893560534518,0.5992589675481579,-0.053509920070583396,-0.07109854868880477,18946.9313007848,13096.463299590705,0.6912181762673218,0.5447107762960274,0.14650739997129447,Safe,Growing
145670,SGELSG,ELSER GLOBAL PTE. LTD.,Aspire FT Pte Ltd,AspireBA,Key,SG AM-Rachel,2026-Q2,2026-Q3,18019.64824,15990.462410289883,0.8873903750681587,-0.053509920070583396,-0.07109854868880477,18879.692793276266,13049.98682105572,0.6912181762673218,0.9366997029547257,-0.24548152668740386,Risk,Declining
76492,SGMAGL,MAGIK LABS PTE. LTD.,Aspire FT Pte Ltd,AspireBA,Key,SG AM-Rachel,2026-Q2,2026-Q3,17906.340189337156,17351.019835553,0.9689875011916262,-0.053509920070583396,-0.07109854868880477,18760.976758477605,12967.928139988502,0.6912181762673218,0.9686297110050699,-0.27741153473774804,Risk,Declining
135388,SGHECK,HELMSMAN CAPITAL PTE. LTD.,Aspire FT Pte Ltd,AspireBA,Key,SG AM - Caroline,2026-Q2,2026-Q3,17827.94517499202,17827.94517499202,1.0,-0.053509920070583396,-0.07109854868880477,18678.840094784293,12911.153785105727,0.6912181762673218,0.996393676807662,-0.30517550054034015,Risk,Declining
93539,SGNTAL,INITIA LABS PTE. LTD.,Aspire FT Pte Ltd,AspireBA,Key,SG AM - Caroline,2026-Q2,2026-Q3,17801.085102122015,7075.399788021994,0.3974701400185181,-0.053509920070583396,-0.07109854868880477,18650.69804020939,12891.701485466048,0.6912181762673218,0.40925558349253105,0.2819625927747908,Safe,Growing
141996,SGSPTC,SPARKVIEW TECH PTE. LTD.,Aspire FT Pte Ltd,AspireBA,Key,SG AM-Rachel,2026-Q2,2026-Q3,17617.129750808446,13762.218275453319,0.7811839085093741,-0.053509920070583396,-0.07109854868880477,18457.962839487216,12758.479411520351,0.6912181762673218,0.8453437268826272,-0.1541255506153053,Risk,Declining
141988,SGATFM,ASIA TRAVELS INTERNATIONAL LIMITED,AFT HK Limited,AspireBA,Key,SG AM - Caroline,2026-Q2,2026-Q3,17581.027489222863,15301.02748922286,0.870314746882818,-0.053509920070583396,-0.07109854868880477,18420.137483586797,12732.333837998201,0.6912181762673218,0.9229090475289803,-0.23169087126165844,Risk,Declining
55188,SGPRLF,Oxixo Private Ltd.,Aspire FT Pte Ltd,AspireBA,Key,SG AM-Rachel,2026-Q2,2026-Q3,16924.769331505377,6678.414260209833,0.39459410816181684,-0.053509920070583396,-0.07109854868880477,17732.557335197198,12257.065941790728,0.6912181762673218,0.6484471338938238,0.04277104237349805,Safe,Growing
131028,SGSMMQ,SMK IMPORT AND EXPORT PTE. LTD.,Aspire FT Pte Ltd,AspireBA,Key,SG AM-Rachel,2026-Q2,2026-Q3,16775.39310408859,16775.39310408859,1.0,-0.053509920070583396,-0.07109854868880477,17576.05165613587,12148.88637173448,0.6912181762673218,0.9734729660422456,-0.2822547897749238,Risk,Declining
77008,SGPXLT,PIXELATION LABS PTE. LTD.,Aspire FT Pte Ltd,AspireBA,Key,SG AM - Caroline,2026-Q2,2026-Q3,16574.385733754516,12581.113650872718,0.7590696785372074,-0.053509920070583396,-0.07109854868880477,17365.450574996692,12003.315076509529,0.6912181762673218,0.7065869687430668,-0.015368792475744963,Risk,Declining
125931,SGESH9,ESSENCE SHIPPING PTE. LTD.,Aspire FT Pte Ltd,AspireBA,Key,SG AM - Caroline,2026-Q2,2026-Q3,16500.10677552254,16492.52675895119,0.9995406080291191,-0.053509920070583396,-0.07109854868880477,17287.626419178196,11949.521605455124,0.6912181762673218,0.9574725363737187,-0.2662543601063968,Risk,Declining
77783,SGETAS,ETHEREUM ASIA PACIFIC LIMITED,Aspire FT Pte Ltd,AspireOS,Key,SG AM-Rachel,2026-Q2,2026-Q3,16314.246324000002,10756.877997977883,0.6593548843352551,-0.053509920070583396,-0.07109854868880477,17092.895191330146,11814.9198412797,0.6912181762673218,0.5634041855263436,0.1278139907409782,Safe,Growing
83438,SGBRHP,BRIOHR PTE. LTD.,Aspire FT Pte Ltd,AspireBA,Key,SG AM-Rachel,2026-Q2,2026-Q3,16200.758045667251,16200.758045667251,1.0,-0.053509920070583396,-0.07109854868880477,16973.99032692752,11732.730637758003,0.6912181762673218,0.9971061239038026,-0.30588794763648075,Risk,Declining
90404,SGPUNK,PUREST NEST PTE. LTD.,Aspire FT Pte Ltd,AspireBA,Key,SG AM - Caroline,2026-Q2,2026-Q3,16027.465701210447,6869.947526939117,0.4286359212997895,-0.053509920070583396,-0.07109854868880477,16792.427058699646,11607.230806616397,0.6912181762673218,0.19018731607368558,0.5010308601936363,Safe,Growing
137316,SGPVPB,PIVENE PTE. LTD.,Aspire FT Pte Ltd,AspireBA,Key,SG AM-Rachel,2026-Q2,2026-Q3,15934.426233762766,15934.426233762766,1.0,-0.053509920070583396,-0.07109854868880477,16694.946989185137,11539.850810744167,0.6912181762673218,0.9984567833832161,-0.30723860711589424,Risk,Declining
77903,SGMUTW,MULTIPLIER TECHNOLOGIES PTE. LTD. (USD Advance/SGD Debit),Aspire FT Pte Ltd,AspireOS,Key,SG AM-Rachel,2026-Q2,2026-Q3,15759.041427388122,2934.58891074685,0.1862162063770413,-0.053509920070583396,-0.07109854868880477,16511.191389693948,11412.835600384959,0.6912181762673218,0.307723568786992,0.3834946074803299,Safe,Growing
108372,SGEVSA,EVENTUS SECURITY PTE. LTD.,Aspire FT Pte Ltd,AspireBA,Key,SG AM-Rachel,2026-Q2,2026-Q3,15511.59366184796,13283.082983465742,0.856332577621381,-0.053509920070583396,-0.07109854868880477,16251.933398996296,11233.631764872196,0.6912181762673218,0.9065320840537427,-0.2153139077864209,Risk,Declining
80992,SGNVDN,INVIDEO INNOVATION PTE. LTD.,Aspire FT Pte Ltd,AspireOS,Key,SG AM-Rachel,2026-Q2,2026-Q3,15280.527922000001,9036.795581210883,0.5913928908307048,-0.053509920070583396,-0.07109854868880477,16009.839317842323,11066.291935611835,0.6912181762673218,0.5533415462227046,0.13787663004461725,Safe,Growing
50696,SGZEPS,ZENYUM PTE. LTD.,Aspire FT Pte Ltd,AspireOS,Key,SG AM-Rachel,2026-Q2,2026-Q3,15253.27394357343,7865.601701970785,0.5156664550225791,-0.053509920070583396,-0.07109854868880477,15981.28455732563,11046.554366123737,0.6912181762673218,0.4843547501531915,0.20686342611413033,Safe,Growing
129420,SGRCCB,RACKSYS CREATION PTE. LTD.,Aspire FT Pte Ltd,AspireBA,Key,SG AM - Caroline,2026-Q2,2026-Q3,14997.950213178716,14997.950213178716,1.0,-0.053509920070583396,-0.07109854868880477,15713.774696506865,10861.646687995064,0.6912181762673218,0.9974023274852252,-0.3061841512179033,Risk,Declining
116073,SGFYDF,"Intrepid Ecommerce Services (Thailand) Co., Ltd.",Aspire FT Pte Ltd,AspireOS,Key,SG AM-Rachel,2026-Q2,2026-Q3,14923.133692164616,-64.21940845337122,-0.004303346051713628,-0.053509920070583396,-0.07109854868880477,15635.387321026785,10807.463909273341,0.6912181762673218,0.24637237143168358,0.4448458048356383,Safe,Growing
120035,SGTAPK,TARVOS PTE. LTD.,Aspire FT Pte Ltd,AspireBA,Key,SG AM-Rachel,2026-Q2,2026-Q3,14891.341944766613,12389.89087632469,0.8320197684184515,-0.053509920070583396,-0.07109854868880477,15602.078212200599,10784.440047817416,0.6912181762673218,0.8635357682570367,-0.17231759198971486,Risk,Declining
86460,SGPPGY,PREFER PTE. LTD.,Aspire FT Pte Ltd,AspireBA,Key,SG AM-Rachel,2026-Q2,2026-Q3,14807.442091485287,14491.78396413211,0.9786824675455128,-0.053509920070583396,-0.07109854868880477,15514.173973768451,10723.679040442179,0.6912181762673218,0.9819626115612128,-0.29074443529389093,Risk,Declining
94208,SGVADF,VIAS DEVELOPMENT PTE. LTD.,Aspire FT Pte Ltd,AspireBA,Key,SG AM - Caroline,2026-Q2,2026-Q3,14774.491349999998,14444.491349999998,0.9776642056783904,-0.053509920070583396,-0.07109854868880477,15479.650554206242,10699.815825333877,0.6912181762673218,0.9901476775689658,-0.298929501301644,Risk,Declining
58971,SGACPM,ACHERON PTE. LTD.,Aspire FT Pte Ltd,AspireBA,Key,SG AM - Caroline,2026-Q2,2026-Q3,14772.344783391538,3551.5556457596067,0.2404192223940373,-0.053509920070583396,-0.07109854868880477,15477.401535935283,10698.261263026232,0.6912181762673218,0.4110231831902437,0.2801949930770781,Safe,Growing
134365,SG6SZM,"STARGLOWS INTERNATIONAL TRADING CO., LIMITED",AFT HK Limited,AspireBA,Key,SG AM - Caroline,2026-Q2,2026-Q3,14676.039376208188,13911.039376208188,0.9478742199860701,-0.053509920070583396,-0.07109854868880477,15376.499649409165,10628.516045039716,0.6912181762673218,0.9299831033283782,-0.23876492706105634,Risk,Declining
90493,SGKRMQ,KRIS MANAGEMENT & SERVICES PTE. LTD.,Aspire FT Pte Ltd,AspireBA,Key,SG AM - Caroline,2026-Q2,2026-Q3,14628.680930482064,14628.680930482064,1.0,-0.053509920070583396,-0.07109854868880477,15326.880872473692,10594.218644537765,0.6912181762673218,0.9897601804075994,-0.29854200414027754,Risk,Declining
75513,SGDEUP,DELUGS PTE. LTD.,Aspire FT Pte Ltd,AspireBA,Key,SG AM - Caroline,2026-Q2,2026-Q3,14609.69036622722,4179.245042699546,0.28605979578873075,-0.053509920070583396,-0.07109854868880477,15306.983923636113,10580.465511848968,0.6912181762673218,0.548702473548213,0.14251570271910885,Safe,Growing
76608,SGEPTN,EPITEX INTERNATIONAL PTE LTD,Aspire FT Pte Ltd,AspireBA,Scaled,SG AM-Rachel,2026-Q2,2026-Q3,14518.42232236333,6937.642209744215,0.47785097138673777,-0.053509920070583396,-0.07109854868880477,15211.359824483694,10514.368396425629,0.6912181762673218,0.4256171445434426,0.2656010317238792,Safe,Growing
89391,SGBPNT,BLACKBOAT PTE. LTD.,Aspire FT Pte Ltd,AspireBA,Scaled,SG AM-Rachel,2026-Q2,2026-Q3,14467.008543047552,4801.941496658913,0.33192359584017767,-0.053509920070583396,-0.07109854868880477,15157.49216037089,10477.134087877796,0.6912181762673218,0.4321053534326265,0.25911282283469533,Safe,Growing
114025,SGWXHM,DIGIMENTAL GLOBAL NETWORK SOLUTION PTE. LTD.,Aspire FT Pte Ltd,AspireBA,Key,SG AM-Rachel,2026-Q2,2026-Q3,14289.820367461989,14042.752276462605,0.9827102031623882,-0.053509920070583396,-0.07109854868880477,14971.847120184659,10348.812861767194,0.6912181762673218,0.844342718481213,-0.15312454221389116,Risk,Declining
60315,SGBAZT,BAZAAR TECHNOLOGIES PTE LTD,Aspire FT Pte Ltd,AspireOS,Key,SG AM-Rachel,2026-Q2,2026-Q3,14250.973966625144,9522.881232207821,0.6682266948567719,-0.053509920070583396,-0.07109854868880477,14931.146652331126,10320.679958604249,0.6912181762673218,0.6778219988557128,0.013396177411609034,Safe,Growing
109572,SGSPLU,SUNA OPTOELECTRONICS (SINGAPORE) PTE LTD,Aspire FT Pte Ltd,AspireBA,Key,SG AM-Rachel,2026-Q2,2026-Q3,14209.16239106734,14209.16239106734,1.0,-0.053509920070583396,-0.07109854868880477,14887.339487439755,10290.399649980593,0.6912181762673218,0.9987788968349222,-0.3075607205676003,Risk,Declining
118501,SGMMWC,MMW CAPITAL INVESTMENT PTE LTD,Aspire FT Pte Ltd,AspireBA,Key,SG AM - Caroline,2026-Q2,2026-Q3,14208.961238367328,14207.697902274234,0.9999110887789825,-0.053509920070583396,-0.07109854868880477,14887.12873409262,10290.253973436344,0.6912181762673218,0.9999736157242466,-0.30875543945692474,Risk,Declining
72147,SGCP9H,CARGOAI PTE. LTD.,Aspire FT Pte Ltd,AspireBA,Key,SG AM-Rachel,2026-Q2,2026-Q3,14117.632210442924,10665.21509140995,0.7554535301975642,-0.053509920070583396,-0.07109854868880477,14791.440740223028,10224.112692823126,0.6912181762673218,0.7029262052084739,-0.011708028941152082,Risk,Declining
60553,SGQAAT,QOALA TECHNOLOGY PTE. LTD.,Aspire FT Pte Ltd,AspireBA,Key,SG AM-Rachel,2026-Q2,2026-Q3,13902.461008983144,6700.544025528252,0.48196819406281105,-0.053509920070583396,-0.07109854868880477,14565.999814439407,10068.283827246954,0.6912181762673218,0.5106915151903874,0.1805266610769345,Safe,Growing
92687,SGSG9S,SURGE GLOBAL PTE. LTD.,Aspire FT Pte Ltd,AspireOS,Key,SG AM-Rachel,2026-Q2,2026-Q3,13891.511188703214,5811.371768088801,0.41833978241436365,-0.053509920070583396,-0.07109854868880477,14554.527379446601,10060.353871653882,0.6912181762673218,0.5689061853649258,0.12231199090239608,Safe,Growing
139091,SGLMFD,LMF DIGITAL PTE. LTD.,Aspire FT Pte Ltd,AspireBA,Key,SG AM-Rachel,2026-Q2,2026-Q3,13709.74758055883,13657.178908881919,0.9961655988654776,-0.053509920070583396,-0.07109854868880477,14364.088529749974,9928.719077276133,0.6912181762673218,0.985160829597855,-0.29394265333053315,Risk,Declining
90121,SGTERJ,TERRAVERDE JOURNEYS PTE. LTD.,Aspire FT Pte Ltd,AspireBA,Key,SG AM - Caroline,2026-Q2,2026-Q3,13584.019224999998,11617.327053277684,0.8552201569250714,-0.053509920070583396,-0.07109854868880477,14232.359391825661,9837.665502798824,0.6912181762673218,0.916287298687708,-0.22506912242038613,Risk,Declining
179972,SGTNAD,TINY AWAY ESCAPE TALBINGO PTE LTD,Aspire FT Pte Ltd,AspireBA,Key,SG AM - Caroline,2026-Q2,2026-Q3,13553.254149372104,13553.254149372104,1.0,-0.053509920070583396,-0.07109854868880477,14200.125955918338,9815.385166016134,0.6912181762673218,0.9999320881282413,-0.30871391186091945,Risk,Declining
86457,SGSFT4,GL SOFTWARE PTE. LTD.,Aspire FT Pte Ltd,AspireBA,Key,SG AM-Rachel,2026-Q2,2026-Q3,13491.222461835827,6541.187289420387,0.4848476339282223,-0.053509920070583396,-0.07109854868880477,14135.133610422175,9770.461275490941,0.6912181762673218,0.5557234219762923,0.13549475429102953,Safe,Growing
69274,SGTRT9,TRIPLO TECHNOLOGY SERVICES PTE. LTD.,Aspire FT Pte Ltd,AspireBA,Key,SG AM-Rachel,2026-Q2,2026-Q3,13283.904189341636,5498.3105430757405,0.413907723565736,-0.053509920070583396,-0.07109854868880477,13917.920419410237,9620.319569738464,0.6912181762673218,0.5883493764276468,0.10286879983967501,Safe,Growing
62593,SGSGPT,SGPOMADES TRADING PTE. LTD.,Aspire FT Pte Ltd,AspireBA,Scaled,SG AM-Rachel,2026-Q2,2026-Q3,13267.761237856012,10793.457859971866,0.8135101066768987,-0.053509920070583396,-0.07109854868880477,13901.006994643774,9608.628703116954,0.6912181762673218,0.706047138593445,-0.014828962326123185,Risk,Declining
123896,SGCLMS,COFFEE MEETS BAGEL PTE. LTD.,Aspire FT Pte Ltd,AspireOS,Key,SG AM-Rachel,2026-Q2,2026-Q3,13267.12104385475,12370.353532589459,0.9324067739865336,-0.053509920070583396,-0.07109854868880477,13900.336245364379,9608.165069023318,0.6912181762673218,0.908886217817867,-0.2176680415505452,Risk,Declining
81634,SGSUG2,SUNGIL GARMENT PTE. LTD.,Aspire FT Pte Ltd,AspireBA,Key,SG AM-Rachel,2026-Q2,2026-Q3,13235.964237165794,13234.34686824426,0.9998778049794822,-0.053509920070583396,-0.07109854868880477,13867.692381795434,9585.601037180873,0.6912181762673218,0.9965444959149762,-0.30532631964765433,Risk,Declining
102761,SGAYK4,SHARDLAB PTE. LTD.,Aspire FT Pte Ltd,AspireBA,Key,SG AM - Caroline,2026-Q2,2026-Q3,13228.61854493974,11106.701945136685,0.8395965086910199,-0.053509920070583396,-0.07109854868880477,13859.996093236703,9580.28122263928,0.6912181762673218,0.7671173947040542,-0.07589921843673231,Risk,Declining
70216,SGSTWN,SUNERA TECH PTE. LTD.,Aspire FT Pte Ltd,AspireBA,Key,SG AM-Rachel,2026-Q2,2026-Q3,12789.7218,12789.7218,1.0,-0.053509920070583396,-0.07109854868880477,13400.151616692623,9262.42836219588,0.6912181762673218,0.99644202302613,-0.3052238467588082,Risk,Declining
84816,SGCRPZ,CREDOLAB PTE. LTD,Aspire FT Pte Ltd,AspireBA,Scaled,SG AM-Rachel,2026-Q2,2026-Q3,12649.667398488735,10476.034960694376,0.8281668308485294,-0.053509920070583396,-0.07109854868880477,13253.412677082842,9160.999739971407,0.6912181762673218,0.8060316373166941,-0.11481346104937229,Risk,Declining
55758,SGMMUS,IMMUNI SOFTWARE PTE. LTD.,Aspire FT Pte Ltd,AspireOS,Key,SG AM-Rachel,2026-Q2,2026-Q3,12634.596396321886,8728.392736796988,0.6908327312566905,-0.053509920070583396,-0.07109854868880477,13237.622363797744,9150.085188419791,0.6912181762673218,0.6549166487121246,0.03630152755519722,Safe,Growing
76401,SGEMPQ,EMURGO GROUP PTE. LTD.,Aspire FT Pte Ltd,AspireBA,Key,SG AM - Caroline,2026-Q2,2026-Q3,12497.237776920228,9171.023756656645,0.7338440638133331,-0.053509920070583396,-0.07109854868880477,13093.707871002303,9050.60887517129,0.6912181762673218,0.71593602231951,-0.024717846052188186,Risk,Declining
99918,SGJTY5,DIGITAL ASSET NETWORK SECURITY PTE LTD,Aspire FT Pte Ltd,AspireBA,Key,SG AM-Rachel,2026-Q2,2026-Q3,12426.743324684867,12137.98952529277,0.9767635178543917,-0.053509920070583396,-0.07109854868880477,13019.84884866692,8999.556176451739,0.6912181762673218,0.9851596869987775,-0.2939415107314557,Risk,Declining
110804,SGF9J8,CHOICE ONE ASIA PACIFIC PTE. LTD.,Aspire FT Pte Ltd,AspireBA,Scaled,SG AM - Caroline,2026-Q2,2026-Q3,12382.19294505145,12202.032911908747,0.9854500706020168,-0.053509920070583396,-0.07109854868880477,12973.172161636165,8967.29240196814,0.6912181762673218,0.956130163614003,-0.2649119873466812,Risk,Declining
173232,SGPL4F,PANGO LABS PTE LTD,Aspire FT Pte Ltd,AspireBA,Key,SG AM-Rachel,2026-Q2,2026-Q3,12351.289527562065,11942.79516496942,0.9669269867181817,-0.053509920070583396,-0.07109854868880477,12940.793781065628,8944.911876799684,0.6912181762673218,0.9416595867180814,-0.2504414104507595,Risk,Declining
71012,SGSKMC,SKY MAVIS PTE LTD,Aspire FT Pte Ltd,AspireBA,Scaled,SG AM - Caroline,2026-Q2,2026-Q3,12313.987932,5112.1445643760235,0.41514938885811664,-0.053509920070583396,-0.07109854868880477,12901.711849191533,8917.897735124669,0.6912181762673218,0.36582249774329745,0.3253956785240244,Safe,Growing
84945,SGTKPL,TOKENINSIGHT SG PTE. LTD.,Aspire FT Pte Ltd,AspireBA,Scaled,SG AM-Rachel,2026-Q2,2026-Q3,12297.62257771783,9205.524647158232,0.7485613246773245,-0.053509920070583396,-0.07109854868880477,12884.565406753514,8906.045802453187,0.6912181762673218,0.7747470524089421,-0.0835288761416203,Risk,Declining
136203,SGGTG8,IDA GLOBAL TRANSLATION PTE. LTD.,Aspire FT Pte Ltd,AspireBA,Key,SG AM-Rachel,2026-Q2,2026-Q3,12110.164247053488,3542.707295195933,0.2925399873133765,-0.053509920070583396,-0.07109854868880477,12688.160035941284,8770.28684023125,0.6912181762673218,0.36463160692155366,0.3265865693457682,Safe,Growing
112237,SGDPUP,DPUNION PTE. LTD.,Aspire FT Pte Ltd,AspireBA,Scaled,SG AM - Caroline,2026-Q2,2026-Q3,12072.17468328012,12070.557314358588,0.9998660250564654,-0.053509920070583396,-0.07109854868880477,12648.357300402879,8742.774465961944,0.6912181762673218,0.9940862132316922,-0.30286803696437037,Risk,Declining
111587,SGGTYF,GOTYME FINANCIAL PTE. LTD.,Aspire FT Pte Ltd,AspireBA,Key,SG AM - Caroline,2026-Q2,2026-Q3,11998.281366704123,11998.281366704123,1.0,-0.053509920070583396,-0.07109854868880477,12570.937192204856,8689.260279966888,0.6912181762673218,0.9452048084530076,-0.25398663218568573,Risk,Declining
134433,SGYDNT,YDNE TIME PTE LTD,Aspire FT Pte Ltd,AspireBA,Key,SG AM - Caroline,2026-Q2,2026-Q3,11926.821059358868,11926.821059358868,1.0,-0.053509920070583396,-0.07109854868880477,12496.066216277775,8637.508100531217,0.6912181762673218,0.9893507294807351,-0.29813255321341325,Risk,Declining
122503,SGL573,AEROLIFT (SINGAPORE) PTE. LTD.,Aspire FT Pte Ltd,AspireBA,Scaled,SG AM-Rachel,2026-Q2,2026-Q3,11875.48221076722,5674.320419768742,0.4778181061670042,-0.053509920070583396,-0.07109854868880477,12442.277059194272,8600.328057469002,0.6912181762673218,0.5541376365874568,0.137080539679865,Safe,Growing
103624,SGPCZC,PRIMROSE CAPITAL MANAGEMENT PTE. LTD. (AP),Aspire FT Pte Ltd,AspireBA,Key,SG AM - Caroline,2026-Q2,2026-Q3,11837.480157119571,10242.545195404207,0.8652639801253562,-0.053509920070583396,-0.07109854868880477,12402.46123766294,8572.806637923528,0.6912181762673218,0.930180331195026,-0.23896215492770412,Risk,Declining
67457,SGRARH,RARIUM INTERNATIONAL PTE. LTD.,Aspire FT Pte Ltd,AspireBA,Key,SG AM - Caroline,2026-Q2,2026-Q3,11826.192561002732,11775.070899512386,0.9956772510487508,-0.053509920070583396,-0.07109854868880477,12390.63490541593,8564.63206211582,0.6912181762673218,0.9968862401264501,-0.30566806385912826,Risk,Declining
102400,SGCLBN,COVE LIVING PTE. LTD.,Aspire FT Pte Ltd,AspireOS,Key,SG AM-Rachel,2026-Q2,2026-Q3,11772.989543203503,6303.816086795867,0.5354473529142845,-0.053509920070583396,-0.07109854868880477,12334.892605769093,8526.101971412985,0.6912181762673218,0.6045582107190605,0.08665996554826139,Safe,Growing
85644,SGGRVW,GREAT VISION SHIPPING PTE. LTD.,Aspire FT Pte Ltd,AspireBA,Key,SG AM - Caroline,2026-Q2,2026-Q3,11655.835293493641,11655.835293493641,1.0,-0.053509920070583396,-0.07109854868880477,12212.146799941478,8441.25783936436,0.6912181762673218,0.9990756122118631,-0.3078574359445413,Risk,Declining
117697,SGTU6F,TRUEGENICS PTE. LTD.,Aspire FT Pte Ltd,AspireOS,Key,SG AM-Rachel,2026-Q2,2026-Q3,11507.939997596199,3134.8551857591096,0.2724080231921547,-0.053509920070583396,-0.07109854868880477,12057.19273452769,8334.150772863833,0.6912181762673218,0.47329653243626446,0.2179216438310574,Safe,Growing
184790,SGNHKF,NHN KCP PTE LTD,Aspire FT Pte Ltd,AspireBA,Scaled,SG AM - Caroline,2026-Q2,2026-Q3,11228.134479967957,10033.54251384833,0.8936072623416748,-0.053509920070583396,-0.07109854868880477,11764.03261595454,8131.513170349389,0.6912181762673218,0.9006214737781487,-0.20940329751082687,Risk,Declining
92684,SGEDGT,EDGE TUTOR INTERNATIONAL PTE. LTD.,Aspire FT Pte Ltd,AspireOS,Key,SG AM-Rachel,2026-Q2,2026-Q3,11021.284847723753,10474.993408280743,0.9504330532246577,-0.053509920070583396,-0.07109854868880477,11547.310432526794,7981.71085796379,0.6912181762673218,0.878130614009611,-0.18691243774228916,Risk,Declining
125582,SGKNSG,KINGMIDAS CAPITAL PTE. LTD,Aspire FT Pte Ltd,AspireBA,Key,SG AM-Rachel,2026-Q2,2026-Q3,10943.222806524776,10943.222806524776,1.0,-0.053509920070583396,-0.07109854868880477,11465.52263417337,7925.177645145017,0.6912181762673218,0.999503150639533,-0.30828497437221114,Risk,Declining
28763,SGPRST,Prism Tech Private Limited,Aspire FT Pte Ltd,AspireOS,Key,SG AM-Rachel,2026-Q2,2026-Q3,10866.238771861616,2123.3433626608894,0.19540739047252834,-0.053509920070583396,-0.07109854868880477,11384.864293618139,7869.425134085681,0.6912181762673218,0.1846370412821348,0.5065811349851871,Safe,Growing
99873,SGSUCM,SUCCESS MCMOORE PTE LIMITED,Aspire FT Pte Ltd,AspireX,Key,Eureka,2026-Q2,2026-Q3,10738.815211319548,1765.1900230632134,0.1643747460336747,-0.053509920070583396,-0.07109854868880477,11251.359041705426,7777.143877336466,0.6912181762673218,0.3860010512825819,0.30521712498473996,Safe,Growing
104921,SGTTMS,TTMFS SINGAPORE PTE LTD,Aspire FT Pte Ltd,AspireOS,Key,SG AM-Rachel,2026-Q2,2026-Q3,10732.242912,6173.44574173628,0.5752241905402262,-0.053509920070583396,-0.07109854868880477,11244.473058669248,7772.3841607003915,0.6912181762673218,0.491192988057297,0.20002518821002485,Safe,Growing
56632,SGPRPH,PRIVYR PTE. LTD.,Aspire FT Pte Ltd,AspireBA,Key,SG AM-Rachel,2026-Q2,2026-Q3,10704.172094721414,1985.6212680120652,0.18549975191367127,-0.053509920070583396,-0.07109854868880477,11215.062473089698,7752.055029373141,0.6912181762673218,0.34493593690806373,0.3462822393592581,Safe,Growing
120222,SGUPWW,UNITE PROPERTIES PTE. LTD.,Aspire FT Pte Ltd,AspireBA,Key,SG AM - Caroline,2026-Q2,2026-Q3,10702.259036658132,10702.259036658132,1.0,-0.053509920070583396,-0.07109854868880477,11213.058108295812,7750.669575995737,0.6912181762673218,0.9994335429072816,-0.30821536663995974,Risk,Declining
79892,SGFCGY,FOCUS GLOBAL INC,Aspire FT Pte Ltd,AspireOS,Key,SG AM-Rachel,2026-Q2,2026-Q3,10674.861506305439,6705.66193747735,0.6281732023892247,-0.053509920070583396,-0.07109854868880477,11184.352944384505,7730.82804494751,0.6912181762673218,0.4223381627232245,0.26888001354409735,Safe,Growing
146972,SGBHLQ,BHINDI LABS PTE. LTD.,Aspire FT Pte Ltd,AspireBA,Key,SG AM - Caroline,2026-Q2,2026-Q3,10611.45148471772,9188.410630293427,0.8658957394778922,-0.053509920070583396,-0.07109854868880477,11117.916479496487,7684.905952849966,0.6912181762673218,0.7956885109120764,-0.10447033464475453,Risk,Declining
105066,SGHNPB,HONGTEX PTE. LTD.,Aspire FT Pte Ltd,AspireBA,Key,SG AM-Rachel,2026-Q2,2026-Q3,10400.849233918087,10400.849233918087,1.0,-0.053509920070583396,-0.07109854868880477,10897.262571955529,7532.385961293246,0.6912181762673218,0.9893250589312587,-0.2981068826639368,Risk,Declining
129328,SGWPEZ,WEGO PTE. LTD.,Aspire FT Pte Ltd,AspireOS,Key,SG AM-Rachel,2026-Q2,2026-Q3,10353.997403999998,2425.4513579143777,0.2342526526979201,-0.053509920070583396,-0.07109854868880477,10848.174590665592,7498.455456389372,0.6912181762673218,0.3428951091556138,0.3483230671117081,Safe,Growing
149859,SGNPNN,THE BRIGHTFAMILY LABS PTE LTD,Aspire FT Pte Ltd,AspireBA,Scaled,SG AM - Caroline,2026-Q2,2026-Q3,10269.77418778606,10118.679575634626,0.9852874455281467,-0.053509920070583396,-0.07109854868880477,10759.931555784862,7437.46026675082,0.6912181762673218,0.9862810475594479,-0.29506287129212605,Risk,Declining
58863,SGSKHZ,OSOME LTD.,Aspire FT Pte Ltd,AspireOS,Key,SG AM-Rachel,2026-Q2,2026-Q3,10125.9260723679,4076.161194436687,0.402547003138795,-0.053509920070583396,-0.07109854868880477,10609.21783530512,7333.28420374235,0.6912181762673218,0.699064266380996,-0.007846090113674098,Risk,Growing
65252,SGBYAW,DC Byte Asia Pte. Ltd.,Aspire FT Pte Ltd,AspireBA,Key,SG AM-Rachel,2026-Q2,2026-Q3,10118.265083478502,7627.578167871043,0.7538424922594339,-0.053509920070583396,-0.07109854868880477,10601.191201555219,7327.736048600177,0.6912181762673218,0.8954296170665704,-0.20421144079924858,Risk,Declining
71355,SGUANN,UANGCERMAT INTERNATIONAL PTE. LTD.,Aspire FT Pte Ltd,AspireOS,Key,SG AM-Rachel,2026-Q2,2026-Q3,9888.12707461046,9450.163535206406,0.9557081400654119,-0.053509920070583396,-0.07109854868880477,10360.069130268608,7161.068090227646,0.6912181762673218,0.9335992663455678,-0.24238109007824593,Risk,Declining
72995,SGRNGA,RINGKAS ASIA PTE. LTD.,Aspire FT Pte Ltd,AspireBA,Key,SG AM - Caroline,2026-Q2,2026-Q3,9849.737862488437,8384.087964706148,0.8511990960323885,-0.053509920070583396,-0.07109854868880477,10319.847671903464,7133.26628712968,0.6912181762673218,0.7945709333954405,-0.10335275712811864,Risk,Declining
83575,SGPP8Y,POURQUOI PAS PTE. LTD.,Aspire FT Pte Ltd,AspireBA,Key,SG AM-Rachel,2026-Q2,2026-Q3,9743.795366393431,9551.400285321488,0.9802546057426946,-0.053509920070583396,-0.07109854868880477,10208.848735998232,7056.5418050856515,0.6912181762673218,0.9794862244935686,-0.28826804822624674,Risk,Declining
92525,SGVBPX,VIBEFAM PTE. LTD.,Aspire FT Pte Ltd,AspireBA,Key,SG AM-Rachel,2026-Q2,2026-Q3,9716.574820853864,7904.817783238041,0.8135395372320499,-0.053509920070583396,-0.07109854868880477,10180.329004058536,7036.8284479866625,0.6912181762673218,0.8132947907407075,-0.12207661447338569,Risk,Declining
147380,SGDYMA,Dyment labs PTE LTD,Aspire FT Pte Ltd,AspireBA,Key,SG AM-Rachel,2026-Q2,2026-Q3,9705.201366759577,8896.12737639877,0.916635012527211,-0.053509920070583396,-0.07109854868880477,10168.412715991275,7028.591693080934,0.6912181762673218,0.9659801493199083,-0.27476197305258643,Risk,Declining
125793,SGNSG8,NINE SMART PTE. LTD.,Aspire FT Pte Ltd,AspireBA,Key,SG AM-Rachel,2026-Q2,2026-Q3,9679.437216665487,9676.556511650859,0.9997023892040264,-0.053509920070583396,-0.07109854868880477,10141.418890563733,7009.93307029843,0.6912181762673218,0.991461996842822,-0.30024382057550014,Risk,Declining
91424,SGAMGD,AMITY GLOBAL INSTITUTE PTE. LTD.,Aspire FT Pte Ltd,AspireBA,Key,SG AM - Caroline,2026-Q2,2026-Q3,9626.906937254278,8448.217632564181,0.8775630311612553,-0.053509920070583396,-0.07109854868880477,10086.381437866565,6971.890182618695,0.6912181762673218,0.8024233367478112,-0.11120516048048934,Risk,Declining
76322,SGPSMT,PROPERTY SCOUT MARKETPLACE (THAILAND) COMPANY LIMITED,Aspire FT Pte Ltd,AspireOS,Key,SG AM-Rachel,2026-Q2,2026-Q3,9613.157492631439,5703.94239102931,0.5933474402558605,-0.053509920070583396,-0.07109854868880477,10071.975757627972,6961.932714596283,0.6912181762673218,0.6144155872370977,0.07680258903022419,Safe,Growing
53431,SGMGBZ,Mighty Bear Games Pte. Ltd.,Aspire FT Pte Ltd,AspireOS,Key,SG AM-Rachel,2026-Q2,2026-Q3,9577.301381085115,5983.750773432512,0.6247846376903458,-0.053509920070583396,-0.07109854868880477,10034.408300053892,6935.9654050849285,0.6912181762673218,0.5690761632509878,0.1221420130163341,Safe,Growing
123816,SGJNMR,Jingkaida Microelectronics Technology Pte Ltd,Aspire FT Pte Ltd,AspireBA,Key,SG AM - Caroline,2026-Q2,2026-Q3,9571.301598198104,9571.301598198104,1.0,-0.053509920070583396,-0.07109854868880477,10028.122158602935,6931.62030985544,0.6912181762673218,0.9956983663644715,-0.30448019009714966,Risk,Declining
112673,SGMZVJ,STAPLE AI PTE. LTD.,Aspire FT Pte Ltd,AspireBA,Key,SG AM-Rachel,2026-Q2,2026-Q3,9456.300026388624,3114.350202013654,0.3293413061475196,-0.053509920070583396,-0.07109854868880477,9907.631774018886,6848.335165965505,0.6912181762673218,0.4458277658336191,0.24539041043370274,Safe,Growing
114313,SGEXLP,CILLIA EXPRESS LIMITED,AFT HK Limited,AspireBA,Key,SG AM - Caroline,2026-Q2,2026-Q3,9437.548257045984,2898.508782443745,0.3071251879723895,-0.053509920070583396,-0.07109854868880477,9887.98501733395,6834.754970640175,0.6912181762673218,0.5190433148438536,0.17217486142346827,Safe,Growing
102393,SGHYJD,TELEPORT EVERYWHERE PTE. LTD.,Aspire FT Pte Ltd,AspireOS,Key,SG AM-Rachel,2026-Q2,2026-Q3,9394.570765304696,6203.5344859413,0.6603318704939363,-0.053509920070583396,-0.07109854868880477,9842.95628923148,6803.63029532155,0.6912181762673218,0.5917743444858382,0.09944383178148364,Safe,Growing
145037,SGGZDE,OSHIKATSU LABO PTE. LTD.,Aspire FT Pte Ltd,AspireBA,Key,SG AM - Caroline,2026-Q2,2026-Q3,9362.490249999999,9362.490249999999,1.0,-0.053509920070583396,-0.07109854868880477,9809.344630139369,6780.397305622581,0.6912181762673218,1.0,-0.30878182373267815,Risk,Declining
62907,SGAMEN,AMENLI INSURANCE PTE. LTD.,Aspire FT Pte Ltd,AspireBA,Key,SG AM - Caroline,2026-Q2,2026-Q3,9353.598976715093,6386.381470744219,0.6827726404181446,-0.053509920070583396,-0.07109854868880477,9800.028992790385,6773.958167763449,0.6912181762673218,0.7735252445011188,-0.08230706823379697,Risk,Growing
88136,SGPAVT,PAVING THE WAY PTE. LTD.,Aspire FT Pte Ltd,AspireBA,Key,SG AM - Caroline,2026-Q2,2026-Q3,9287.340274409598,9178.645726856463,0.9882964827020893,-0.053509920070583396,-0.07109854868880477,9730.607884911484,6725.973036180938,0.6912181762673218,0.9903959639111342,-0.2991777876438123,Risk,Declining
82348,SGTGMR,TGM RESEARCH PTE. LTD.,Aspire FT Pte Ltd,AspireOS,Key,SG AM-Rachel,2026-Q2,2026-Q3,9267.876604519346,6757.363513067852,0.7291166899840598,-0.053509920070583396,-0.07109854868880477,9710.215249979688,6711.877276254097,0.6912181762673218,0.5813295393780415,0.1098886368892803,Safe,Declining
58450,SGWNTA,WINTERMUTE ASIA PTE. LTD.,Aspire FT Pte Ltd,AspireOS,Key,SG AM - Caroline,2026-Q2,2026-Q3,9211.260940569668,5837.080919184682,0.6336896714624708,-0.053509920070583396,-0.07109854868880477,9650.897424880051,6670.875717368582,0.6912181762673218,0.6456757796169202,0.045542396650401606,Safe,Growing
118593,SGSP45,SGAPH PTE. LTD.,Aspire FT Pte Ltd,AspireBA,Key,SG AM-Rachel,2026-Q2,2026-Q3,9182.190621871023,7058.854583258541,0.768754959894329,-0.053509920070583396,-0.07109854868880477,9620.439633522354,6649.822738373184,0.6912181762673218,0.752972876002188,-0.061754699734866136,Risk,Declining
169925,SGT7PW,SIMULAR PTE LTD,Aspire FT Pte Ltd,AspireBA,Scaled,SG AM-Rachel,2026-Q2,2026-Q3,9176.348484062799,8201.477301718638,0.893762624203158,-0.053509920070583396,-0.07109854868880477,9614.318661258842,6645.591811088216,0.6912181762673218,0.8742395693956948,-0.18302139312837296,Risk,Declining
143847,SGMPR3,MOBIVERSA PTE. LTD.,Aspire FT Pte Ltd,AspireBA,Key,SG AM-Rachel,2026-Q2,2026-Q3,9170.498880532738,6291.362652587857,0.686043663986836,-0.053509920070583396,-0.07109854868880477,9608.18986694837,6641.355477062215,0.6912181762673218,0.6236928210021306,0.06752535526519121,Safe,Growing
80746,SGDGP4,DIGITIBLE PTE. LTD.,Aspire FT Pte Ltd,AspireBA,Key,SG AM-Rachel,2026-Q2,2026-Q3,9061.105646422231,7896.351670906781,0.8714556455949333,-0.053509920070583396,-0.07109854868880477,9493.57549567087,6562.131940373754,0.6912181762673218,0.9650419176880128,-0.273823741420691,Risk,Declining
119967,SGGTTH,GLORY TOP TRADING PTE. LTD.,Aspire FT Pte Ltd,AspireBA,Key,SG AM - Caroline,2026-Q2,2026-Q3,9050.624714942469,8885.624714942469,0.9817692142590349,-0.053509920070583396,-0.07109854868880477,9482.594328675275,6554.541558149773,0.6912181762673218,0.9828617063604608,-0.2916435300931389,Risk,Declining
69527,SGTAPG,TABLEVIBE PTE. LTD.,Aspire FT Pte Ltd,AspireOS,Key,SG AM-Rachel,2026-Q2,2026-Q3,9042.23691999555,5179.523731090649,0.5728144237889752,-0.053509920070583396,-0.07109854868880477,9473.806199756129,6548.467043705478,0.6912181762673218,0.673930964135364,0.01728721213195783,Safe,Growing
174683,SGBTPD,BITASIA PTE LTD,Aspire FT Pte Ltd,AspireBA,Key,SG AM - Caroline,2026-Q2,2026-Q3,9042.105856206503,9042.105856206503,1.0,-0.053509920070583396,-0.07109854868880477,9473.66888053432,6548.372126163414,0.6912181762673218,0.9994426671274573,-0.3082244908601355,Risk,Declining
151475,SGSM5V,SUCCESS MCMOORE PTE LIMITED,AFT HK Limited,AspireBA,Key,Eureka,2026-Q2,2026-Q3,9025.153765116649,-7679.287984075491,-0.8508761383941071,-0.053509920070583396,-0.07109854868880477,9455.907697423676,6536.095273565324,0.6912181762673218,0.12058124960177366,0.5706369266655482,Safe,Growing
85191,SGMP9G,MONETRACK PTE. LTD.,Aspire FT Pte Ltd,AspireBA,Key,SG AM - Caroline,2026-Q2,2026-Q3,9003.330150000002,9003.330150000002,1.0,-0.053509920070583396,-0.07109854868880477,9433.042481435363,6520.290420669924,0.6912181762673218,0.9398798057315603,-0.24866162946423842,Risk,Declining
108293,SGLP5D,LETSVIBE PTE. LTD.,Aspire FT Pte Ltd,AspireOS,Key,SG AM-Rachel,2026-Q2,2026-Q3,8990.32148267157,1321.709701666229,0.14701473181062139,-0.053509920070583396,-0.07109854868880477,9419.412934424256,6510.869430041556,0.6912181762673218,0.5856317618743702,0.10558641439295169,Safe,Growing
83894,SGYUTW,YUKICHI TRADING PTE. LTD.,Aspire FT Pte Ltd,AspireBA,Key,SG AM-Rachel,2026-Q2,2026-Q3,8867.042249632812,8867.042249632812,1.0,-0.053509920070583396,-0.07109854868880477,9290.24981111778,6421.589531508663,0.6912181762673218,0.9778389974010714,-0.28662082113374954,Risk,Declining
110521,SGTTKK,TRY-V Technologies Pte. Ltd.,Aspire FT Pte Ltd,AspireBA,Key,SG AM-Rachel,2026-Q2,2026-Q3,8840.369625000001,8840.369625000001,1.0,-0.053509920070583396,-0.07109854868880477,9262.30415133847,6402.272983521422,0.6912181762673218,0.9948220714696107,-0.3036038952022888,Risk,Declining
151523,SGALJZ,ACP LUCENTE VENTURES SPV PTE LTD,Aspire FT Pte Ltd,AspireBA,Key,SG AM - Caroline,2026-Q2,2026-Q3,8832.21585,5832.21585,0.6603343882271626,-0.053509920070583396,-0.07109854868880477,9253.761211706396,6396.3679483689775,0.6912181762673218,0.7915854963874687,-0.10036732012014682,Risk,Growing
90181,SGWULN,WULOOK INVESTMENT MANAGEMENT PTE. LTD.,Aspire FT Pte Ltd,AspireBA,Key,SG AM-Rachel,2026-Q2,2026-Q3,8799.01117938647,8799.01117938647,1.0,-0.053509920070583396,-0.07109854868880477,9218.971743447311,6372.320835565623,0.6912181762673218,0.9997252361798991,-0.3085070599125772,Risk,Declining
91438,SGECME,ECOMMERCE ENABLERS PTE. LTD. (SGD),Aspire FT Pte Ltd,AspireOS,Key,SG AM-Rachel,2026-Q2,2026-Q3,8775.347842069497,2894.5109191626016,0.3298457190820583,-0.053509920070583396,-0.07109854868880477,9194.17899871346,6355.183639766029,0.6912181762673218,0.44843330232960776,0.24278487393771409,Safe,Growing
81753,SGBANS,BANDLAB SINGAPORE PTE. LTD.,Aspire FT Pte Ltd,AspireOS,Key,SG AM-Rachel,2026-Q2,2026-Q3,8705.147256595958,6676.145607488791,0.7669193191913237,-0.053509920070583396,-0.07109854868880477,9120.627868858077,6304.34376192499,0.6912181762673218,0.5769403058507467,0.11427787041657511,Safe,Declining
113081,SGLPRM,YOBO LABS PTE. LTD.,Aspire FT Pte Ltd,AspireBA,Key,SG AM - Caroline,2026-Q2,2026-Q3,8649.371141087759,7669.781086989306,0.8867443611657462,-0.053509920070583396,-0.07109854868880477,9062.189662297553,6263.950211361892,0.6912181762673218,0.9250493429421103,-0.23383116667478843,Risk,Declining
89907,SGYBUE,MAX NOW PTE. LTD.,Aspire FT Pte Ltd,AspireOS,Key,SG AM-Rachel,2026-Q2,2026-Q3,8607.175434171795,-8590.818038456993,-0.9980995628775196,-0.053509920070583396,-0.07109854868880477,9017.980032167254,6233.3917114497735,0.6912181762673218,0.5032664504610742,0.18795172580624764,Safe,Growing
87181,SGTVE4,TPA VENTURES PTE. LTD. (USD),Aspire FT Pte Ltd,AspireOS,Key,SG AM-Rachel,2026-Q2,2026-Q3,8556.387864,6292.327816691677,0.7353953463430415,-0.053509920070583396,-0.07109854868880477,8964.768465005138,6196.610909039649,0.6912181762673218,0.6677905894542162,0.02342758681310564,Safe,Declining
102316,SGDGLZ,PT Digital Laskar Pelangi,Aspire FT Pte Ltd,AspireBA,Key,Eureka,2026-Q2,2026-Q3,8554.467176085032,1525.2074717389519,0.1782936844977136,-0.053509920070583396,-0.07109854868880477,8962.756106200828,6195.219930056939,0.6912181762673218,0.18641398609344978,0.504804190173872,Safe,Growing
150189,SGENMN,MEDIATROPY PTE LTD (USD),Aspire FT Pte Ltd,AspireBA,Key,SG AM-Rachel,2026-Q2,2026-Q3,8482.008477214984,5326.694255267538,0.6279991666568725,-0.053509920070583396,-0.07109854868880477,8886.839087364115,6142.744706748974,0.6912181762673218,0.6553601722470312,0.0358580040202906,Safe,Growing
80159,SGGP7R,GEONODE PTE. LTD.,Aspire FT Pte Ltd,AspireBA,Key,SG AM-Rachel,2026-Q2,2026-Q3,8472.859221696195,5879.178821450434,0.6938836899822197,-0.053509920070583396,-0.07109854868880477,8877.253154765358,6136.118735900241,0.6912181762673218,0.8189592687981044,-0.12774109253078259,Risk,Growing
79736,SGU5T4,SIGNALPLUS SG PTE. LTD.,Aspire FT Pte Ltd,AspireBA,Scaled,SG AM-Rachel,2026-Q2,2026-Q3,8392.167513964037,5098.201144687149,0.6074951597670166,-0.053509920070583396,-0.07109854868880477,8792.71018074846,6077.681095584064,0.6912181762673218,0.5588054771794791,0.1324126990878427,Safe,Growing
116971,SGMPN4,MANGOSTAR PTE. LTD.,Aspire FT Pte Ltd,AspireBA,Key,SG AM - Caroline,2026-Q2,2026-Q3,8323.630317163439,8323.630317163439,1.0,-0.053509920070583396,-0.07109854868880477,8720.901830037414,6028.045858364811,0.6912181762673218,0.9841239552444953,-0.2929057789771734,Risk,Declining
68432,SGARP6,ARMADA-GROUP PTE. LTD.,Aspire FT Pte Ltd,AspireBA,Key,SG AM - Caroline,2026-Q2,2026-Q3,8299.216252314487,5914.90121912736,0.7127060000970346,-0.053509920070583396,-0.07109854868880477,8695.32252693203,6010.364979122119,0.6912181762673218,0.6920124395872554,-0.0007942633199335969,Risk,Growing
145961,SGGSTQ,GRAPESEED SERVICES PTE. LTD.,Aspire FT Pte Ltd,AspireBA,Key,SG AM-Rachel,2026-Q2,2026-Q3,8278.154163357674,7176.445442581429,0.8669137226686553,-0.053509920070583396,-0.07109854868880477,8673.255183341684,5995.111630130535,0.6912181762673218,0.790840475589243,-0.09962229932192113,Risk,Declining
122962,SGEP8R,ERANOVA PTE. LTD.,Aspire FT Pte Ltd,AspireBA,Key,SG AM - Caroline,2026-Q2,2026-Q3,8225.659133650726,8225.659133650726,1.0,-0.053509920070583396,-0.07109854868880477,8618.254662752104,5957.094270594853,0.6912181762673218,0.9938011874104768,-0.302583011143155,Risk,Declining
81235,SGDEDX,DECUBE DATA PTE. LTD.,Aspire FT Pte Ltd,AspireBA,Key,SG AM-Rachel,2026-Q2,2026-Q3,8200.835117973375,7550.807099453165,0.9207363629228962,-0.053509920070583396,-0.07109854868880477,8592.245842621891,5939.116501377582,0.6912181762673218,0.9176596185190647,-0.2264414422517429,Risk,Declining
70084,SGTSD5,ATTIX APAC PTE. LTD.,Aspire FT Pte Ltd,AspireOS,Key,SG AM-Rachel,2026-Q2,2026-Q3,8117.778405531494,4571.052671590327,0.5630915803855386,-0.053509920070583396,-0.07109854868880477,8505.224986585346,5878.96610397078,0.6912181762673218,0.716573798237134,-0.025355621969812114,Risk,Growing
104000,SGRPBE,RADIAROSE PTE. LTD.,Aspire FT Pte Ltd,AspireBA,Key,SG AM-Rachel,2026-Q2,2026-Q3,8111.08644884904,6183.566868182403,0.7623598770864843,-0.053509920070583396,-0.07109854868880477,8498.213635161173,5874.119730426194,0.6912181762673218,0.8170589424458196,-0.1258407661784977,Risk,Declining
107087,SGFGZX,OSOME LTD.,Aspire FT Pte Ltd,AspireOS,Key,SG AM-Rachel,2026-Q2,2026-Q3,8096.616948921365,5747.559075734043,0.7098716799860139,-0.053509920070583396,-0.07109854868880477,8483.053532706985,5863.640792055784,0.6912181762673218,0.6690197050672433,0.022198471200078562,Safe,Growing
116840,SGRPCV,RPC VENTURES PTE. LTD.,Aspire FT Pte Ltd,AspireBA,Scaled,SG AM-Rachel,2026-Q2,2026-Q3,8026.81488761766,7425.001667414598,0.9250246544078857,-0.053509920070583396,-0.07109854868880477,8409.919947844543,5813.089528903275,0.6912181762673218,0.9189325437302688,-0.22771436746294693,Risk,Declining
107103,SGQUFM,QUANTUM FRONTIER PTE LTD,Aspire FT Pte Ltd,AspireBA,Key,SG AM - Caroline,2026-Q2,2026-Q3,7918.821938890826,7918.821938890826,1.0,-0.053509920070583396,-0.07109854868880477,8296.772694987698,5734.880091133909,0.6912181762673218,0.9986003302660872,-0.30738215399876534,Risk,Declining
106869,SGVPRK,OVERMUGGED PTE. LTD.,Aspire FT Pte Ltd,AspireBA,Scaled,SG AM - Caroline,2026-Q2,2026-Q3,7872.04955164513,3059.402992782003,0.3886412264951556,-0.053509920070583396,-0.07109854868880477,8247.767948022289,5701.0071193080375,0.6912181762673218,0.44004205366760546,0.2511761225997164,Safe,Growing
122923,SGCTQP,HE CHUANG TECHNOLOGY (SINGAPORE) PTE. LTD.,Aspire FT Pte Ltd,AspireBA,Scaled,SG AM-Rachel,2026-Q2,2026-Q3,7794.231852854021,7794.231852854021,1.0,-0.053509920070583396,-0.07109854868880477,8166.2361540889,5644.6508613975975,0.6912181762673218,0.9978838829545463,-0.3066657066872245,Risk,Declining
76663,SGMEPR,MEDIQ PTE. LTD.,Aspire FT Pte Ltd,AspireBA,Key,SG AM-Rachel,2026-Q2,2026-Q3,7778.614275000001,7778.614275000001,1.0,-0.053509920070583396,-0.07109854868880477,8149.873178067844,5633.340474954017,0.6912181762673218,0.983822300646122,-0.2926041243788001,Risk,Declining
50195,SGDEPK,Deliveree Private Limited,Aspire FT Pte Ltd,AspireBA,Key,SG AM-Rachel,2026-Q2,2026-Q3,7778.005098125215,4189.710328140767,0.5386612987886369,-0.053509920070583396,-0.07109854868880477,8149.234926305127,5632.899303734594,0.6912181762673218,0.6024298865420419,0.08878828972527997,Safe,Growing
84886,SGPATN,PATEN INTERNATIONAL PTE. LTD.,Aspire FT Pte Ltd,AspireBA,Key,SG AM - Caroline,2026-Q2,2026-Q3,7751.6996346155065,6954.638841738009,0.8971759961753172,-0.053509920070583396,-0.07109854868880477,8121.673951571691,5613.848657043198,0.6912181762673218,0.8473494417452614,-0.15613126547793954,Risk,Declining
111968,SGDAT7,DASTGYR TECHNOLOGIES PTE. LTD. (USD),Aspire FT Pte Ltd,AspireBA,Scaled,SG AM - Caroline,2026-Q2,2026-Q3,7673.805,4868.805,0.634470774276907,-0.053509920070583396,-0.07109854868880477,8040.061549808999,5557.436681535994,0.6912181762673218,0.6351014329812379,0.05611674328608396,Safe,Growing
79689,SGPSGR,PURPLE STONE CONSULTING PTE. LTD.,Aspire FT Pte Ltd,AspireBA,Key,SG AM-Rachel,2026-Q2,2026-Q3,7555.949625,7555.949625,1.0,-0.053509920070583396,-0.07109854868880477,7916.581155275151,5472.084788421538,0.6912181762673218,0.9869043097396883,-0.2956861334723665,Risk,Declining
108170,SGYNCA,YING CONSERVATION RESEARCH PTE. LTD.,Aspire FT Pte Ltd,AspireBA,Key,SG AM - Caroline,2026-Q2,2026-Q3,7495.303008236508,7495.303008236508,1.0,-0.053509920070583396,-0.07109854868880477,7853.039987423457,5428.163978261195,0.6912181762673218,0.9975979616929617,-0.3063797854256398,Risk,Declining
105103,SGTML4,TIME LOGISTICS & TECHNOLOGY PTE. LTD.,Aspire FT Pte Ltd,AspireBA,Key,SG AM - Caroline,2026-Q2,2026-Q3,7489.620467463263,7486.739762448635,0.9996153736992225,-0.053509920070583396,-0.07109854868880477,7847.086229466852,5424.048632544493,0.6912181762673218,0.992082546862515,-0.3008643705951931,Risk,Declining
104811,SGJK5R,SENSORFLOW PTE. LTD.,Aspire FT Pte Ltd,AspireBA,Key,SG AM-Rachel,2026-Q2,2026-Q3,7311.2749452353655,3861.9253182849166,0.5282150305127928,-0.053509920070583396,-0.07109854868880477,7660.228604619059,5294.889245875558,0.6912181762673218,0.4990069780430775,0.19221119822424437,Safe,Growing
78038,SGZUZG,MATHRIX SINGAPORE PTE. LTD.,Aspire FT Pte Ltd,AspireBA,Key,SG AM-Rachel,2026-Q2,2026-Q3,7205.290528711808,7184.253273066927,0.9970803043179104,-0.053509920070583396,-0.07109854868880477,7549.185747500589,5218.134404690616,0.6912181762673218,0.9890366607241029,-0.29781848445678105,Risk,Declining
124441,SGGSEU,GRAAS SDN. BHD.,Aspire FT Pte Ltd,AspireOS,Key,SG AM-Rachel,2026-Q2,2026-Q3,7172.246132999999,4306.524075181558,0.600442873170086,-0.053509920070583396,-0.07109854868880477,7514.564203768479,5194.203364372548,0.6912181762673218,0.596794221838881,0.09442395442844087,Safe,Growing
115951,SGSKPL,SKINSEOUL PTE. LTD.,Aspire FT Pte Ltd,AspireBA,Key,SG AM-Rachel,2026-Q2,2026-Q3,7129.309972779725,2326.646606358841,0.3263494805587306,-0.053509920070583396,-0.07109854868880477,7469.578779864241,5163.108621702848,0.6912181762673218,0.4821569663590317,0.20906120990829014,Safe,Growing
146431,SGGMW4,GEOSPOT MEDIA NETWORK PTE. LTD.,Aspire FT Pte Ltd,AspireBA,Key,SG AM-Rachel,2026-Q2,2026-Q3,7067.34333646889,3689.27400129119,0.5220170898240936,-0.053509920070583396,-0.07109854868880477,7404.65459036845,5118.231841843934,0.6912181762673218,0.6834331656180581,0.007785010649263735,Safe,Growing
129875,SGJSP7,Clarus Technology Limited,Aspire FT Pte Ltd,AspireBA,Key,SG AM - Caroline,2026-Q2,2026-Q3,6994.10967303671,6994.10967303671,1.0,-0.053509920070583396,-0.07109854868880477,7327.925619341336,5065.195382423703,0.6912181762673218,0.9529337588430579,-0.261715582575736,Risk,Declining
174591,SGZYLU,ZYNK LABS PTE LTD,AFT HK Limited,AspireBA,Key,SG AM-Rachel,2026-Q2,2026-Q3,6950.485219945189,5690.485219945189,0.8187176923440841,-0.053509920070583396,-0.07109854868880477,7282.219051617426,5033.602172038143,0.6912181762673218,0.9467091077576569,-0.2554909314903351,Risk,Declining
72754,SGBUFP,BUFFALOGAMES PTE. LTD.,Aspire FT Pte Ltd,AspireBA,Key,SG AM - Caroline,2026-Q2,2026-Q3,6947.058728332027,6947.058728332027,1.0,-0.053509920070583396,-0.07109854868880477,7278.6290198835295,5031.120676850298,0.6912181762673218,0.8355068677491121,-0.14428869148179024,Risk,Declining
75311,SGPNBU,PEARLMIRROR INNOVATION PTE. LTD.,Aspire FT Pte Ltd,AspireBA,Key,SG AM-Rachel,2026-Q2,2026-Q3,6904.631832458388,6904.631832458388,1.0,-0.053509920070583396,-0.07109854868880477,7234.1771665732895,5000.394747873491,0.6912181762673218,0.9913459385093597,-0.30012776224203785,Risk,Declining
110176,SGE7RP,Tecfinics Pte Ltd,Aspire FT Pte Ltd,AspireBA,Key,SG AM-Rachel,2026-Q2,2026-Q3,6898.168826567428,4246.4432210129025,0.615589923612519,-0.053509920070583396,-0.07109854868880477,7227.405693339334,4995.714182494074,0.6912181762673218,0.7262953458246673,-0.03507716955734541,Risk,Growing
104726,SGBLTH,BLUE TECHNOLOGY COMPANY LIMITED,Aspire FT Pte Ltd,AspireBA,Scaled,SG AM-Rachel,2026-Q2,2026-Q3,6875.600301000001,1837.7330669441449,0.26728328967535553,-0.053509920070583396,-0.07109854868880477,7203.7600136992405,4979.369858936647,0.6912181762673218,0.16275920558097134,0.5284589706863505,Safe,Growing
118608,SGGFNE,GROCK FOUNDATION PTE. LTD.,Aspire FT Pte Ltd,AspireBA,Key,SG AM-Rachel,2026-Q2,2026-Q3,6874.859645068942,4695.091151843251,0.68293629168282,-0.053509920070583396,-0.07109854868880477,7202.984007627552,4978.8334694350015,0.6912181762673218,0.672183605875463,0.01903457039185885,Safe,Growing
103959,SGSQPY,SQUAREX PTE. LTD.,Aspire FT Pte Ltd,AspireOS,Key,SG AM-Rachel,2026-Q2,2026-Q3,6855.246121253838,3295.8282888502563,0.48077461123269527,-0.053509920070583396,-0.07109854868880477,7182.434366519643,4964.629183985445,0.6912181762673218,0.6804975194129261,0.010720656854395716,Safe,Growing
133410,SGNNTX,Nonce Technology Pte. Ltd.,Aspire FT Pte Ltd,AspireBA,Key,SG AM-Rachel,2026-Q2,2026-Q3,6814.816233184129,6814.816233184129,1.0,-0.053509920070583396,-0.07109854868880477,7140.074834510117,4935.349505522283,0.6912181762673218,0.9993968796761379,-0.30817870340881603,Risk,Declining
133261,SGJVHF,CAVAS C A PTE LTD,Aspire FT Pte Ltd,AspireBA,Key,SG AM - Caroline,2026-Q2,2026-Q3,6771.553725000001,6771.553725000001,1.0,-0.053509920070583396,-0.07109854868880477,7094.747486656021,4904.01841880354,0.6912181762673218,0.9951596832643551,-0.30394150699703326,Risk,Declining
127680,SGCAER,CIRCLE ASIA TECHNOLOGIES PTE. LTD.,Aspire FT Pte Ltd,AspireBA,Key,SG AM - Caroline,2026-Q2,2026-Q3,6754.6714848291695,5554.14989031092,0.8222679523031442,-0.053509920070583396,-0.07109854868880477,7077.059488319844,4891.792152851788,0.6912181762673218,0.9143687644969557,-0.22315058822963385,Risk,Declining
66817,SGKRRT,KRRAVE TECHNOLOGIES PTE. LTD.,Aspire FT Pte Ltd,AspireBA,Key,SG AM - Caroline,2026-Q2,2026-Q3,6735.95215974042,4549.957974339878,0.6754736177513496,-0.053509920070583396,-0.07109854868880477,7057.446724393158,4878.2354539388225,0.6912181762673218,0.82508748551279,-0.13386930924546814,Risk,Growing
67575,SGSTNE,STELLAR NATION TRADING PTE.LTD.,Aspire FT Pte Ltd,AspireBA,Key,SG AM - Caroline,2026-Q2,2026-Q3,6678.719569077706,6513.719569077706,0.9752946656475973,-0.053509920070583396,-0.07109854868880477,6997.4825278070775,4836.787111333258,0.6912181762673218,0.993943050103341,-0.3027248738360192,Risk,Declining
146925,SGLT93,LUSTRON TECHNOLOGY PTE. LTD.,Aspire FT Pte Ltd,AspireBA,Key,SG AM-Rachel,2026-Q2,2026-Q3,6667.626980509505,6667.626980509505,1.0,-0.053509920070583396,-0.07109854868880477,6985.860510459095,4828.753761697438,0.6912181762673218,0.9982971012415722,-0.3070789249742504,Risk,Declining
81903,SGCAUA,CAUCHYE ASIA PTE. LTD.,Aspire FT Pte Ltd,AspireBA,Scaled,SG AM-Rachel,2026-Q2,2026-Q3,6610.522685504971,5852.433272031678,0.8853208060028942,-0.053509920070583396,-0.07109854868880477,6926.030732846176,4787.398331929357,0.6912181762673218,0.8155295881234532,-0.12431141185613137,Risk,Declining
69417,SGZAUT,ZAURAC TECHNOLOGIES PTE. LTD.,Aspire FT Pte Ltd,AspireBA,Key,SG AM-Rachel,2026-Q2,2026-Q3,6558.104766073466,3633.949122235913,0.5541157471340104,-0.053509920070583396,-0.07109854868880477,6871.111002863171,4749.43681632941,0.6912181762673218,0.48582107358891324,0.2053971026784086,Safe,Growing
134854,SGQPUW,QUAK PTE. LTD,Aspire FT Pte Ltd,AspireBA,Key,SG AM-Rachel,2026-Q2,2026-Q3,6505.363134264142,6500.707629872411,0.9992843590287512,-0.053509920070583396,-0.07109854868880477,6815.852110308,4711.240865394873,0.6912181762673218,0.7091759483530761,-0.01795777208575422,Risk,Declining
175907,SGGPVM,GLOBAL PHARMACEUTICAL STRATEGIC ADVISORY GPSA PTE LTD,Aspire FT Pte Ltd,AspireBA,Scaled,SG AM-Rachel,2026-Q2,2026-Q3,6482.542649999999,6482.542649999999,1.0,-0.053509920070583396,-0.07109854868880477,6791.942446447614,4694.7140711461325,0.6912181762673218,0.9959477947834218,-0.3047296185160999,Risk,Declining
137290,SGDRDU,SPRING STAR FINANCIAL CONSULTING PTE. LTD.,Aspire FT Pte Ltd,AspireBA,Key,SG AM-Rachel,2026-Q2,2026-Q3,6464.512276726307,6462.8949078047735,0.9997498080516675,-0.053509920070583396,-0.07109854868880477,6773.051516734581,4681.6563171618955,0.6912181762673218,0.9995393932411201,-0.3083212169737982,Risk,Declining
134548,SGGVDN,GREENBOY VENTURES LIMITED,AFT HK Limited,AspireBA,Key,SG AM - Caroline,2026-Q2,2026-Q3,6405.114226494741,6405.114226494741,1.0,-0.053509920070583396,-0.07109854868880477,6710.818507191019,4638.639729801567,0.6912181762673218,0.9997832652787835,-0.3085650890114616,Risk,Declining
124461,SGSHKL,OSHIKATSU LABO PTE. LTD.,Aspire FT Pte Ltd,AspireBA,Key,SG AM - Caroline,2026-Q2,2026-Q3,6376.371066765583,4065.0389746169876,0.637516062357861,-0.053509920070583396,-0.07109854868880477,6680.703489496613,4617.823682192582,0.6912181762673218,0.6736137939920653,0.017604382275256514,Safe,Growing
101612,SGBPFB,BUGUARD PTE. LTD,Aspire FT Pte Ltd,AspireBA,Scaled,SG AM-Rachel,2026-Q2,2026-Q3,6342.434536712812,3222.2219366093314,0.5080418123289547,-0.053509920070583396,-0.07109854868880477,6645.1472314979765,4593.246550383874,0.6912181762673218,0.5493557817711056,0.1418623944962163,Safe,Growing
77547,SGRUGC,RUGGABLE CORPORATION PTE. LTD.,Aspire FT Pte Ltd,AspireBA,Key,SG AM-Rachel,2026-Q2,2026-Q3,6336.0482999999995,6336.0482999999995,1.0,-0.053509920070583396,-0.07109854868880477,6638.456191493356,4588.621581914548,0.6912181762673218,0.9964805836620269,-0.305262407394705,Risk,Declining
78230,SGBPQA,BUNZZ PTE. LTD.,Aspire FT Pte Ltd,AspireBA,Key,SG AM - Caroline,2026-Q2,2026-Q3,6287.4816844142915,5225.00002358453,0.8310163410155943,-0.053509920070583396,-0.07109854868880477,6587.571580980708,4553.449214235923,0.6912181762673218,0.9046678669521963,-0.2134496906848744,Risk,Declining
70476,SGTPSH,SH TECH PTE. LTD.,Aspire FT Pte Ltd,AspireBA,Key,SG AM-Rachel,2026-Q2,2026-Q3,6278.90296348986,3454.438747217126,0.5501659712379317,-0.053509920070583396,-0.07109854868880477,6578.583413539515,4547.236429529236,0.6912181762673218,0.45933350870372713,0.23188466756359472,Safe,Growing
127467,SGSMDV,SMART DATA PTE. LTD.,Aspire FT Pte Ltd,AspireBA,Key,SG AM-Rachel,2026-Q2,2026-Q3,6229.565872655507,6229.565872655507,1.0,-0.053509920070583396,-0.07109854868880477,6526.891554416601,4511.506076938428,0.6912181762673218,0.974825804515391,-0.2836076282480692,Risk,Declining
131533,SGEEV4,TAPPADS PTE. LTD.,Aspire FT Pte Ltd,AspireBA,Key,SG AM-Rachel,2026-Q2,2026-Q3,6220.285259576941,5722.670993224984,0.920001375244678,-0.053509920070583396,-0.07109854868880477,6517.167994804176,4504.784975796301,0.6912181762673218,0.580018568053165,0.11119960821415686,Safe,Declining
91832,SGFRPA,FIRST PAGE DIGITAL PTE. LTD.,Aspire FT Pte Ltd,AspireOS,Key,SG AM-Rachel,2026-Q2,2026-Q3,6210.825412745076,1084.7562964729095,0.1746557380677468,-0.053509920070583396,-0.07109854868880477,6507.256646942201,4497.934072002796,0.6912181762673218,0.01807189183910564,0.6731462844282162,Safe,Growing
107711,SGHAHM,HATI HEALTH PTE. LTD.,Aspire FT Pte Ltd,AspireBA,Scaled,SG AM - Caroline,2026-Q2,2026-Q3,6193.254804800399,5282.045290880315,0.8528706564416171,-0.053509920070583396,-0.07109854868880477,6488.84742630879,4485.209284090067,0.6912181762673218,0.831603093249704,-0.1403849169823822,Risk,Declining
76632,SGLKAP,LKA PACIFIC PTE. LTD.,Aspire FT Pte Ltd,AspireBA,Key,SG AM - Caroline,2026-Q2,2026-Q3,6193.0262528540225,6177.866219711318,0.9975520799486813,-0.053509920070583396,-0.07109854868880477,6488.60796599983,4485.043764772019,0.6912181762673218,0.9869809806163854,-0.29576280434906355,Risk,Declining
74054,SGPL5G,Primal Co Ltd,Aspire FT Pte Ltd,AspireBA,Key,SG AM-Rachel,2026-Q2,2026-Q3,6169.5488426849915,1035.5843623232913,0.16785414764179163,-0.053509920070583396,-0.07109854868880477,6464.0100223735435,4468.0412190387315,0.6912181762673218,0.5081885202307088,0.18302965603661303,Safe,Growing
116405,SG48H5,PENGYUAN PHARMA LIMITED,AFT HK Limited,AspireBA,Key,SG AM - Caroline,2026-Q2,2026-Q3,6166.592404374525,6166.592404374525,1.0,-0.053509920070583396,-0.07109854868880477,6460.912478718947,4465.900140562892,0.6912181762673218,0.9954587827831849,-0.30424060651586304,Risk,Declining
127602,SGY5NA,NARWHAL PROJECT PTE. LTD.,Aspire FT Pte Ltd,AspireBA,Scaled,SG AM-Rachel,2026-Q2,2026-Q3,6163.720903383552,4157.956602435965,0.6745854764698171,-0.053509920070583396,-0.07109854868880477,6457.903926285341,4463.8205744365305,0.6912181762673218,0.6824773968039731,0.008740779463348725,Safe,Growing
74389,SGZERB,ZERO BYTE LABS PTE. LTD.,Aspire FT Pte Ltd,AspireBA,Key,SG AM-Rachel,2026-Q2,2026-Q3,6128.905978137739,5069.297319285106,0.827112919886137,-0.053509920070583396,-0.07109854868880477,6421.427348912274,4438.607301148246,0.6912181762673218,0.919639015952493,-0.22842083968517113,Risk,Declining
146485,SGSYPB,SYNGENTIX PTE. LTD.,Aspire FT Pte Ltd,AspireBA,Key,SG AM-Rachel,2026-Q2,2026-Q3,6125.09619810352,6125.09619810352,1.0,-0.053509920070583396,-0.07109854868880477,6417.435735108384,4435.848225134357,0.6912181762673218,0.990118046890897,-0.29889987062357515,Risk,Declining
137806,SGEQTJ,LEARTBAR PARTNERS PTE. LTD.,Aspire FT Pte Ltd,AspireBA,Key,SG AM - Caroline,2026-Q2,2026-Q3,6111.951402124256,5781.951402124255,0.946007424096123,-0.053509920070583396,-0.07109854868880477,6403.663562277179,4426.328648946734,0.6912181762673218,0.9190507427589653,-0.2278325664916434,Risk,Declining
63053,SGTNAP,Tinai Private Limited,Aspire FT Pte Ltd,AspireBA,Key,SG AM - Caroline,2026-Q2,2026-Q3,6111.355032743867,5755.1179233918765,0.9417089814871961,-0.053509920070583396,-0.07109854868880477,6403.038729286929,4425.896753026741,0.6912181762673218,0.9634396335689296,-0.27222145730160774,Risk,Declining
116571,SGMTDL,MINGRUI TECH PTE. LTD.,Aspire FT Pte Ltd,AspireBA,Scaled,SG AM-Rachel,2026-Q2,2026-Q3,6081.798271232495,5478.917566217869,0.9008713084308779,-0.053509920070583396,-0.07109854868880477,6372.071278098834,4404.4914878928585,0.6912181762673218,0.9159335477527962,-0.22471537148547438,Risk,Declining
72551,SGENDL,Endowus HK Limited,Aspire FT Pte Ltd,AspireBA,Key,SG AM-Rachel,2026-Q2,2026-Q3,6049.223169,2181.370985741846,0.36060348986966695,-0.053509920070583396,-0.07109854868880477,6337.941426357673,4380.900314016059,0.6912181762673218,0.38289551015499773,0.3083226661123241,Safe,Growing
124255,SGMAA3,Hendra Permana,Aspire FT Pte Ltd,AspireBA,Key,SG AM-Rachel,2026-Q2,2026-Q3,5920.479580358588,3192.897040453323,0.5392970277350299,-0.053509920070583396,-0.07109854868880477,6203.053143840689,4287.663081374838,0.6912181762673218,0.5475116130522765,0.14370656321504538,Safe,Growing
124255,SGMAA3,Hendra Permana,Aspire FT Pte Ltd,AspireBA,Key,Eureka,2026-Q2,2026-Q3,5920.479580358588,3192.897040453323,0.5392970277350299,-0.053509920070583396,-0.07109854868880477,6203.053143840689,4287.663081374838,0.6912181762673218,0.5475116130522765,0.14370656321504538,Safe,Growing
124255,SGMAA3,Hendra Permana,Aspire FT Pte Ltd,AspireBA,Key,SG AM-Rachel,2026-Q2,2026-Q3,5920.479580358588,3192.897040453323,0.5392970277350299,-0.053509920070583396,-0.07109854868880477,6203.053143840689,4287.663081374838,0.6912181762673218,0.5475116130522765,0.14370656321504538,Safe,Growing
124255,SGMAA3,Hendra Permana,Aspire FT Pte Ltd,AspireBA,Key,Eureka,2026-Q2,2026-Q3,5920.479580358588,3192.897040453323,0.5392970277350299,-0.053509920070583396,-0.07109854868880477,6203.053143840689,4287.663081374838,0.6912181762673218,0.5475116130522765,0.14370656321504538,Safe,Growing
142469,SGCCHR,CROSSPOINT CAPITAL ASIA PTE. LTD.,Aspire FT Pte Ltd,AspireBA,Key,SG AM - Caroline,2026-Q2,2026-Q3,5901.1878768932875,5901.1878768932875,1.0,-0.053509920070583396,-0.07109854868880477,6182.840682973925,4273.691861036639,0.6912181762673218,0.9968460910284963,-0.30562791476117446,Risk,Declining
86188,SGTSAK,HR TECH SOLUTIONS PTE. LTD.,Aspire FT Pte Ltd,AspireBA,Key,SG AM-Rachel,2026-Q2,2026-Q3,5900.986771038848,5790.649817413226,0.9813019486559198,-0.053509920070583396,-0.07109854868880477,6182.629978708216,4273.546218418364,0.6912181762673218,0.976380868354414,-0.2851626920870921,Risk,Declining
117503,SGKASE,KAIN SUITE PTE. LTD.,Aspire FT Pte Ltd,AspireBA,Key,SG AM-Rachel,2026-Q2,2026-Q3,5889.028045999999,3104.1564603350216,0.527108452547353,-0.053509920070583396,-0.07109854868880477,6170.10048579439,4264.885605176914,0.6912181762673218,0.5745759236012028,0.11664225266611905,Safe,Growing
84818,SGTRS9,EXO TRAVEL (SINGAPORE) CO. PTE. LTD. (USD),Aspire FT Pte Ltd,AspireBA,Key,SG AM - Caroline,2026-Q2,2026-Q3,5849.10936,2885.7699505254377,0.4933691221881065,-0.053509920070583396,-0.07109854868880477,6128.276554585884,4235.976143722642,0.6912181762673218,0.5551590118296882,0.13605916443763366,Safe,Growing
81754,SGSLBW,SWEE LEE HOLDINGS PTE LTD,Aspire FT Pte Ltd,AspireOS,Key,SG AM-Rachel,2026-Q2,2026-Q3,5844.625833701767,4643.520282687408,0.794494021484071,-0.053509920070583396,-0.07109854868880477,6123.579037852271,4232.729134773048,0.6912181762673218,0.5583697643929508,0.13284841187437102,Safe,Declining
85909,SGPSNF,PRASAD SEEDS GLOBAL PTE. LTD.,Aspire FT Pte Ltd,AspireBA,Scaled,SG AM - Caroline,2026-Q2,2026-Q3,5824.694431985765,5823.077063064232,0.9997223255330526,-0.053509920070583396,-0.07109854868880477,6102.6963471179315,4218.294639368103,0.6912181762673218,0.9854732569221906,-0.2942550806548687,Risk,Declining
66536,SGTAZT,TAZAH TECHNOLOGIES PTE. LTD.,Aspire FT Pte Ltd,AspireBA,Key,SG AM-Rachel,2026-Q2,2026-Q3,5820.700998553725,5655.700998553725,0.9716528988448303,-0.053509920070583396,-0.07109854868880477,6098.512314478496,4215.40255995763,0.6912181762673218,0.9356622945873884,-0.24444411832006652,Risk,Declining
81384,SGATPA,ATOP AESTHETIC PTE. LTD.,Aspire FT Pte Ltd,AspireBA,Scaled,SG AM-Rachel,2026-Q2,2026-Q3,5811.716727765092,3749.597553236512,0.6451789942415909,-0.053509920070583396,-0.07109854868880477,6089.09924102657,4208.896072493119,0.6912181762673218,0.6417279670891977,0.04949020917812419,Safe,Growing
121341,SGPAV3,PANACEA VENTURES PTE. LTD.,Aspire FT Pte Ltd,AspireBA,Key,SG AM - Caroline,2026-Q2,2026-Q3,5806.520303482244,5793.260023861266,0.9977163121925147,-0.053509920070583396,-0.07109854868880477,6083.654801003267,4205.132776589415,0.6912181762673218,0.9976893851552389,-0.306471208887917,Risk,Declining
95797,SGNBCC,PALE BLUE DOT AI PTE. LTD.,Aspire FT Pte Ltd,AspireBA,Scaled,SG AM-Rachel,2026-Q2,2026-Q3,5803.6388615087235,4392.6748235266305,0.7568828675161058,-0.053509920070583396,-0.07109854868880477,6080.635833122365,4203.0460111165685,0.6912181762673218,0.7829093616132758,-0.091691185345954,Risk,Declining
63773,SGHEPM,HEXECON PTE. LTD.,Aspire FT Pte Ltd,AspireBA,Scaled,SG AM - Caroline,2026-Q2,2026-Q3,5772.753247279003,2714.1672223552864,0.4701685843985474,-0.053509920070583396,-0.07109854868880477,6048.276105528215,4180.678379224433,0.6912181762673218,0.4689821707393777,0.22223600552794415,Safe,Growing
122552,SGCPS7,CYBROG PTE. LTD.,Aspire FT Pte Ltd,AspireBA,Key,SG AM - Caroline,2026-Q2,2026-Q3,5756.260689746577,2341.795569058602,0.40682583629854696,-0.053509920070583396,-0.07109854868880477,6030.996388663573,4168.73432484684,0.6912181762673218,0.4121274659081158,0.2790907103592061,Safe,Growing
87493,SGGTZ7,GETGO TECHNOLOGIES PTE. LTD.,Aspire FT Pte Ltd,AspireOS,Key,SG AM-Rachel,2026-Q2,2026-Q3,5747.299788282479,2883.053931900211,0.5016362532154915,-0.053509920070583396,-0.07109854868880477,6021.607799910913,4162.244761651502,0.6912181762673218,0.34855872587460857,0.3426594503927133,Safe,Growing
147638,SGBMM2,BEFITTING MOTION PTE. LTD.,Aspire FT Pte Ltd,AspireBA,Key,SG AM-Rachel,2026-Q2,2026-Q3,5708.64,5708.64,1.0,-0.053509920070583396,-0.07109854868880477,5981.102851284551,4134.247004932186,0.6912181762673218,0.9967677269448092,-0.30554955067748735,Risk,Declining
96714,SGATD6,Atas Digital Pte Ltd,Aspire FT Pte Ltd,AspireBA,Key,SG AM-Rachel,2026-Q2,2026-Q3,5689.917421370087,5689.917421370087,1.0,-0.053509920070583396,-0.07109854868880477,5961.486678531186,4120.68794977626,0.6912181762673218,0.9699678155329847,-0.2787496392656629,Risk,Declining
128220,SGNEV8,NEW VISION MEDICAL SUPPLIES PTE. LTD.,Aspire FT Pte Ltd,AspireBA,Key,SG AM - Caroline,2026-Q2,2026-Q3,5685.263389076055,5685.263389076055,1.0,-0.053509920070583396,-0.07109854868880477,5956.6105178652815,4117.317458893587,0.6912181762673218,0.9871454191704817,-0.29592724290315986,Risk,Declining
90238,SGATSP,ATISFY PTE. LTD.,Aspire FT Pte Ltd,AspireBA,Scaled,SG AM-Rachel,2026-Q2,2026-Q3,5622.96027,3452.864248257921,0.6140652045293433,-0.053509920070583396,-0.07109854868880477,5891.333785902903,4072.196995273862,0.6912181762673218,0.6048913430826869,0.08632683318463497,Safe,Growing
81542,SGRCYZ,Rabbit Care Company Limited,Aspire FT Pte Ltd,AspireBA,Scaled,SG AM-Rachel,2026-Q2,2026-Q3,5587.319546657158,5439.48741602832,0.9735414934846022,-0.053509920070583396,-0.07109854868880477,5853.991996613735,4046.385671782844,0.6912181762673218,0.842384918451603,-0.15116674218428117,Risk,Declining
70215,SGFACT,Factail Technologies Pte. Ltd.,Aspire FT Pte Ltd,AspireBA,Key,SG AM-Rachel,2026-Q2,2026-Q3,5583.992700000001,5583.992700000001,1.0,-0.053509920070583396,-0.07109854868880477,5850.506365705689,4043.9763403434436,0.6912181762673218,0.9983604217879648,-0.30714224552064295,Risk,Declining
122161,SGGRN8,PT GRAAS INDONESIA TECHNOLOGY,Aspire FT Pte Ltd,AspireOS,Key,SG AM-Rachel,2026-Q2,2026-Q3,5579.985652184222,1769.2525375913233,0.3170711625214967,-0.053509920070583396,-0.07109854868880477,5846.308068893105,4041.07440127722,0.6912181762673218,0.31463261203943177,0.3765855642278901,Safe,Growing
68077,SGGAP7,GAMAI PTE. LTD.,Aspire FT Pte Ltd,AspireBA,Key,SG AM-Rachel,2026-Q2,2026-Q3,5548.580525580109,5548.580525580109,1.0,-0.053509920070583396,-0.07109854868880477,5813.404033557752,4018.330533980882,0.6912181762673218,0.9715748924016493,-0.28035671613432744,Risk,Declining
103911,SGRNXQ,SUPERBENCH PTE LTD,Aspire FT Pte Ltd,AspireBA,Key,SG AM-Rachel,2026-Q2,2026-Q3,5497.1963479833585,1931.0358341437986,0.35127648930571626,-0.053509920070583396,-0.07109854868880477,5759.5673839993915,3981.117663256809,0.6912181762673218,0.735838516571927,-0.044620340304605155,Risk,Growing
74194,SGBEDH,BEAM DATA PTE LTD,Aspire FT Pte Ltd,AspireBA,Key,SG AM - Caroline,2026-Q2,2026-Q3,5494.775756226137,5494.775756226137,1.0,-0.053509920070583396,-0.07109854868880477,5757.031261865062,3979.364649540327,0.6912181762673218,0.9971597370149718,-0.30594156074765,Risk,Declining
132801,SGPZYU,AUMENT CAPITAL GROUP PTE LTD,Aspire FT Pte Ltd,AspireBA,Key,SG AM - Caroline,2026-Q2,2026-Q3,5494.0284586334255,2462.0910234264834,0.4481394739696888,-0.053509920070583396,-0.07109854868880477,5756.24829713747,3978.823450089239,0.6912181762673218,0.8345063579169257,-0.14328818164960389,Risk,Growing
59305,SGHMPF,Princep Pte. Ltd.,Aspire FT Pte Ltd,AspireBA,Scaled,SG AM - Caroline,2026-Q2,2026-Q3,5474.937907621455,4688.8567572387,0.8564219058469172,-0.053509920070583396,-0.07109854868880477,5736.246589359385,3964.9979061166396,0.6912181762673218,0.8486631342756831,-0.15744495800836122,Risk,Declining
93238,CNGREP,GREATTEC PTE. LTD.,Aspire FT Pte Ltd,AspireBA,Key,SG AM-Rachel,2026-Q2,2026-Q3,5468.835749999999,5468.835749999999,1.0,-0.053509920070583396,-0.07109854868880477,5729.853187016852,3960.57867020929,0.6912181762673218,0.9824876388097439,-0.29126946254242203,Risk,Declining
86112,SGANPH,ANPRI HOLDINGS PTE. LTD.,Aspire FT Pte Ltd,AspireBA,Key,SG AM - Caroline,2026-Q2,2026-Q3,5465.405622657533,5040.788103168998,0.9223081416449258,-0.053509920070583396,-0.07109854868880477,5726.259346027003,3958.094541994492,0.6912181762673218,0.9725674909135612,-0.28134931464623936,Risk,Declining
128829,SGLNDN,LINDER INTERNATION PTE. LTD.,Aspire FT Pte Ltd,AspireBA,Key,SG AM-Rachel,2026-Q2,2026-Q3,5403.846299999999,5403.846299999999,1.0,-0.053509920070583396,-0.07109854868880477,5661.7619105134445,3913.512742244891,0.6912181762673218,0.9988373636167692,-0.3076191873494474,Risk,Declining
87708,SGRDPE,RIDMIK PTE. LTD.,Aspire FT Pte Ltd,AspireBA,Key,SG AM-Rachel,2026-Q2,2026-Q3,5346.801071163582,4882.683275540749,0.9131971080566439,-0.053509920070583396,-0.07109854868880477,5601.994018187833,3872.20008871224,0.6912181762673218,0.9535963936477183,-0.26237821738039646,Risk,Declining
97373,SGPPJD,AP PREMIER PTE. LTD.,Aspire FT Pte Ltd,AspireBA,Key,SG AM-Rachel,2026-Q2,2026-Q3,5321.935725,5321.935725,1.0,-0.053509920070583396,-0.07109854868880477,5575.941894943562,3854.192387595444,0.6912181762673218,0.9499283019151948,-0.258710125647873,Risk,Declining
73402,SGFVPM,S FIVE PTE. LTD.,Aspire FT Pte Ltd,AspireBA,Scaled,SG AM-Rachel,2026-Q2,2026-Q3,5284.383824999999,4765.383825000001,0.9017860895068502,-0.053509920070583396,-0.07109854868880477,5536.597712062673,3826.9969732577874,0.6912181762673218,0.8649682540049416,-0.17375007773761975,Risk,Declining
131506,SGFUPJ,1MX AI FUND I PTE. LTD.,Aspire FT Pte Ltd,AspireBA,Scaled,SG AM - Caroline,2026-Q2,2026-Q3,5247.128775,4917.128775000001,0.9371084617605941,-0.053509920070583396,-0.07109854868880477,5497.564547284416,3800.0165402858192,0.6912181762673218,0.9501291401431267,-0.2589109638758048,Risk,Declining
70049,SGTAPB,TANKARD PTE. LTD.,Aspire FT Pte Ltd,AspireBA,Key,SG AM-Rachel,2026-Q2,2026-Q3,5230.591764937198,5230.591764937198,1.0,-0.053509920070583396,-0.07109854868880477,5480.238256252166,3788.0402929970305,0.6912181762673218,0.9936610437322677,-0.30244286746494586,Risk,Declining
143025,SG5TP2,HANGCHENGDA MARINE SUPPLY & TECHNICAL SERVICES PTE. LTD.,Aspire FT Pte Ltd,AspireBA,Scaled,SG AM - Caroline,2026-Q2,2026-Q3,5203.616469614798,4198.819077125795,0.8069040256221297,-0.053509920070583396,-0.07109854868880477,5451.975479869868,3768.5045482498067,0.6912181762673218,0.7634343259878742,-0.07221614972055235,Risk,Declining
123356,SGAPG5,APPFACTORY GLOBAL PTE. LTD.,Aspire FT Pte Ltd,AspireBA,Key,SG AM-Rachel,2026-Q2,2026-Q3,5191.973951360158,3022.3568281338335,0.5821209536966295,-0.053509920070583396,-0.07109854868880477,5439.777285706466,3760.0729347264255,0.6912181762673218,0.6540437968701442,0.037174379397177604,Safe,Growing
80966,SGARLC,"AIRR LABS (VIETNAM) CO., LTD.",Aspire FT Pte Ltd,AspireBA,Key,SG AM-Rachel,2026-Q2,2026-Q3,5172.291667638434,493.03881791680664,0.09532308879671482,-0.053509920070583396,-0.07109854868880477,5419.155602908497,3745.8188527512502,0.6912181762673218,0.3617881580868077,0.32943001818051415,Safe,Growing
105899,SGPP3P,PROCREDIT PTE. LTD.,Aspire FT Pte Ltd,AspireBA,Key,SG AM - Caroline,2026-Q2,2026-Q3,5158.24160820323,5158.24160820323,1.0,-0.053509920070583396,-0.07109854868880477,5404.434960067361,3735.643676853118,0.6912181762673218,0.9906205896198007,-0.29940241335247886,Risk,Declining
142788,SGUTAL,UTAK LIMITED,AFT HK Limited,AspireBA,Key,SG AM - Caroline,2026-Q2,2026-Q3,5145.93663741378,5145.93663741378,1.0,-0.053509920070583396,-0.07109854868880477,5391.542695732292,3726.732309411475,0.6912181762673218,0.9561221460831018,-0.2649039698157799,Risk,Declining
107250,SGQELS,QUANTUM EMPIRE PTE. LTD.,Aspire FT Pte Ltd,AspireBA,Key,SG AM - Caroline,2026-Q2,2026-Q3,5112.786385478691,5112.786385478691,1.0,-0.053509920070583396,-0.07109854868880477,5356.810243454734,3702.7246070908895,0.6912181762673218,0.9803885657359439,-0.28917038946862206,Risk,Declining
72462,SGRPS6,REWIND PTE LTD,Aspire FT Pte Ltd,AspireBA,Key,SG AM-Rachel,2026-Q2,2026-Q3,5100.355127999999,20.080872948563687,0.003937151912878269,-0.053509920070583396,-0.07109854868880477,5343.785664999821,3693.721781724634,0.6912181762673218,0.4115622052459921,0.2796559710213298,Safe,Growing
79131,SGWSAF,WHITE STORM CONSULTING PTE. LTD.,Aspire FT Pte Ltd,AspireBA,Key,SG AM-Rachel,2026-Q2,2026-Q3,5082.417562883766,5082.417562883766,1.0,-0.053509920070583396,-0.07109854868880477,5324.991973006315,3680.731240219553,0.6912181762673218,0.9997102986287286,-0.3084921223614068,Risk,Declining
130037,SGXT7U,SOCMA ASIA PTE. LTD.,Aspire FT Pte Ltd,AspireBA,Key,SG AM - Caroline,2026-Q2,2026-Q3,5081.458701170436,4751.458701170436,0.9350580179026173,-0.053509920070583396,-0.07109854868880477,5323.987346593091,3680.0368241823744,0.6912181762673218,0.965919064377962,-0.2747008881106402,Risk,Declining
83560,SGZAPG,IZANAGI PTE. LTD.,Aspire FT Pte Ltd,AspireBA,Key,SG AM-Rachel,2026-Q2,2026-Q3,5078.013494936545,3769.938914267388,0.7424042724633401,-0.053509920070583396,-0.07109854868880477,5320.3777070241595,3677.5417757025552,0.6912181762673218,0.786314644400939,-0.09509646813361716,Risk,Declining
130416,SGWNAT,WINAI TECH PTE. LTD.,Aspire FT Pte Ltd,AspireBA,Scaled,SG AM-Rachel,2026-Q2,2026-Q3,5027.069306201123,5027.069306201123,1.0,-0.053509920070583396,-0.07109854868880477,5267.002046183433,3640.647548759165,0.6912181762673218,0.9594085488552752,-0.2681903725879533,Risk,Declining
67502,SGQAPF,Qapita Fintech Pte Ltd,Aspire FT Pte Ltd,AspireOS,Key,SG AM-Rachel,2026-Q2,2026-Q3,5015.839455992629,3104.8042177817533,0.6189999191605537,-0.053509920070583396,-0.07109854868880477,5255.2362159503955,3632.514793043214,0.6912181762673218,0.5867634627586144,0.1044547135087075,Safe,Growing
76748,SGRUPG,DrVishys SIA Limited,Aspire FT Pte Ltd,AspireBA,Scaled,SG AM - Caroline,2026-Q2,2026-Q3,4980.345143999999,2917.4935923509474,0.5858014872454688,-0.053509920070583396,-0.07109854868880477,5218.047825954966,3606.8095019322554,0.6912181762673218,0.4632946231104663,0.22792355315685553,Safe,Growing
111310,SGCNMZ,KC CONNEKT MEDIA PTE. LTD.,Aspire FT Pte Ltd,AspireBA,Scaled,SG AM-Rachel,2026-Q2,2026-Q3,4970.552219334262,4140.32324746511,0.8329704758679007,-0.053509920070583396,-0.07109854868880477,5207.787503068841,3599.717380258994,0.6912181762673218,0.8423978371265614,-0.1511796608592395,Risk,Declining
70447,SGWPYJ,WEBAFFINITI PTE. LTD.,Aspire FT Pte Ltd,AspireBA,Scaled,SG AM-Rachel,2026-Q2,2026-Q3,4953.240208984956,1962.2874531782215,0.39616238469895326,-0.053509920070583396,-0.07109854868880477,5189.649222416759,3587.179870986037,0.6912181762673218,0.4508183685630901,0.24039980770423175,Safe,Growing
77915,SGURTT,URTON TRADING PTE. LTD.,Aspire FT Pte Ltd,AspireBA,Key,SG AM - Caroline,2026-Q2,2026-Q3,4949.050855,3280.0726854145987,0.6627680299750321,-0.053509920070583396,-0.07109854868880477,5185.259918298009,3584.1459041979924,0.6912181762673218,0.7279936259768276,-0.03677544970950575,Risk,Growing
126503,SGWLH7,WORDTECH LABORATORY PTE. LTD.,Aspire FT Pte Ltd,AspireBA,Scaled,SG AM-Rachel,2026-Q2,2026-Q3,4929.073244802981,3270.2750353406796,0.66346651245013,-0.053509920070583396,-0.07109854868880477,5164.328813637137,3569.6779442070433,0.6912181762673218,0.695279650596475,-0.0040614743291531585,Risk,Growing
77290,SGGLDA,GOLDIE AGENCY PTE. LTD.,Aspire FT Pte Ltd,AspireBA,Key,SG AM-Rachel,2026-Q2,2026-Q3,4920.3916196909,1918.6533282982107,0.38993915049768757,-0.053509920070583396,-0.07109854868880477,5155.232830581339,3563.3906353878565,0.6912181762673218,0.45806707780902517,0.23315109845829668,Safe,Growing
110948,SGRML3,RUYI MANAGEMENT PTE LTD,Aspire FT Pte Ltd,AspireBA,Key,SG AM-Rachel,2026-Q2,2026-Q3,4887.583980482307,4887.583980482307,1.0,-0.053509920070583396,-0.07109854868880477,5120.859343303383,3539.6310561996397,0.6912181762673218,0.9937532776645073,-0.3025351013971854,Risk,Declining
68726,SGKNPS,SYLNDR PTE LTD,Aspire FT Pte Ltd,AspireBA,Key,SG AM-Rachel,2026-Q2,2026-Q3,4882.066778686466,1803.1054772245075,0.3693324075566287,-0.053509920070583396,-0.07109854868880477,5115.078815648422,3535.635450416115,0.6912181762673218,0.4924763828754631,0.19874179339185877,Safe,Growing
139287,SGSWRL,SWRM LABS PTE. LTD.,Aspire FT Pte Ltd,AspireBA,Key,SG AM-Rachel,2026-Q2,2026-Q3,4881.990099884568,3961.551125295222,0.8114623430696615,-0.053509920070583396,-0.07109854868880477,5114.998477108828,3535.579918957293,0.6912181762673218,0.9251951940071065,-0.23397701773978463,Risk,Declining
76662,SGMAL9,J S MARITIME LANKA (PVT) LTD,Aspire FT Pte Ltd,AspireBA,Key,SG AM - Caroline,2026-Q2,2026-Q3,4879.3095,4714.3095,0.9661837397279267,-0.053509920070583396,-0.07109854868880477,5112.189937139107,3533.6386050814485,0.6912181762673218,0.9782384976528612,-0.28702032138553935,Risk,Declining
110161,SGJPTD,JATRI PTE. LTD.,Aspire FT Pte Ltd,AspireBA,Key,SG AM - Caroline,2026-Q2,2026-Q3,4853.676443509998,3551.9446094151726,0.7318049834501409,-0.053509920070583396,-0.07109854868880477,5085.333462171429,3515.074921433321,0.6912181762673218,0.6768330799484887,0.014385096318833113,Safe,Declining
116786,SGGHYA,GREAT PRO HOLDING PTE. LTD.,Aspire FT Pte Ltd,AspireBA,Key,SG AM - Caroline,2026-Q2,2026-Q3,4818.297,4818.297,1.0,-0.053509920070583396,-0.07109854868880477,5048.265423119306,3489.452819081907,0.6912181762673218,0.99899238196558,-0.3077742056982582,Risk,Declining
96049,SGSRLS,SIRLINE SUPPLY CHAIN MANAGEMENT PTE. LTD,Aspire FT Pte Ltd,AspireBA,Scaled,SG AM - Caroline,2026-Q2,2026-Q3,4794.998924376192,4794.998924376192,1.0,-0.053509920070583396,-0.07109854868880477,5023.855373345104,3472.5801489943883,0.6912181762673218,0.9870643147810954,-0.2958461385137735,Risk,Declining
133221,SGMBS6,MAZON INTERNATIONAL PTE. LTD.,Aspire FT Pte Ltd,AspireBA,Key,SG AM-Rachel,2026-Q2,2026-Q3,4772.97375,4772.97375,1.0,-0.053509920070583396,-0.07109854868880477,5000.77897804579,3456.629325120772,0.6912181762673218,0.9909516854440553,-0.29973350917673347,Risk,Declining
78894,SGDAGC,Dagaz Company Limited,Aspire FT Pte Ltd,AspireBA,Key,SG AM - Caroline,2026-Q2,2026-Q3,4762.85145,4762.85145,1.0,-0.053509920070583396,-0.07109854868880477,4990.173559348595,3449.2986669503457,0.6912181762673218,0.9623780985025845,-0.27115992223526264,Risk,Declining
76351,SGCVLP,CIVILS.AI PTE. LTD.,Aspire FT Pte Ltd,AspireBA,Key,SG AM-Rachel,2026-Q2,2026-Q3,4754.562796319868,2683.0658645820267,0.5643138979379506,-0.053509920070583396,-0.07109854868880477,4981.48930352592,3443.295951478358,0.6912181762673218,0.8202239703478036,-0.12900579408048174,Risk,Growing
145093,SGQCR4,CREDSHIELDS TECHNOLOGIES PTE. LTD.,Aspire FT Pte Ltd,AspireBA,Key,SG AM-Rachel,2026-Q2,2026-Q3,4745.080709616628,4666.062133050438,0.9833472639556906,-0.053509920070583396,-0.07109854868880477,4971.554654324556,3436.4289413755355,0.6912181762673218,0.9643786023947193,-0.27316042612739744,Risk,Declining
114067,SGWP8H,WAVESHORE PTE LTD,Aspire FT Pte Ltd,AspireBA,Key,SG AM-Rachel,2026-Q2,2026-Q3,4700.34586343508,4670.025797149671,0.9935493967536997,-0.053509920070583396,-0.07109854868880477,4924.684696497783,3404.0315746047872,0.6912181762673218,0.9976323965988393,-0.30641422033151744,Risk,Declining
96490,SGWPEK,TOCESS PTE. LTD.,Aspire FT Pte Ltd,AspireBA,Scaled,SG AM-Rachel,2026-Q2,2026-Q3,4659.426758404117,4651.846741832766,0.9983731868823393,-0.053509920070583396,-0.07109854868880477,4881.812598104347,3374.397600940523,0.6912181762673218,0.9952523200180211,-0.30403414375069926,Risk,Declining
91447,SGXKNJ,WPC PACIFIC PTE. LTD.,Aspire FT Pte Ltd,AspireBA,Key,SG AM-Rachel,2026-Q2,2026-Q3,4651.205659104595,4488.614088974897,0.9650431346093179,-0.053509920070583396,-0.07109854868880477,4873.199120908191,3368.443808941676,0.6912181762673218,0.7736348967200856,-0.08241672045276371,Risk,Declining
98596,SGCRRP,CIRRASCALE PTE. LTD.,Aspire FT Pte Ltd,AspireBA,Scaled,SG AM-Rachel,2026-Q2,2026-Q3,4647.377569592109,2514.1419673671753,0.5409807853395129,-0.053509920070583396,-0.07109854868880477,4869.188323748428,3365.6714730435265,0.6912181762673218,0.554148735707108,0.13706944056021386,Safe,Growing
87199,SGPLYN,POLYTECH NEW ENERGY TECHNOLOGY PTE. LTD.,Aspire FT Pte Ltd,AspireBA,Key,SG AM - Caroline,2026-Q2,2026-Q3,4644.39615,4644.39615,1.0,-0.053509920070583396,-0.07109854868880477,4866.064606501722,3363.5123029050833,0.6912181762673218,0.9989028326026023,-0.3076846563352804,Risk,Declining
129904,SGGLDF,GOLD FORTUNE CAPITAL MANAGEMENT PTE. LTD.,Aspire FT Pte Ltd,AspireBA,Scaled,SG AM - Caroline,2026-Q2,2026-Q3,4641.708596003562,4476.708596003562,0.9644527448056385,-0.053509920070583396,-0.07109854868880477,4863.248780513207,3361.565952800616,0.6912181762673218,0.9839667960467453,-0.29274861977942346,Risk,Declining
68139,SGDEKB,DEKANG BIOTECH PTE. LTD.,Aspire FT Pte Ltd,AspireBA,Key,SG AM - Caroline,2026-Q2,2026-Q3,4617.987144918001,4617.987144918001,1.0,-0.053509920070583396,-0.07109854868880477,4838.395148347848,3344.3866705016576,0.6912181762673218,0.9750354715218968,-0.283817295254575,Risk,Declining
75879,SGBUGP,BOUGHTNEX PTE. LTD.,Aspire FT Pte Ltd,AspireBA,Scaled,SG AM-Rachel,2026-Q2,2026-Q3,4610.825091643437,1651.259650102792,0.3581267164298859,-0.053509920070583396,-0.07109854868880477,4830.891263488837,3339.199848894492,0.6912181762673218,0.4147135548728939,0.27650462139442794,Safe,Growing
94789,SGNVTG,NOVOTEC GROUP PTE. LTD.,Aspire FT Pte Ltd,AspireBA,Scaled,SG AM - Caroline,2026-Q2,2026-Q3,4602.5891557267,3350.4824532250004,0.7279560134226222,-0.053509920070583396,-0.07109854868880477,4822.262241551109,3333.2353120877247,0.6912181762673218,0.7886003850905928,-0.09738220882327098,Risk,Declining
147723,SGHMYE,OPTIMAL AGILITY PTE LTD,Aspire FT Pte Ltd,AspireBA,Key,SG AM-Rachel,2026-Q2,2026-Q3,4597.897945011671,4597.897945011671,1.0,-0.053509920070583396,-0.07109854868880477,4817.347128006791,3329.8378962674747,0.6912181762673218,0.9830204590307298,-0.2918022827634079,Risk,Declining
83001,SGANU7,ACCTIVA INTERNATIONAL PTE. LTD.,Aspire FT Pte Ltd,AspireBA,Key,SG AM - Caroline,2026-Q2,2026-Q3,4575.110638271883,3878.44580292517,0.8477272157051359,-0.053509920070583396,-0.07109854868880477,4793.472225172763,3313.3351294719782,0.6912181762673218,0.8797147736745707,-0.1884965974072489,Risk,Declining
99490,SGBRLG,X HOLDINGS LABO PTE. LTD.,Aspire FT Pte Ltd,AspireBA,Key,SG AM-Rachel,2026-Q2,2026-Q3,4522.928400000001,4522.928400000001,1.0,-0.053509920070583396,-0.07109854868880477,4738.799424976155,3275.5442962286515,0.6912181762673218,0.9995739184917168,-0.308355742224395,Risk,Declining
87485,SGZFEM,ORIENTAL OCEAN CHEMICAL TECHNOLOGY PTE. LTD.,Aspire FT Pte Ltd,AspireBA,Scaled,SG AM - Caroline,2026-Q2,2026-Q3,4483.266858777133,4483.266858777133,1.0,-0.053509920070583396,-0.07109854868880477,4697.244911590404,3246.821061270476,0.6912181762673218,0.9829128358803677,-0.29169465961304586,Risk,Declining
141908,SGX7WK,NOVARTIS TECH PTE. LTD.,Aspire FT Pte Ltd,AspireBA,Scaled,SG AM-Rachel,2026-Q2,2026-Q3,4455.150318427011,2355.7594526672465,0.5287721590276215,-0.053509920070583396,-0.07109854868880477,4667.786420661501,3226.458816895013,0.6912181762673218,0.5078824582759696,0.1833357179913523,Safe,Growing
136278,SGLVHM,LOVEBONITO HOLDINGS PTE. LTD. (USD),Aspire FT Pte Ltd,AspireOS,Key,SG AM-Rachel,2026-Q2,2026-Q3,4442.2848,-20.23548452110652,-0.004555197478807869,-0.053509920070583396,-0.07109854868880477,4654.3068547846815,3217.1414959527624,0.6912181762673218,0.002017317945850353,0.6892008583214715,Safe,Growing
136259,SGWN4U,OLD WALL INTERNATIONAL PTE.LTD.,Aspire FT Pte Ltd,AspireBA,Key,SG AM-Rachel,2026-Q2,2026-Q3,4419.2045853162645,4419.2045853162645,1.0,-0.053509920070583396,-0.07109854868880477,4630.125064051135,3200.4266026630426,0.6912181762673218,0.9934923852214069,-0.3022742089540851,Risk,Declining
151476,SGWRGT,NF WORLDS GAMING PTE LTD,Aspire FT Pte Ltd,AspireBA,Scaled,SG AM - Caroline,2026-Q2,2026-Q3,4397.440914900782,3549.7917369900642,0.8072403485767259,-0.053509920070583396,-0.07109854868880477,4607.322653813941,3184.6651622443896,0.6912181762673218,0.8157980086433971,-0.12457983237607528,Risk,Declining
130053,SGPT8B,PLVR TECH PTE. LTD.,Aspire FT Pte Ltd,AspireBA,Key,SG AM - Caroline,2026-Q2,2026-Q3,4360.84282311849,2513.71024036116,0.5764276178529122,-0.053509920070583396,-0.07109854868880477,4568.977802656635,3158.1605041581947,0.6912181762673218,0.7065171712234912,-0.015298994956169376,Risk,Growing
117533,SGCL5A,PT COVE LIVING MANAGEMENT,Aspire FT Pte Ltd,AspireOS,Key,SG AM-Rachel,2026-Q2,2026-Q3,4349.959608851838,597.5294812425121,0.1373643746085791,-0.053509920070583396,-0.07109854868880477,4557.57515265919,3150.2787852223464,0.6912181762673218,0.18120378581697827,0.5100143904503436,Safe,Growing
77673,SGMC96,MAIORA CAPITAL PTE. LTD.,Aspire FT Pte Ltd,AspireBA,Scaled,SG AM - Caroline,2026-Q2,2026-Q3,4339.103244136696,4191.543279682021,0.9659929814636081,-0.053509920070583396,-0.07109854868880477,4546.200633692795,3142.416510966477,0.6912181762673218,0.9486982241937275,-0.25748004792640566,Risk,Declining
127109,SGHMPS,IVY HOMES PTE. LTD.,Aspire FT Pte Ltd,AspireBA,Key,SG AM - Caroline,2026-Q2,2026-Q3,4304.0446626706,4304.0446626706,1.0,-0.053509920070583396,-0.07109854868880477,4509.468770837744,3117.0267797129072,0.6912181762673218,0.9999857897604516,-0.30876761349312976,Risk,Declining
115326,SGGCY2,AC GLOBAL CONSULTING PTE. LTD.,Aspire FT Pte Ltd,AspireBA,Key,SG AM-Rachel,2026-Q2,2026-Q3,4301.110577450246,4282.910320934287,0.9957684750977157,-0.053509920070583396,-0.07109854868880477,4506.394647144995,3114.901889540385,0.6912181762673218,0.9908740268893507,-0.2996558506220288,Risk,Declining
76361,SGSHUW,SHUNG WAY RESOURCES HOLDING PTE. LTD.,Aspire FT Pte Ltd,AspireBA,Key,SG AM - Caroline,2026-Q2,2026-Q3,4274.225357643592,4274.225357643592,1.0,-0.053509920070583396,-0.07109854868880477,4478.226245416565,3095.431378269294,0.6912181762673218,0.9999858120813727,-0.30876763581405087,Risk,Declining
