Gagan-D-Aspire/High-Value-Data-Projects/csm_targets_2026_Q3.csv
business_id,business_ref_code,company_name,business_group,business_unit,account_motion,account_manager,base_quarter,target_quarter,base_revenue,base_gp,base_take_rate,avg_rev_g,avg_gp_g,target_revenue,target_gp,target_take_rate,hist_avg_tr,tr_delta,guardrail,gp_trend
77441,SGGZ7B,COBO SINGAPORE PTE. LTD.,Aspire FT Pte Ltd,AspireOS,Key,SG AM-Rachel,2026-Q2,2026-Q3,5179.353806217792,-11.998985035355698,-0.002316695380213448,-0.5859603942176421,-0.5987538230675717,2795.9903518667115,1919.5116646805618,0.6865229929706379,0.10413989069339209,0.5823831022772458,Safe,Growing
84093,SGGPGP,GERO PTE. LTD.,Aspire FT Pte Ltd,AspireBA,Key,SG AM - Caroline,2026-Q2,2026-Q3,3943.5989390216114,3891.234151843082,0.9867215738749741,-0.5859603942176421,-0.5987538230675717,2128.8880809608418,1461.5306170407548,0.6865229929706379,0.9672472629446022,-0.28072426997396427,Risk,Declining
86951,SGEVMG,EVERY MOMENT LOGISTICS PTE. LTD.,Aspire FT Pte Ltd,AspireBA,Key,SG AM - Caroline,2026-Q2,2026-Q3,2905.948263103681,2905.948263103681,1.0,-0.5859603942176421,-0.5987538230675717,1568.729152449035,1076.9686328996036,0.6865229929706379,0.9998467801600585,-0.31332378718942056,Risk,Declining
89483,SGFBPZ,FIBONEX PTE. LTD.,Aspire FT Pte Ltd,AspireBA,Key,SG AM - Caroline,2026-Q2,2026-Q3,2344.4225978031604,2344.4225978031604,1.0,-0.5859603942176421,-0.5987538230675717,1265.5986073565202,868.8625438218695,0.6865229929706379,0.9999977089684546,-0.31347471599781673,Risk,Declining
150792,SGEZRZ,LENDTECH INVESTMENT HOLDINGS PTE LTD,Aspire FT Pte Ltd,AspireOS,Key,SG AM-Rachel,2026-Q2,2026-Q3,2099.0009864231642,1326.2211862451245,0.6318344749828311,-0.5859603942176421,-0.5987538230675717,1133.1117213024575,777.9072502786744,0.6865229929706379,0.5535323962749635,0.13299059669567437,Safe,Declining
115418,SGFYWD,"Intrepid Philippines, Inc.",Aspire FT Pte Ltd,AspireOS,Key,SG AM-Rachel,2026-Q2,2026-Q3,2015.7573950469389,1079.327479256428,0.5354451294131528,-0.5859603942176421,-0.5987538230675717,1088.1740153548067,747.0564818942588,0.6865229929706379,0.3888112680765157,0.2977117248941222,Safe,Declining
147170,SGAVNH,AVNM HOLDINGS PTE LTD,Aspire FT Pte Ltd,AspireBA,Key,SG AM - Caroline,2026-Q2,2026-Q3,1832.4080674999998,1832.4080674999998,1.0,-0.5859603942176421,-0.5987538230675717,989.19584741674,679.1056938026668,0.6865229929706379,0.999365103153095,-0.3128421101824571,Risk,Declining
130625,SGTAZP,TAZAPAY PTE. LTD.,Aspire FT Pte Ltd,AspireOS,Key,SG AM-Rachel,2026-Q2,2026-Q3,1786.0155414227945,156.10580708121324,0.08740450654581347,-0.5859603942176421,-0.5987538230675717,964.1515928313761,661.9122371880042,0.6865229929706379,0.484409707036269,0.2021132859343689,Safe,Growing
176080,SGPPY2,PERSISTENCE AI PTE LTD,Aspire FT Pte Ltd,AspireBA,Key,SG AM-Rachel,2026-Q2,2026-Q3,1756.9599078123747,1751.4599078123747,0.996869592768996,-0.5859603942176421,-0.5987538230675717,948.4663791383897,651.1439773381111,0.6865229929706379,0.9967862428509398,-0.31026324988030185,Risk,Declining
134985,SGUUDK,HAPPY SUPPLIER PTE. LTD.,Aspire FT Pte Ltd,AspireBA,Key,SG AM-Rachel,2026-Q2,2026-Q3,1721.7810349289928,1493.8355268254688,0.8676106290641513,-0.5859603942176421,-0.5987538230675717,929.4756337961038,638.1063940069818,0.6865229929706379,0.7373425730466969,-0.05081958007605902,Risk,Declining
65951,SGATAG,Atlasv Global Pte. Ltd.,Aspire FT Pte Ltd,AspireBA,Key,SG AM - Caroline,2026-Q2,2026-Q3,1520.440661569378,545.62163250192,0.35885756431871324,-0.5859603942176421,-0.5987538230675717,820.7852908658894,563.487974471526,0.6865229929706379,0.4298022528694,0.2567207401012379,Safe,Growing
99150,SGHLWJ,HERITAGE LINE PTE. LTD.,Aspire FT Pte Ltd,AspireBA,Key,SG AM - Caroline,2026-Q2,2026-Q3,1512.4786975000002,1512.4786975000002,1.0,-0.5859603942176421,-0.5987538230675717,816.4871533852706,560.5372042641324,0.6865229929706379,0.9846894332919283,-0.29816644032129036,Risk,Declining
125930,SGRAT5,Rasewa,Aspire FT Pte Ltd,AspireBA,Key,Eureka,2026-Q2,2026-Q3,1443.9687412770188,240.05366137882027,0.1662457465433229,-0.5859603942176421,-0.5987538230675717,779.5031619892189,535.1468437989146,0.6865229929706379,0.1835685708958032,0.5029544220748348,Safe,Growing
110959,SGLYNM,LYNCHPIN MANAGEMENT SERVICES PTE. LTD.,Aspire FT Pte Ltd,AspireBA,Key,SG AM - Caroline,2026-Q2,2026-Q3,1262.658035757472,55.74698910539354,0.044150504354055584,-0.5859603942176421,-0.5987538230675717,681.6255111683353,467.9515860124265,0.6865229929706379,0.41282137092217497,0.27370162204846293,Safe,Growing
135284,SGLC7B,LARES CAPITAL PTE. LTD.,Aspire FT Pte Ltd,AspireBA,Key,SG AM - Caroline,2026-Q2,2026-Q3,1193.540395,1193.540395,1.0,-0.5859603942176421,-0.5987538230675717,644.3134711084956,442.336012596705,0.6865229929706379,0.9962422578136618,-0.3097192648430239,Risk,Declining
105489,SGRDVT,PT Ordivo Teknologi Indonesia,Aspire FT Pte Ltd,AspireBA,Key,Eureka,2026-Q2,2026-Q3,1119.7612820595402,186.61461094801146,0.16665570951406475,-0.5859603942176421,-0.5987538230675717,604.4850107119179,414.99285875983395,0.6865229929706379,0.19258321101861234,0.4939397819520256,Safe,Growing
87141,SGTCZF,THE CARE SVC PTE. LTD.,Aspire FT Pte Ltd,AspireBA,Key,SG AM - Caroline,2026-Q2,2026-Q3,1063.237811291897,1063.1877411092,0.9999529078234753,-0.5859603942176421,-0.5987538230675717,573.9717295511241,394.04478965197126,0.6865229929706379,0.9881960535252856,-0.3016730605546477,Risk,Declining
72111,SGANN3,ANTLER INNOVATION PTE. LTD.,Aspire FT Pte Ltd,AspireOS,Key,SG AM-Rachel,2026-Q2,2026-Q3,1061.1859170241753,805.1622987352875,0.7587382058302842,-0.5859603942176421,-0.5987538230675717,572.8640476297397,393.284340544043,0.6865229929706379,0.4808784349374074,0.2056445580332305,Safe,Declining
65061,SGPP5T,POSTEX PTE. LTD.,Aspire FT Pte Ltd,AspireOS,Key,SG AM-Rachel,2026-Q2,2026-Q3,1038.4504201472655,734.5377608900598,0.7073402317906453,-0.5859603942176421,-0.5987538230675717,560.5906574943868,384.8583760144242,0.6865229929706379,0.9386928364710868,-0.2521698435004489,Risk,Declining
72538,SGABHT,ABHIBHA TECHNOLOGIES PTE. LTD.,Aspire FT Pte Ltd,AspireBA,Key,SG AM-Rachel,2026-Q2,2026-Q3,991.3573850000001,980.3573850000001,0.9889041024292163,-0.5859603942176421,-0.5987538230675717,535.1682444215818,367.4053049031462,0.6865229929706379,0.9869404099034795,-0.30041741693284163,Risk,Declining
120816,SGARL4,AROHA LABS PTE. LTD.,Aspire FT Pte Ltd,AspireBA,Key,SG AM - Caroline,2026-Q2,2026-Q3,989.6477868145912,668.9662184257915,0.6759639412512738,-0.5859603942176421,-0.5987538230675717,534.2453455019843,366.77171357465477,0.6865229929706379,0.7772098387587344,-0.09068684578809649,Risk,Declining
90656,SGDAZP,DAZZ PTE LTD,Aspire FT Pte Ltd,AspireBA,Key,SG AM-Rachel,2026-Q2,2026-Q3,985.2531278072786,964.584192293641,0.9790217001800977,-0.5859603942176421,-0.5987538230675717,531.8729599411755,365.143016338968,0.6865229929706379,0.9942181024328268,-0.3076951094621889,Risk,Declining
116072,SGFYDR,INTREPID DIGITAL COMMERCE PTE. LTD.,Aspire FT Pte Ltd,AspireOS,Key,SG AM-Rachel,2026-Q2,2026-Q3,966.0399304689936,529.209496202453,0.5478132730450719,-0.5859603942176421,-0.5987538230675717,521.5010262219796,358.02244535917254,0.6865229929706379,0.37437148935245573,0.31215150361818217,Safe,Declining
55419,SGVPUA,PX Ventures PTE LTD,Aspire FT Pte Ltd,AspireBA,Key,SG AM - Caroline,2026-Q2,2026-Q3,959.9255066008335,473.06463703247135,0.4928139045993557,-0.5859603942176421,-0.5987538230675717,518.2002534263319,355.75638894038843,0.6865229929706379,0.6779082156598243,0.008614777310813615,Safe,Declining
117955,SGNAMD,NAM HO DMC PTE. LTD.,Aspire FT Pte Ltd,AspireBA,Key,SG AM - Caroline,2026-Q2,2026-Q3,939.5171700389016,226.89246715573438,0.2414990107592602,-0.5859603942176421,-0.5987538230675717,507.1831431342509,348.19288940878135,0.6865229929706379,0.10285165535769224,0.5836713376129457,Safe,Growing
59273,SGCEAB,Ocean Bay Energy Pte Ltd,Aspire FT Pte Ltd,AspireBA,Key,SG AM - Caroline,2026-Q2,2026-Q3,895.346696385919,894.705755459846,0.9992841421890982,-0.5859603942176421,-0.5987538230675717,483.33842759794976,331.8229439322664,0.6865229929706379,0.994332422506122,-0.30780942953548407,Risk,Declining
60213,SGNPQM,UPSURGE LABS PTE LTD,Aspire FT Pte Ltd,AspireBA,Key,SG AM - Caroline,2026-Q2,2026-Q3,891.0460401321985,441.233639890073,0.4951861295793539,-0.5859603942176421,-0.5987538230675717,481.016787902731,330.2290849001054,0.6865229929706379,0.7966978716312141,-0.11017487866057618,Risk,Declining
80606,SGHRZQ,HORIZON QUANTUM COMPUTING PTE. LTD.,Aspire FT Pte Ltd,AspireBA,Key,SG AM-Rachel,2026-Q2,2026-Q3,883.6281252379538,419.4621593888246,0.4747044004239531,-0.5859603942176421,-0.5987538230675717,477.0123465667522,327.47994384895395,0.6865229929706379,0.5724250635448392,0.11409792942579866,Safe,Declining
65414,SGARBW,ARTA TECH PTE. LTD.,Aspire FT Pte Ltd,AspireBA,Key,SG AM-Rachel,2026-Q2,2026-Q3,855.949620253552,565.485103265278,0.6606523209832937,-0.5859603942176421,-0.5987538230675717,462.070553480986,317.2220593393657,0.6865229929706379,0.7083875186369223,-0.021864525666284385,Risk,Declining
79727,SGAMES,AMERICAN STUDY EDUCATION JOINT STOCK COMPANY,Aspire FT Pte Ltd,AspireBA,Key,SG AM - Caroline,2026-Q2,2026-Q3,832.0179566523864,704.0572749367914,0.8462044230025477,-0.5859603942176421,-0.5987538230675717,449.1514320931693,308.35278545765084,0.6865229929706379,0.6315263636012414,0.05499662936939653,Safe,Declining
138876,SGDBJV,V MEDICAL AESTHETICS PTE. LTD.,Aspire FT Pte Ltd,AspireBA,Key,SG AM-Rachel,2026-Q2,2026-Q3,829.0446817040433,120.73373456449451,0.1456299488181201,-0.5859603942176421,-0.5987538230675717,447.5463577190197,307.2508649943691,0.6865229929706379,0.054691046268822124,0.6318319467018157,Safe,Growing
85820,SGRUKP,IRUKANDJI PRIVATE LTD.,Aspire FT Pte Ltd,AspireBA,Key,SG AM-Rachel,2026-Q2,2026-Q3,811.6507061357985,776.1198560880972,0.9562239645957302,-0.5859603942176421,-0.5987538230675717,438.1565014379072,300.80451275669566,0.6865229929706379,0.8541717365284411,-0.16764874355780324,Risk,Declining
146268,SGGDL7,Goodsol HK Limited,AFT HK Limited,AspireBA,Key,SG AM - Caroline,2026-Q2,2026-Q3,808.0391396847289,280.2991396847288,0.34688807251848297,-0.5859603942176421,-0.5987538230675717,436.2068557233794,299.46603614552566,0.6865229929706379,0.3595041077061216,0.3270188852645163,Safe,Growing
67398,SGMAPC,MAVINA PTE. LTD.,Aspire FT Pte Ltd,AspireBA,Key,SG AM - Caroline,2026-Q2,2026-Q3,793.7141354264279,793.7141354264279,1.0,-0.5859603942176421,-0.5987538230675717,428.47373394888774,294.15707023989523,0.6865229929706379,1.0,-0.3134770070293621,Risk,Declining
80381,SGZUSS,ZUSPRESSO M SDN BHD,Aspire FT Pte Ltd,AspireBA,Key,SG AM-Rachel,2026-Q2,2026-Q3,792.0703175883476,340.0110347424005,0.4292687494939181,-0.5859603942176421,-0.5987538230675717,427.5863454854887,293.54785765607494,0.6865229929706379,0.5999701801063352,0.08655281286430272,Safe,Declining
118203,SGSRC7,SORA CLOUD PTE. LTD.,Aspire FT Pte Ltd,AspireBA,Key,SG AM-Rachel,2026-Q2,2026-Q3,790.2108545292228,790.2108545292228,1.0,-0.5859603942176421,-0.5987538230675717,426.5825444385852,292.85872515700765,0.6865229929706379,0.9863134880677453,-0.2997904950971074,Risk,Declining
118392,SGZKAL,ZKAI LABS PTE. LTD.,Aspire FT Pte Ltd,AspireBA,Scaled,SG AM-Rachel,2026-Q2,2026-Q3,779.2910960825253,121.67557830954223,0.15613623576761237,-0.5859603942176421,-0.5987538230675717,420.6876895196128,288.811771714907,0.6865229929706379,0.27866419554164185,0.40785879742899606,Safe,Growing
84694,SGLVTX,LOVE IN THE HAIR PTE. LTD.,Aspire FT Pte Ltd,AspireBA,Key,SG AM-Rachel,2026-Q2,2026-Q3,774.2164818961759,768.6625695987914,0.9928264091152101,-0.5859603942176421,-0.5987538230675717,417.9482411568758,286.9310774258323,0.6865229929706379,0.9826331154182273,-0.2961101224475894,Risk,Declining
116075,SGFYDC,INTREPID MALAYSIA SDN. BHD.,Aspire FT Pte Ltd,AspireOS,Key,SG AM-Rachel,2026-Q2,2026-Q3,768.5458260145626,381.8387177364104,0.496832725924108,-0.5859603942176421,-0.5987538230675717,414.8870293287298,284.8294851194564,0.6865229929706379,0.21882619948212464,0.46769679348851323,Safe,Declining
108958,SGMBBP,MOBBIN PTE. LTD.,Aspire FT Pte Ltd,AspireOS,Key,SG AM-Rachel,2026-Q2,2026-Q3,751.7629010779499,401.1559521885425,0.5336203098255136,-0.5859603942176421,-0.5987538230675717,405.82703884448455,278.6095933359269,0.6865229929706379,0.47869609518958417,0.20782689778105373,Safe,Declining
58755,SGASLS,Ascenda Loyalty Pte Ltd,Aspire FT Pte Ltd,AspireOS,Key,SG AM-Rachel,2026-Q2,2026-Q3,744.2718416855538,360.3146518669195,0.48411700092121485,-0.5859603942176421,-0.5987538230675717,401.78311163463536,275.83334432446577,0.6865229929706379,0.3791527741394526,0.3073702188311853,Safe,Declining
80725,SGSPSV,SPROUT SOLUTIONS PHIL INC,Aspire FT Pte Ltd,AspireBA,Key,SG AM-Rachel,2026-Q2,2026-Q3,712.3794670150799,585.2210545497508,0.8215018563096269,-0.5859603942176421,-0.5987538230675717,384.5665291780142,264.0137646076205,0.6865229929706379,0.6831082478906708,0.0034147450799670853,Safe,Declining
115719,SGAPYF,AIRGSM PTE. LTD.,Aspire FT Pte Ltd,AspireOS,Key,SG AM-Rachel,2026-Q2,2026-Q3,708.6864760489227,346.70333123694587,0.48921962384535744,-0.5859603942176421,-0.5987538230675717,382.57292775644106,262.6451113928915,0.6865229929706379,0.4235031598858444,0.2630198330847935,Safe,Declining
88951,SGBXNV,BIXIN VENTURES PTE. LTD.,Aspire FT Pte Ltd,AspireBA,Scaled,SG AM - Caroline,2026-Q2,2026-Q3,707.5056064170158,240.18504886417992,0.33948147786494115,-0.5859603942176421,-0.5987538230675717,381.93545439177916,262.2074712706448,0.6865229929706379,0.42089797843197946,0.26562501453865844,Safe,Growing
124956,SGKH5E,KAYNES HOLDING PTE. LTD.,Aspire FT Pte Ltd,AspireBA,Scaled,SG AM - Caroline,2026-Q2,2026-Q3,687.510733324884,687.510733324884,1.0,-0.5859603942176421,-0.5987538230675717,371.14154566415266,254.79720474510276,0.6865229929706379,0.9949192729050034,-0.30839627993436547,Risk,Declining
152838,SGSTKW,SUPERLINEAR TECHNOLOGY PTE LTD,Aspire FT Pte Ltd,AspireBA,Key,SG AM-Rachel,2026-Q2,2026-Q3,686.6990646800723,564.1618832984498,0.8215562133629647,-0.5859603942176421,-0.5987538230675717,370.70337947881075,254.4963935841233,0.6865229929706379,0.8934937134905004,-0.20697072051986254,Risk,Declining
101907,SG4VPC,STARTCAREFULLY PTE. LTD.,Aspire FT Pte Ltd,AspireBA,Key,SG AM-Rachel,2026-Q2,2026-Q3,686.0138981901987,686.0138981901987,1.0,-0.5859603942176421,-0.5987538230675717,370.3335034350446,254.24246517552882,0.6865229929706379,0.99486818895026,-0.30834519597962207,Risk,Declining
91639,SGFT9T,PT REPUBLIK AZERO MANAGEMEN,Aspire FT Pte Ltd,AspireX,Key,Eureka,2026-Q2,2026-Q3,683.1528649967619,141.08390250121323,0.20651878917595107,-0.5859603942176421,-0.5987538230675717,368.78902095624267,253.18214244159103,0.6865229929706379,0.2339701952017317,0.4525527977689062,Safe,Growing
120791,SGFLP4,FLYWHEEL AI PTE. LTD,Aspire FT Pte Ltd,AspireBA,Key,SG AM-Rachel,2026-Q2,2026-Q3,676.7241065639255,670.8789660363101,0.9913625944887731,-0.5859603942176421,-0.5987538230675717,365.3185597316949,250.79959101472593,0.6865229929706379,0.973209996593657,-0.28668700362301913,Risk,Declining
98527,SGWALH,WALKER HOLDINGS PTE. LTD.,Aspire FT Pte Ltd,AspireBA,Key,SG AM-Rachel,2026-Q2,2026-Q3,674.4722017298432,508.55419607335375,0.7540031965276649,-0.5859603942176421,-0.5987538230675717,364.1029053421729,249.9650163248134,0.6865229929706379,0.6944865285568417,-0.007963535586203774,Risk,Declining
105492,SGML5E,MAGICBLOCK LABS PTE. LTD.,Aspire FT Pte Ltd,AspireOS,Key,SG AM-Rachel,2026-Q2,2026-Q3,670.6465680842847,619.7616385874916,0.9241255649124591,-0.5859603942176421,-0.5987538230675717,362.03769891624444,248.5472046281828,0.6865229929706379,0.9476132860032715,-0.26109029303263365,Risk,Declining
65171,SGLETF,SD LEGOS TECHNOLOGIES PTE LTD,Aspire FT Pte Ltd,AspireBA,Key,SG AM - Caroline,2026-Q2,2026-Q3,630.9785003943464,270.6240081249525,0.42889576737689006,-0.5859603942176421,-0.5987538230675717,340.6235343914896,233.84588830668247,0.6865229929706379,0.7236656554408337,-0.03714266247019582,Risk,Declining
80086,SGMSME,MISTER MOBILE TRADING PTE. LTD.,Aspire FT Pte Ltd,AspireX,Key,SG AM - Caroline,2026-Q2,2026-Q3,616.4683144057971,168.24852838471833,0.27292323782592154,-0.5859603942176421,-0.5987538230675717,332.7904452561093,228.46829250925538,0.6865229929706379,0.45708529227074696,0.22943770069989095,Safe,Growing
70699,SGNTCD,INTELLECT COMPANY PTE. LTD.,Aspire FT Pte Ltd,AspireOS,Key,SG AM-Rachel,2026-Q2,2026-Q3,608.9965292964894,274.0707236375907,0.4500365937293538,-0.5859603942176421,-0.5987538230675717,328.75692295613305,225.69918670766188,0.6865229929706379,0.5225434362515613,0.1639795567190766,Safe,Declining
150279,SGTAYX,THE LO AND BEHOLD GROUP PTE LTD,Aspire FT Pte Ltd,AspireBA,Key,SG AM-Rachel,2026-Q2,2026-Q3,605.1056071118918,345.6594486981549,0.5712382179830603,-0.5859603942176421,-0.5987538230675717,326.65647156875366,224.25717853460884,0.6865229929706379,0.49441326661750284,0.19210972635313506,Safe,Declining
79133,SGUDLX,USD - PT DATA SINERGITAMA JAYA,Aspire FT Pte Ltd,AspireBA,Key,Eureka,2026-Q2,2026-Q3,602.7941255999999,361.2297853511506,0.599258967548158,-0.5859603942176421,-0.5987538230675717,325.4086556736494,223.40052423162552,0.6865229929706379,0.5110903037459572,0.1754326892246807,Safe,Declining
145670,SGELSG,ELSER GLOBAL PTE. LTD.,Aspire FT Pte Ltd,AspireBA,Key,SG AM-Rachel,2026-Q2,2026-Q3,600.6549413333333,533.0154136763294,0.8873903750681585,-0.5859603942176421,-0.5987538230675717,324.25385165866106,222.60772472296122,0.6865229929706379,0.9549104301875371,-0.26838743721689917,Risk,Declining
53431,SGMGBZ,Mighty Bear Games Pte. Ltd.,Aspire FT Pte Ltd,AspireOS,Key,SG AM-Rachel,2026-Q2,2026-Q3,600.2866095922332,480.5015893371463,0.8004536194194716,-0.5859603942176421,-0.5987538230675717,324.0550137277273,222.47121791150053,0.6865229929706379,0.5431622454696037,0.14336074750103422,Safe,Declining
76492,SGMAGL,MAGIK LABS PTE. LTD.,Aspire FT Pte Ltd,AspireBA,Key,SG AM-Rachel,2026-Q2,2026-Q3,596.8780063112384,578.3673278517667,0.9689875011916264,-0.5859603942176421,-0.5987538230675717,322.21493439668,221.2079611418465,0.6865229929706379,0.9685268298578336,-0.28200383688719566,Risk,Declining
135388,SGHECK,HELMSMAN CAPITAL PTE. LTD.,Aspire FT Pte Ltd,AspireBA,Key,SG AM - Caroline,2026-Q2,2026-Q3,594.2648391664006,594.2648391664006,1.0,-0.5859603942176421,-0.5987538230675717,320.80425839381456,220.23949963024745,0.6865229929706379,0.9948049996250399,-0.308282006654402,Risk,Declining
93539,SGNTAL,INITIA LABS PTE. LTD.,Aspire FT Pte Ltd,AspireBA,Key,SG AM - Caroline,2026-Q2,2026-Q3,593.3695034040671,235.84665960073315,0.39747014001851816,-0.5859603942176421,-0.5987538230675717,320.32092586878787,219.90768073856609,0.6865229929706379,0.41611121771150317,0.27041177525913473,Safe,Declining
141996,SGSPTC,SPARKVIEW TECH PTE. LTD.,Aspire FT Pte Ltd,AspireBA,Key,SG AM-Rachel,2026-Q2,2026-Q3,587.2376583602816,458.7406091817773,0.7811839085093741,-0.5859603942176421,-0.5987538230675717,317.010748533348,217.63516788697635,0.6865229929706379,0.9390692364408972,-0.25254624347025934,Risk,Declining
141988,SGATFM,ASIA TRAVELS INTERNATIONAL LIMITED,AFT HK Limited,AspireBA,Key,SG AM - Caroline,2026-Q2,2026-Q3,586.034249640762,510.034249640762,0.8703147468828181,-0.5859603942176421,-0.5987538230675717,316.3611078069143,217.18917459110943,0.6865229929706379,0.9494313316784079,-0.26290833870777,Risk,Declining
55188,SGPRLF,Oxixo Private Ltd.,Aspire FT Pte Ltd,AspireBA,Key,SG AM-Rachel,2026-Q2,2026-Q3,564.1589777168459,222.6138086736611,0.39459410816181684,-0.5859603942176421,-0.5987538230675717,304.5520961942485,209.0820165947571,0.6865229929706379,0.7282735520111252,-0.0417505590404873,Risk,Declining
131028,SGSMMQ,SMK IMPORT AND EXPORT PTE. LTD.,Aspire FT Pte Ltd,AspireBA,Key,SG AM-Rachel,2026-Q2,2026-Q3,559.1797701362864,559.1797701362864,1.0,-0.5859603942176421,-0.5987538230675717,301.8641515439964,207.23668078852663,0.6865229929706379,0.9591025967902312,-0.27257960381959334,Risk,Declining
77008,SGPXLT,PIXELATION LABS PTE. LTD.,Aspire FT Pte Ltd,AspireBA,Key,SG AM - Caroline,2026-Q2,2026-Q3,552.4795244584839,419.3704550290906,0.7590696785372074,-0.5859603942176421,-0.5987538230675717,298.24713232283756,204.75351392718431,0.6865229929706379,0.6621843768813304,0.02433861608930754,Safe,Declining
125931,SGESH9,ESSENCE SHIPPING PTE. LTD.,Aspire FT Pte Ltd,AspireBA,Key,SG AM - Caroline,2026-Q2,2026-Q3,550.0035591840847,549.7508919650396,0.9995406080291191,-0.5859603942176421,-0.5987538230675717,296.9105225298424,203.83590057166342,0.6865229929706379,0.9382534399247119,-0.251730446954074,Risk,Declining
81542,SGRCYZ,Rabbit Care Company Limited,Aspire FT Pte Ltd,AspireBA,Scaled,SG AM-Rachel,2026-Q2,2026-Q3,545.3919300940514,540.4641924064235,0.9909647770424874,-0.5859603942176421,-0.5987538230675717,294.4210091803891,202.12679241595637,0.6865229929706379,0.7534340070021612,-0.06691101403152333,Risk,Declining
77783,SGETAS,ETHEREUM ASIA PACIFIC LIMITED,Aspire FT Pte Ltd,AspireOS,Key,SG AM-Rachel,2026-Q2,2026-Q3,543.8082108,358.56259993259613,0.6593548843352554,-0.5859603942176421,-0.5987538230675717,293.5660639436074,201.539852853175,0.6865229929706379,0.45913299249008305,0.22739000048055485,Safe,Declining
83438,SGBRHP,BRIOHR PTE. LTD.,Aspire FT Pte Ltd,AspireBA,Key,SG AM-Rachel,2026-Q2,2026-Q3,540.0252681889084,540.0252681889084,1.0,-0.5859603942176421,-0.5987538230675717,291.52390358190746,200.13786280953477,0.6865229929706379,0.9962608289388943,-0.30973783596825644,Risk,Declining
90404,SGPUNK,PUREST NEST PTE. LTD.,Aspire FT Pte Ltd,AspireBA,Key,SG AM - Caroline,2026-Q2,2026-Q3,534.2488567070149,228.99825089797056,0.42863592129978956,-0.5859603942176421,-0.5987538230675717,288.40560130404475,197.9970765967493,0.6865229929706379,0.1550313614926154,0.5314916314780225,Safe,Declining
137316,SGPVPB,PIVENE PTE. LTD.,Aspire FT Pte Ltd,AspireBA,Key,SG AM-Rachel,2026-Q2,2026-Q3,531.1475411254255,531.1475411254255,1.0,-0.5859603942176421,-0.5987538230675717,286.7314062656968,196.8477032082061,0.6865229929706379,0.9979558991403746,-0.31143290616973673,Risk,Declining
77903,SGMUTW,MULTIPLIER TECHNOLOGIES PTE. LTD. (USD Advance/SGD Debit),Aspire FT Pte Ltd,AspireOS,Key,SG AM-Rachel,2026-Q2,2026-Q3,525.3013809129374,97.81963035822832,0.18621620637704128,-0.5859603942176421,-0.5987538230675717,283.57545126413646,194.68106753485424,0.6865229929706379,0.3471249327454468,0.3393980602251911,Safe,Growing
108372,SGEVSA,EVENTUS SECURITY PTE. LTD.,Aspire FT Pte Ltd,AspireBA,Key,SG AM-Rachel,2026-Q2,2026-Q3,517.0531220615987,442.7694327821914,0.856332577621381,-0.5859603942176421,-0.5987538230675717,279.12276217764156,191.62419409642607,0.6865229929706379,0.9275852685338494,-0.24106227556321147,Risk,Declining
80992,SGNVDN,INVIDEO INNOVATION PTE. LTD.,Aspire FT Pte Ltd,AspireOS,Key,SG AM-Rachel,2026-Q2,2026-Q3,509.35093073333337,301.2265193736961,0.5913928908307048,-0.5859603942176421,-0.5987538230675717,274.9648588082659,188.76969783079957,0.6865229929706379,0.5367566032996078,0.14976638967103006,Safe,Declining
50696,SGZEPS,ZENYUM PTE. LTD.,Aspire FT Pte Ltd,AspireOS,Key,SG AM-Rachel,2026-Q2,2026-Q3,508.44246478578094,262.1867233990262,0.5156664550225792,-0.5859603942176421,-0.5987538230675717,274.4744381651914,188.43301278310147,0.6865229929706379,0.4433434848563334,0.2431795081143045,Safe,Declining
81753,SGBANS,BANDLAB SINGAPORE PTE. LTD.,Aspire FT Pte Ltd,AspireOS,Key,SG AM-Rachel,2026-Q2,2026-Q3,500.8170587307855,433.1836704272133,0.8649539045755058,-0.5859603942176421,-0.5987538230675717,270.3579860832274,185.60697377937134,0.6865229929706379,0.5373632338185075,0.14915975915213042,Safe,Declining
129420,SGRCCB,RACKSYS CREATION PTE. LTD.,Aspire FT Pte Ltd,AspireBA,Key,SG AM - Caroline,2026-Q2,2026-Q3,499.93167377262387,499.93167377262387,1.0,-0.5859603942176421,-0.5987538230675717,269.88002533883184,185.27884273860644,0.6865229929706379,0.9956055365348577,-0.3090825435642198,Risk,Declining
116073,SGFYDF,"Intrepid Ecommerce Services (Thailand) Co., Ltd.",Aspire FT Pte Ltd,AspireOS,Key,SG AM-Rachel,2026-Q2,2026-Q3,497.4377897388205,-2.140646948445707,-0.004303346051713628,-0.5859603942176421,-0.5987538230675717,268.53374239349256,184.3545885415868,0.6865229929706379,0.31207779518771733,0.37444519778292057,Safe,Growing
120035,SGTAPK,TARVOS PTE. LTD.,Aspire FT Pte Ltd,AspireBA,Key,SG AM-Rachel,2026-Q2,2026-Q3,496.3780648255538,412.99636254415634,0.8320197684184515,-0.5859603942176421,-0.5987538230675717,267.9616670451027,183.96184566120544,0.6865229929706379,0.8977232236615219,-0.211200230690884,Risk,Declining
86460,SGPPGY,PREFER PTE. LTD.,Aspire FT Pte Ltd,AspireBA,Key,SG AM-Rachel,2026-Q2,2026-Q3,493.58140304950956,483.0594654710703,0.9786824675455128,-0.5859603942176421,-0.5987538230675717,266.45193443446954,182.9253795107682,0.6865229929706379,0.9827151832197274,-0.2961921902490895,Risk,Declining
94208,SGVADF,VIAS DEVELOPMENT PTE. LTD.,Aspire FT Pte Ltd,AspireBA,Key,SG AM - Caroline,2026-Q2,2026-Q3,492.48304499999995,481.48304499999995,0.9776642056783904,-0.5859603942176421,-0.5987538230675717,265.85900361255176,182.51831886828066,0.6865229929706379,0.9952645352223405,-0.3087415422517026,Risk,Declining
58971,SGACPM,ACHERON PTE. LTD.,Aspire FT Pte Ltd,AspireBA,Key,SG AM - Caroline,2026-Q2,2026-Q3,492.4114927797179,118.3851881919869,0.24041922239403732,-0.5859603942176421,-0.5987538230675717,265.82037730412634,182.49180101941303,0.6865229929706379,0.6063227321298553,0.08020026084078258,Safe,Growing
134365,SG6SZM,"STARGLOWS INTERNATIONAL TRADING CO., LIMITED",AFT HK Limited,AspireBA,Key,SG AM - Caroline,2026-Q2,2026-Q3,489.2013125402729,463.7013125402729,0.9478742199860701,-0.5859603942176421,-0.5987538230675717,264.08741344163326,181.30208148182433,0.6865229929706379,0.9045872193935787,-0.21806422642294077,Risk,Declining
90493,SGKRMQ,KRIS MANAGEMENT & SERVICES PTE. LTD.,Aspire FT Pte Ltd,AspireBA,Key,SG AM - Caroline,2026-Q2,2026-Q3,487.62269768273546,487.62269768273546,1.0,-0.5859603942176421,-0.5987538230675717,263.2352237523154,180.7170336657351,0.6865229929706379,0.9866035246796412,-0.3000805317090033,Risk,Declining
75513,SGDEUP,DELUGS PTE. LTD.,Aspire FT Pte Ltd,AspireBA,Key,SG AM - Caroline,2026-Q2,2026-Q3,486.98967887424067,139.30816808998486,0.28605979578873075,-0.5859603942176421,-0.5987538230675717,262.89349879060745,180.4824316222506,0.6865229929706379,0.5905176759568247,0.09600531701381321,Safe,Growing
76608,SGEPTN,EPITEX INTERNATIONAL PTE LTD,Aspire FT Pte Ltd,AspireBA,Scaled,SG AM-Rachel,2026-Q2,2026-Q3,483.94741074544436,231.25474032480713,0.4778509713867377,-0.5859603942176421,-0.5987538230675717,261.25117956427954,179.35494171157873,0.6865229929706379,0.3567268424799195,0.3297961504907184,Safe,Declining
89391,SGBPNT,BLACKBOAT PTE. LTD.,Aspire FT Pte Ltd,AspireBA,Scaled,SG AM-Rachel,2026-Q2,2026-Q3,482.2336181015851,160.0647165552971,0.33192359584017767,-0.5859603942176421,-0.5987538230675717,260.32601633415254,178.71979588184558,0.6865229929706379,0.6689868782575324,0.017536114713105455,Safe,Growing
80746,SGDGP4,DIGITIBLE PTE. LTD.,Aspire FT Pte Ltd,AspireBA,Key,SG AM-Rachel,2026-Q2,2026-Q3,480.69164940128894,441.86651688410734,0.9192306906817727,-0.5859603942176421,-0.5987538230675717,259.4936094798974,178.14832943689305,0.6865229929706379,0.9753324635042323,-0.2888094705335944,Risk,Declining
79892,SGFCGY,FOCUS GLOBAL INC,Aspire FT Pte Ltd,AspireOS,Key,SG AM-Rachel,2026-Q2,2026-Q3,477.97806240131445,345.6714101070449,0.7231951365517195,-0.5859603942176421,-0.5987538230675717,258.02872344300005,177.1426514904814,0.6865229929706379,0.3243386840938981,0.3621843088767398,Safe,Declining
114025,SGWXHM,DIGIMENTAL GLOBAL NETWORK SOLUTION PTE. LTD.,Aspire FT Pte Ltd,AspireBA,Key,SG AM-Rachel,2026-Q2,2026-Q3,476.3273455820663,468.09174254875353,0.9827102031623883,-0.5859603942176421,-0.5987538230675717,257.1376106762411,176.53088208677167,0.6865229929706379,0.797548596823214,-0.1110256038525761,Risk,Declining
60315,SGBAZT,BAZAAR TECHNOLOGIES PTE LTD,Aspire FT Pte Ltd,AspireOS,Key,SG AM-Rachel,2026-Q2,2026-Q3,475.03246555417144,317.42937440692737,0.668226694856772,-0.5859603942176421,-0.5987538230675717,256.43859064395974,176.05098876206347,0.6865229929706379,0.6815857762775618,0.0049372166930761185,Safe,Declining
109572,SGSPLU,SUNA OPTOELECTRONICS (SINGAPORE) PTE LTD,Aspire FT Pte Ltd,AspireBA,Key,SG AM-Rachel,2026-Q2,2026-Q3,473.63874636891137,473.63874636891137,1.0,-0.5859603942176421,-0.5987538230675717,255.6862138917633,175.53446482230402,0.6865229929706379,0.9980530646371849,-0.311530071666547,Risk,Declining
118501,SGMMWC,MMW CAPITAL INVESTMENT PTE LTD,Aspire FT Pte Ltd,AspireBA,Key,SG AM - Caroline,2026-Q2,2026-Q3,473.63204127891095,473.5899300758078,0.9999110887789824,-0.5859603942176421,-0.5987538230675717,255.68259425741297,175.53197986009638,0.6865229929706379,0.9999893121957485,-0.3134663192251106,Risk,Declining
72147,SGCP9H,CARGOAI PTE. LTD.,Aspire FT Pte Ltd,AspireBA,Key,SG AM-Rachel,2026-Q2,2026-Q3,470.58774034809744,355.50716971366495,0.7554535301975642,-0.5859603942176421,-0.5987538230675717,254.03917765580616,174.40373657606364,0.6865229929706379,0.650680405614838,0.035842587355799926,Safe,Declining
60553,SGQAAT,QOALA TECHNOLOGY PTE. LTD.,Aspire FT Pte Ltd,AspireBA,Key,SG AM-Rachel,2026-Q2,2026-Q3,463.41536696610484,223.35146751760843,0.48196819406281105,-0.5859603942176421,-0.5987538230675717,250.1672879324275,171.74559525471747,0.6865229929706379,0.5340833995309037,0.15243959343973423,Safe,Declining
92687,SGSG9S,SURGE GLOBAL PTE. LTD.,Aspire FT Pte Ltd,AspireOS,Key,SG AM-Rachel,2026-Q2,2026-Q3,463.0503729567739,193.7123922696267,0.41833978241436354,-0.5859603942176421,-0.5987538230675717,249.97025182198584,171.61032543445378,0.6865229929706379,0.5964062448501201,0.09011674812051784,Safe,Declining
139091,SGLMFD,LMF DIGITAL PTE. LTD.,Aspire FT Pte Ltd,AspireBA,Key,SG AM-Rachel,2026-Q2,2026-Q3,456.99158601862763,455.23929696273063,0.9961655988654776,-0.5859603942176421,-0.5987538230675717,246.6995137228167,169.3648885253891,0.6865229929706379,0.9818655967067332,-0.29534260373609533,Risk,Declining
90121,SGTERJ,TERRAVERDE JOURNEYS PTE. LTD.,Aspire FT Pte Ltd,AspireBA,Key,SG AM - Caroline,2026-Q2,2026-Q3,452.8006408333333,387.2442351092562,0.8552201569250714,-0.5859603942176421,-0.5987538230675717,244.43709977279505,167.8116893290817,0.6865229929706379,0.9403156846932692,-0.2537926917226313,Risk,Declining
179972,SGTNAD,TINY AWAY ESCAPE TALBINGO PTE LTD,Aspire FT Pte Ltd,AspireBA,Key,SG AM - Caroline,2026-Q2,2026-Q3,451.7751383124035,451.7751383124035,1.0,-0.5859603942176421,-0.5987538230675717,243.88349882920002,167.43162955237347,0.6865229929706379,0.9997829516713822,-0.3132599587007443,Risk,Declining
86457,SGSFT4,GL SOFTWARE PTE. LTD.,Aspire FT Pte Ltd,AspireBA,Key,SG AM-Rachel,2026-Q2,2026-Q3,449.70741539452763,218.03957631401292,0.4848476339282223,-0.5859603942176421,-0.5987538230675717,242.76727206713284,166.66531421484518,0.6865229929706379,0.6350733456117655,0.051449647358872364,Safe,Declining
69274,SGTRT9,TRIPLO TECHNOLOGY SERVICES PTE. LTD.,Aspire FT Pte Ltd,AspireBA,Key,SG AM-Rachel,2026-Q2,2026-Q3,442.7968063113879,183.2770181025247,0.413907723565736,-0.5859603942176421,-0.5987538230675717,239.0366915652206,164.1041849231545,0.6865229929706379,0.6329645534848809,0.053558439485757,Safe,Declining
62593,SGSGPT,SGPOMADES TRADING PTE. LTD.,Aspire FT Pte Ltd,AspireBA,Scaled,SG AM-Rachel,2026-Q2,2026-Q3,442.25870792853374,359.7819286657289,0.8135101066768988,-0.5859603942176421,-0.5987538230675717,238.74620785951018,163.90476118010096,0.6865229929706379,0.4927216355628633,0.1938013574077746,Safe,Declining
123896,SGCLMS,COFFEE MEETS BAGEL PTE. LTD.,Aspire FT Pte Ltd,AspireOS,Key,SG AM-Rachel,2026-Q2,2026-Q3,442.23736812849165,412.345117752982,0.9324067739865336,-0.5859603942176421,-0.5987538230675717,238.73468791372915,163.89685247244452,0.6865229929706379,0.9034787280436727,-0.21695573507303478,Risk,Declining
81634,SGSUG2,SUNGIL GARMENT PTE. LTD.,Aspire FT Pte Ltd,AspireBA,Key,SG AM-Rachel,2026-Q2,2026-Q3,441.1988079055264,441.14489560814195,0.9998778049794822,-0.5859603942176421,-0.5987538230675717,238.17403798096007,163.5119534025911,0.6865229929706379,0.9956007853979568,-0.3090777924273189,Risk,Declining
102761,SGAYK4,SHARDLAB PTE. LTD.,Aspire FT Pte Ltd,AspireBA,Key,SG AM - Caroline,2026-Q2,2026-Q3,440.9539514979914,370.2233981712228,0.8395965086910196,-0.5859603942176421,-0.5987538230675717,238.0418562110569,163.42120757830102,0.6865229929706379,0.7227490498584248,-0.036226056887786906,Risk,Declining
70216,SGSTWN,SUNERA TECH PTE. LTD.,Aspire FT Pte Ltd,AspireBA,Key,SG AM-Rachel,2026-Q2,2026-Q3,426.32406000000003,426.32406000000003,1.0,-0.5859603942176421,-0.5987538230675717,230.14414599320412,157.99924792192593,0.6865229929706379,0.995062818309012,-0.3085398253383741,Risk,Declining
84816,SGCRPZ,CREDOLAB PTE. LTD,Aspire FT Pte Ltd,AspireBA,Scaled,SG AM-Rachel,2026-Q2,2026-Q3,421.65557994962444,349.20116535647924,0.8281668308485295,-0.5859603942176421,-0.5987538230675717,227.62394257264185,156.2690703267467,0.6865229929706379,0.7663903892480421,-0.07986739627740425,Risk,Declining
55758,SGMMUS,IMMUNI SOFTWARE PTE. LTD.,Aspire FT Pte Ltd,AspireOS,Key,SG AM-Rachel,2026-Q2,2026-Q3,421.1532132107295,290.9464245598996,0.6908327312566905,-0.5859603942176421,-0.5987538230675717,227.35274801679537,156.08288902858962,0.6865229929706379,0.6409508850426289,0.04557210792800903,Safe,Declining
76401,SGEMPQ,EMURGO GROUP PTE. LTD.,Aspire FT Pte Ltd,AspireBA,Key,SG AM - Caroline,2026-Q2,2026-Q3,416.5745925640076,305.7007918885548,0.733844063813333,-0.5859603942176421,-0.5987538230675717,224.88105374139687,154.38601407693466,0.6865229929706379,0.7045660208982197,-0.018043027927581834,Risk,Declining
99918,SGJTY5,DIGITAL ASSET NETWORK SECURITY PTE LTD,Aspire FT Pte Ltd,AspireBA,Key,SG AM-Rachel,2026-Q2,2026-Q3,414.22477748949564,404.5996508430924,0.9767635178543916,-0.5859603942176421,-0.5987538230675717,223.61254409273775,153.51515303632505,0.6865229929706379,0.993085326238739,-0.3065623332681011,Risk,Declining
110804,SGF9J8,CHOICE ONE ASIA PACIFIC PTE. LTD.,Aspire FT Pte Ltd,AspireBA,Scaled,SG AM - Caroline,2026-Q2,2026-Q3,412.7397648350484,406.73443039695826,0.9854500706020168,-0.5859603942176421,-0.5987538230675717,222.81088403830205,152.96479497640885,0.6865229929706379,0.8924236116283903,-0.20590061865775244,Risk,Declining
173232,SGPL4F,PANGO LABS PTE LTD,Aspire FT Pte Ltd,AspireBA,Key,SG AM-Rachel,2026-Q2,2026-Q3,411.7096509187355,398.09317216564733,0.9669269867181816,-0.5859603942176421,-0.5987538230675717,222.25479370752046,152.58302617815866,0.6865229929706379,0.9291094605504493,-0.2425864675798114,Risk,Declining
71012,SGSKMC,SKY MAVIS PTE LTD,Aspire FT Pte Ltd,AspireBA,Scaled,SG AM - Caroline,2026-Q2,2026-Q3,410.4662644,170.40481881253413,0.4151493888581167,-0.5859603942176421,-0.5987538230675717,221.583571613009,152.12221677688663,0.6865229929706379,0.30585188425414256,0.38067110871649534,Safe,Declining
84945,SGTKPL,TOKENINSIGHT SG PTE. LTD.,Aspire FT Pte Ltd,AspireBA,Scaled,SG AM-Rachel,2026-Q2,2026-Q3,409.9207525905943,306.8508215719411,0.7485613246773245,-0.5859603942176421,-0.5987538230675717,221.2890858889218,151.92004555619914,0.6865229929706379,0.8187897452623236,-0.13226675229168572,Risk,Declining
136203,SGGTG8,IDA GLOBAL TRANSLATION PTE. LTD.,Aspire FT Pte Ltd,AspireBA,Key,SG AM-Rachel,2026-Q2,2026-Q3,403.6721415684496,118.09024317319776,0.2925399873133765,-0.5859603942176421,-0.5987538230675717,217.91587432930393,149.60425826036715,0.6865229929706379,0.38051471701479705,0.30600827595584085,Safe,Growing
112237,SGDPUP,DPUNION PTE. LTD.,Aspire FT Pte Ltd,AspireBA,Scaled,SG AM - Caroline,2026-Q2,2026-Q3,402.405822776004,402.3519104786196,0.9998660250564653,-0.5859603942176421,-0.5987538230675717,217.23227261786752,149.13494996743196,0.6865229929706379,0.9919799120068878,-0.30545691903624994,Risk,Declining
111587,SGGTYF,GOTYME FINANCIAL PTE. LTD.,Aspire FT Pte Ltd,AspireBA,Key,SG AM - Caroline,2026-Q2,2026-Q3,399.9427122234708,399.9427122234708,1.0,-0.5859603942176421,-0.5987538230675717,215.90260223848614,148.22210067891464,0.6865229929706379,0.9170416432825115,-0.23051865031187357,Risk,Declining
134433,SGYDNT,YDNE TIME PTE LTD,Aspire FT Pte Ltd,AspireBA,Key,SG AM - Caroline,2026-Q2,2026-Q3,397.56070197862897,397.56070197862897,1.0,-0.5859603942176421,-0.5987538230675717,214.61671254803287,147.33930783999458,0.6865229929706379,0.9845331726853999,-0.29801017971476196,Risk,Declining
122503,SGL573,AEROLIFT (SINGAPORE) PTE. LTD.,Aspire FT Pte Ltd,AspireBA,Scaled,SG AM-Rachel,2026-Q2,2026-Q3,395.849407025574,189.14401399229138,0.4778181061670042,-0.5859603942176421,-0.5987538230675717,213.6928976558747,146.70508767527932,0.6865229929706379,0.7964340441290163,-0.1099110511583784,Risk,Declining
103624,SGPCZC,PRIMROSE CAPITAL MANAGEMENT PTE. LTD. (AP),Aspire FT Pte Ltd,AspireBA,Key,SG AM - Caroline,2026-Q2,2026-Q3,394.5826719039857,341.41817318014023,0.8652639801253561,-0.5859603942176421,-0.5987538230675717,213.00907119588666,146.2356250872958,0.6865229929706379,0.9490478323877081,-0.26252483941707017,Risk,Declining
67457,SGRARH,RARIUM INTERNATIONAL PTE. LTD.,Aspire FT Pte Ltd,AspireBA,Key,SG AM - Caroline,2026-Q2,2026-Q3,394.2064187000911,392.5023633170795,0.9956772510487507,-0.5859603942176421,-0.5987538230675717,212.80595699143026,146.09618251573755,0.6865229929706379,0.997216496111637,-0.3106935031409991,Risk,Declining
102400,SGCLBN,COVE LIVING PTE. LTD.,Aspire FT Pte Ltd,AspireOS,Key,SG AM-Rachel,2026-Q2,2026-Q3,392.4329847734501,210.12720289319554,0.5354473529142845,-0.5859603942176421,-0.5987538230675717,211.84859737977195,145.43893312979267,0.6865229929706379,0.6413821867914125,0.045140806179225446,Safe,Declining
85644,SGGRVW,GREAT VISION SHIPPING PTE. LTD.,Aspire FT Pte Ltd,AspireBA,Key,SG AM - Caroline,2026-Q2,2026-Q3,388.52784311645473,388.52784311645473,1.0,-0.5859603942176421,-0.5987538230675717,209.74046984028553,143.99165510182064,0.6865229929706379,0.9987443712076229,-0.31222137823698504,Risk,Declining
117697,SGTU6F,TRUEGENICS PTE. LTD.,Aspire FT Pte Ltd,AspireOS,Key,SG AM-Rachel,2026-Q2,2026-Q3,383.5979999198733,104.49517285863698,0.2724080231921546,-0.5859603942176421,-0.5987538230675717,207.07917375402278,142.16461414749847,0.6865229929706379,0.6765319216662606,0.009991071304377264,Safe,Growing
184790,SGNHKF,NHN KCP PTE LTD,Aspire FT Pte Ltd,AspireBA,Scaled,SG AM - Caroline,2026-Q2,2026-Q3,374.2711493322652,334.4514171282776,0.8936072623416746,-0.5859603942176421,-0.5987538230675717,202.04422436999957,138.7080056269232,0.6865229929706379,0.9529987205537501,-0.2664757275831122,Risk,Declining
81754,SGSLBW,SWEE LEE HOLDINGS PTE LTD,Aspire FT Pte Ltd,AspireOS,Key,SG AM-Rachel,2026-Q2,2026-Q3,370.3587640491591,330.3219123486805,0.8918971127812588,-0.5859603942176421,-0.5987538230675717,199.93218647615694,137.25804305077497,0.6865229929706379,0.45716290031846646,0.22936009265217144,Safe,Declining
92684,SGEDGT,EDGE TUTOR INTERNATIONAL PTE. LTD.,Aspire FT Pte Ltd,AspireOS,Key,SG AM-Rachel,2026-Q2,2026-Q3,367.37616159079175,349.16644694269144,0.9504330532246578,-0.5859603942176421,-0.5987538230675717,198.3220767966371,136.15266573458,0.6865229929706379,0.864609813995706,-0.17808682102506812,Risk,Declining
125582,SGKNSG,KINGMIDAS CAPITAL PTE. LTD,Aspire FT Pte Ltd,AspireBA,Key,SG AM-Rachel,2026-Q2,2026-Q3,364.7740935508259,364.7740935508259,1.0,-0.5859603942176421,-0.5987538230675717,196.91739246595648,135.1883176437022,0.6865229929706379,0.9991854835022471,-0.3126624905316092,Risk,Declining
28763,SGPRST,Prism Tech Private Limited,Aspire FT Pte Ltd,AspireOS,Key,SG AM-Rachel,2026-Q2,2026-Q3,362.2079590620539,70.7781120886963,0.19540739047252828,-0.5859603942176421,-0.5987538230675717,195.53210628149355,134.23728682622382,0.6865229929706379,0.18356656165471566,0.5029564313159223,Safe,Growing
99873,SGSUCM,SUCCESS MCMOORE PTE LIMITED,Aspire FT Pte Ltd,AspireX,Key,Eureka,2026-Q2,2026-Q3,357.96050704398493,58.839667435440454,0.16437474603367472,-0.5859603942176421,-0.5987538230675717,193.23918803206243,132.66314572698738,0.6865229929706379,0.39750421575179357,0.28901877721884434,Safe,Growing
104921,SGTTMS,TTMFS SINGAPORE PTE LTD,Aspire FT Pte Ltd,AspireOS,Key,SG AM-Rachel,2026-Q2,2026-Q3,357.7414304,205.7815247245427,0.5752241905402262,-0.5859603942176421,-0.5987538230675717,193.12092305040272,132.58195409781473,0.6865229929706379,0.4568050933660039,0.229717899604634,Safe,Declining
56632,SGPRPH,PRIVYR PTE. LTD.,Aspire FT Pte Ltd,AspireBA,Key,SG AM-Rachel,2026-Q2,2026-Q3,356.8057364907138,66.18737560040218,0.18549975191367127,-0.5859603942176421,-0.5987538230675717,192.61580383272656,132.2351781406887,0.6865229929706379,0.4145617193426061,0.2719612736280318,Safe,Growing
120222,SGUPWW,UNITE PROPERTIES PTE. LTD.,Aspire FT Pte Ltd,AspireBA,Key,SG AM - Caroline,2026-Q2,2026-Q3,356.74196788860434,356.74196788860434,1.0,-0.5859603942176421,-0.5987538230675717,192.58137938463503,132.21154496555354,0.6865229929706379,0.9992260088263856,-0.31270301585574767,Risk,Declining
146972,SGBHLQ,BHINDI LABS PTE. LTD.,Aspire FT Pte Ltd,AspireBA,Key,SG AM - Caroline,2026-Q2,2026-Q3,353.7150494905907,306.28035434311425,0.8658957394778922,-0.5859603942176421,-0.5987538230675717,190.94734646211603,131.08974379297325,0.6865229929706379,0.7821615039057198,-0.09563851093508191,Risk,Declining
105066,SGHNPB,HONGTEX PTE. LTD.,Aspire FT Pte Ltd,AspireBA,Key,SG AM-Rachel,2026-Q2,2026-Q3,346.6949744639362,346.6949744639362,1.0,-0.5859603942176421,-0.5987538230675717,187.15767254172403,128.48804551076296,0.6865229929706379,0.9866366761897838,-0.3001136832191459,Risk,Declining
129328,SGWPEZ,WEGO PTE. LTD.,Aspire FT Pte Ltd,AspireOS,Key,SG AM-Rachel,2026-Q2,2026-Q3,345.1332468,80.84837859714592,0.23425265269792003,-0.5859603942176421,-0.5987538230675717,186.31459913064194,127.90925622929291,0.6865229929706379,0.35735042830086733,0.3291725646697706,Safe,Growing
149859,SGNPNN,THE BRIGHTFAMILY LABS PTE LTD,Aspire FT Pte Ltd,AspireBA,Scaled,SG AM - Caroline,2026-Q2,2026-Q3,342.3258062595354,337.28931918782087,0.9852874455281466,-0.5859603942176421,-0.5987538230675717,184.7990477784337,126.86879537897421,0.6865229929706379,0.9874789441518556,-0.30095595118121765,Risk,Declining
58863,SGSKHZ,OSOME LTD.,Aspire FT Pte Ltd,AspireOS,Key,SG AM-Rachel,2026-Q2,2026-Q3,337.53086907893,135.87203981455625,0.40254700313879505,-0.5859603942176421,-0.5987538230675717,182.21057852215597,125.09175171794195,0.6865229929706379,0.7413271483743064,-0.05480415540366845,Risk,Declining
65252,SGBYAW,DC Byte Asia Pte. Ltd.,Aspire FT Pte Ltd,AspireBA,Key,SG AM-Rachel,2026-Q2,2026-Q3,337.2755027826167,254.25260559570145,0.7538424922594341,-0.5859603942176421,-0.5987538230675717,182.07272315884273,124.99711084132309,0.6865229929706379,0.9430738545261028,-0.2565508615554649,Risk,Declining
71355,SGUANN,UANGCERMAT INTERNATIONAL PTE. LTD.,Aspire FT Pte Ltd,AspireOS,Key,SG AM-Rachel,2026-Q2,2026-Q3,329.6042358203487,315.0054511735469,0.9557081400654118,-0.5859603942176421,-0.5987538230675717,177.9315138081037,122.15407540333572,0.6865229929706379,0.9144489141066948,-0.22792592113605692,Risk,Declining
72995,SGRNGA,RINGKAS ASIA PTE. LTD.,Aspire FT Pte Ltd,AspireBA,Key,SG AM - Caroline,2026-Q2,2026-Q3,328.3245954162812,279.46959882353826,0.8511990960323885,-0.5859603942176421,-0.5987538230675717,177.2407206401729,121.67983001016421,0.6865229929706379,0.7293730117604509,-0.04285001878981298,Risk,Declining
83575,SGPP8Y,POURQUOI PAS PTE. LTD.,Aspire FT Pte Ltd,AspireBA,Key,SG AM-Rachel,2026-Q2,2026-Q3,324.79317887978107,318.38000951071626,0.9802546057426945,-0.5859603942176421,-0.5987538230675717,175.33434256022332,120.3710576249836,0.6865229929706379,0.9792888468319404,-0.2927658538613025,Risk,Declining
92525,SGVBPX,VIBEFAM PTE. LTD.,Aspire FT Pte Ltd,AspireBA,Key,SG AM-Rachel,2026-Q2,2026-Q3,323.8858273617955,263.4939261079347,0.8135395372320499,-0.5859603942176421,-0.5987538230675717,174.84452352391926,120.03478559416615,0.6865229929706379,0.8131081808187565,-0.12658518784811856,Risk,Declining
147380,SGDYMA,Dyment labs PTE LTD,Aspire FT Pte Ltd,AspireBA,Key,SG AM-Rachel,2026-Q2,2026-Q3,323.50671222531923,296.53757921329236,0.916635012527211,-0.5859603942176421,-0.5987538230675717,174.63986435146387,119.89428236655318,0.6865229929706379,0.9822074246102706,-0.29568443163963265,Risk,Declining
125793,SGNSG8,NINE SMART PTE. LTD.,Aspire FT Pte Ltd,AspireBA,Key,SG AM-Rachel,2026-Q2,2026-Q3,322.6479072221829,322.5518837216953,0.9997023892040264,-0.5859603942176421,-0.5987538230675717,174.17625236573286,119.57600207853207,0.6865229929706379,0.9855583315284816,-0.2990353385578437,Risk,Declining
91424,SGAMGD,AMITY GLOBAL INSTITUTE PTE. LTD.,Aspire FT Pte Ltd,AspireBA,Key,SG AM - Caroline,2026-Q2,2026-Q3,320.8968979084759,281.60725441880606,0.8775630311612554,-0.5859603942176421,-0.5987538230675717,173.23099831854347,118.927063440938,0.6865229929706379,0.7924955860460157,-0.10597259307537776,Risk,Declining
76322,SGPSMT,PROPERTY SCOUT MARKETPLACE (THAILAND) COMPANY LIMITED,Aspire FT Pte Ltd,AspireOS,Key,SG AM-Rachel,2026-Q2,2026-Q3,320.43858308771456,190.13141303431036,0.5933474402558606,-0.5859603942176421,-0.5987538230675717,172.98358447795428,118.75720815059435,0.6865229929706379,0.6378590667220209,0.04866392624861704,Safe,Declining
123816,SGJNMR,Jingkaida Microelectronics Technology Pte Ltd,Aspire FT Pte Ltd,AspireBA,Key,SG AM - Caroline,2026-Q2,2026-Q3,319.04338660660346,319.04338660660346,1.0,-0.5859603942176421,-0.5987538230675717,172.23041023149486,118.24013671268662,0.6865229929706379,0.9944191703450946,-0.30789617737445674,Risk,Declining
112673,SGMZVJ,STAPLE AI PTE. LTD.,Aspire FT Pte Ltd,AspireBA,Key,SG AM-Rachel,2026-Q2,2026-Q3,315.2100008796208,103.81167340045512,0.3293413061475196,-0.5859603942176421,-0.5987538230675717,170.16101896983588,116.81945203010523,0.6865229929706379,0.5122737034644689,0.17424928950616903,Safe,Growing
114313,SGEXLP,CILLIA EXPRESS LIMITED,AFT HK Limited,AspireBA,Key,SG AM - Caroline,2026-Q2,2026-Q3,314.58494190153283,96.61695941479151,0.3071251879723895,-0.5859603942176421,-0.5987538230675717,169.82359099378536,116.587799966075,0.6865229929706379,0.6151443040805924,0.0713786888900455,Safe,Growing
102393,SGHYJD,TELEPORT EVERYWHERE PTE. LTD.,Aspire FT Pte Ltd,AspireOS,Key,SG AM-Rachel,2026-Q2,2026-Q3,313.1523588434899,206.78448286471001,0.6603318704939363,-0.5859603942176421,-0.5987538230675717,169.05023420867306,116.05687275132554,0.6865229929706379,0.572715504902223,0.1138074880684149,Safe,Declining
145037,SGGZDE,OSHIKATSU LABO PTE. LTD.,Aspire FT Pte Ltd,AspireBA,Key,SG AM - Caroline,2026-Q2,2026-Q3,312.08300833333334,312.08300833333334,1.0,-0.5859603942176421,-0.5987538230675717,168.47296263754154,115.66056254455548,0.6865229929706379,1.0,-0.3134770070293621,Risk,Declining
62907,SGAMEN,AMENLI INSURANCE PTE. LTD.,Aspire FT Pte Ltd,AspireBA,Key,SG AM - Caroline,2026-Q2,2026-Q3,311.78663255716975,212.87938235814062,0.6827726404181446,-0.5859603942176421,-0.5987538230675717,168.31296897005245,115.55072321309451,0.6865229929706379,0.799811570655318,-0.11328857768468015,Risk,Declining
88136,SGPAVT,PAVING THE WAY PTE. LTD.,Aspire FT Pte Ltd,AspireBA,Key,SG AM - Caroline,2026-Q2,2026-Q3,309.57800914698663,305.9548575618821,0.9882964827020891,-0.5859603942176421,-0.5987538230675717,167.12067935694174,114.73218897941395,0.6865229929706379,0.9906202285408591,-0.30409723557022117,Risk,Declining
82348,SGTGMR,TGM RESEARCH PTE. LTD.,Aspire FT Pte Ltd,AspireOS,Key,SG AM-Rachel,2026-Q2,2026-Q3,308.9292201506449,225.24545043559507,0.7291166899840598,-0.5859603942176421,-0.5987538230675717,166.7704411144816,114.49174237294743,0.6865229929706379,0.49228775193984875,0.19423524103078915,Safe,Declining
58450,SGWNTA,WINTERMUTE ASIA PTE. LTD.,Aspire FT Pte Ltd,AspireOS,Key,SG AM - Caroline,2026-Q2,2026-Q3,307.0420313523223,194.56936397282277,0.6336896714624708,-0.5859603942176421,-0.5987538230675717,165.75167277586638,113.79233448397758,0.6865229929706379,0.6568071852817109,0.02971580768892701,Safe,Declining
118593,SGSP45,SGAPH PTE. LTD.,Aspire FT Pte Ltd,AspireBA,Key,SG AM-Rachel,2026-Q2,2026-Q3,306.0730207290341,235.29515277528472,0.768754959894329,-0.5859603942176421,-0.5987538230675717,165.22856806919089,113.4332110751137,0.6865229929706379,0.7410727950070819,-0.054549802036443995,Risk,Declining
169925,SGT7PW,SIMULAR PTE LTD,Aspire FT Pte Ltd,AspireBA,Scaled,SG AM-Rachel,2026-Q2,2026-Q3,305.8782828020933,273.3825767239546,0.8937626242031581,-0.5859603942176421,-0.5987538230675717,165.1234419501342,113.36103957721953,0.6865229929706379,0.7594650633550837,-0.07294207038444578,Risk,Declining
143847,SGMPR3,MOBIVERSA PTE. LTD.,Aspire FT Pte Ltd,AspireBA,Key,SG AM-Rachel,2026-Q2,2026-Q3,305.6832960177579,209.71208841959523,0.686043663986836,-0.5859603942176421,-0.5987538230675717,165.01818148943954,113.28877585070195,0.6865229929706379,0.6023639046995878,0.08415908827105012,Safe,Declining
119967,SGGTTH,GLORY TOP TRADING PTE. LTD.,Aspire FT Pte Ltd,AspireBA,Key,SG AM - Caroline,2026-Q2,2026-Q3,301.6874904980823,296.1874904980823,0.9817692142590349,-0.5859603942176421,-0.5987538230675717,162.86111053059975,111.80789703998921,0.6865229929706379,0.9833320443290332,-0.2968090513583953,Risk,Declining
69527,SGTAPG,TABLEVIBE PTE. LTD.,Aspire FT Pte Ltd,AspireOS,Key,SG AM-Rachel,2026-Q2,2026-Q3,301.40789733318496,172.65079103635495,0.5728144237889752,-0.5859603942176421,-0.5987538230675717,162.710176684265,111.70427748406291,0.6865229929706379,0.7287729099408727,-0.042249916970234835,Risk,Declining
174683,SGBTPD,BITASIA PTE LTD,Aspire FT Pte Ltd,AspireBA,Key,SG AM - Caroline,2026-Q2,2026-Q3,301.40352854021677,301.40352854021677,1.0,-0.5859603942176421,-0.5987538230675717,162.70781826206695,111.70265837299682,0.6865229929706379,0.9951229326193951,-0.3085999396487572,Risk,Declining
151475,SGSM5V,SUCCESS MCMOORE PTE LIMITED,AFT HK Limited,AspireBA,Key,Eureka,2026-Q2,2026-Q3,300.83845883722165,-255.9762661358497,-0.8508761383941071,-0.5859603942176421,-0.5987538230675717,162.40277452556649,111.49323883402758,0.6865229929706379,0.23677195526200515,0.4497510377086328,Safe,Growing
85191,SGMP9G,MONETRACK PTE. LTD.,Aspire FT Pte Ltd,AspireBA,Key,SG AM - Caroline,2026-Q2,2026-Q3,300.11100500000003,300.11100500000003,1.0,-0.5859603942176421,-0.5987538230675717,162.01007034153136,111.22363838225169,0.6865229929706379,0.9232534807565591,-0.2367304877859212,Risk,Declining
108293,SGLP5D,LETSVIBE PTE. LTD.,Aspire FT Pte Ltd,AspireOS,Key,SG AM-Rachel,2026-Q2,2026-Q3,299.677382755719,44.056990055540965,0.14701473181062139,-0.5859603942176421,-0.5987538230675717,161.7759863888365,111.0629343664412,0.6865229929706379,0.6584256070259983,0.02809738594463962,Safe,Growing
83894,SGYUTW,YUKICHI TRADING PTE. LTD.,Aspire FT Pte Ltd,AspireBA,Key,SG AM-Rachel,2026-Q2,2026-Q3,295.5680749877604,295.5680749877604,1.0,-0.5859603942176421,-0.5987538230675717,159.55764307769405,109.5399906770393,0.6865229929706379,0.9721201300528621,-0.28559713708222423,Risk,Declining
110521,SGTTKK,TRY-V Technologies Pte. Ltd.,Aspire FT Pte Ltd,AspireBA,Key,SG AM-Rachel,2026-Q2,2026-Q3,294.6789875,294.6789875,1.0,-0.5859603942176421,-0.5987538230675717,159.07768358260046,109.21048744796298,0.6865229929706379,0.9928402681362348,-0.3063172751655969,Risk,Declining
151523,SGALJZ,ACP LUCENTE VENTURES SPV PTE LTD,Aspire FT Pte Ltd,AspireBA,Key,SG AM - Caroline,2026-Q2,2026-Q3,294.407195,194.407195,0.6603343882271627,-0.5859603942176421,-0.5987538230675717,158.93096079899811,109.1097588834273,0.6865229929706379,0.9123700518648573,-0.2258470588942194,Risk,Declining
90181,SGWULN,WULOOK INVESTMENT MANAGEMENT PTE. LTD.,Aspire FT Pte Ltd,AspireBA,Key,SG AM-Rachel,2026-Q2,2026-Q3,293.3003726462157,293.3003726462157,1.0,-0.5859603942176421,-0.5987538230675717,158.33346065936752,108.69956129926774,0.6865229929706379,0.9996343615451376,-0.3131113685744997,Risk,Declining
91438,SGECME,ECOMMERCE ENABLERS PTE. LTD. (SGD),Aspire FT Pte Ltd,AspireOS,Key,SG AM-Rachel,2026-Q2,2026-Q3,292.5115947356499,96.48369730542007,0.3298457190820583,-0.5859603942176421,-0.5987538230675717,157.907651666543,108.40723363508003,0.6865229929706379,0.48396842060135953,0.20255457236927837,Safe,Growing
113081,SGLPRM,YOBO LABS PTE. LTD.,Aspire FT Pte Ltd,AspireBA,Key,SG AM - Caroline,2026-Q2,2026-Q3,288.312371369592,255.6593695663102,0.8867443611657462,-0.5859603942176421,-0.5987538230675717,155.6407688745746,106.85096647602425,0.6865229929706379,0.9413855583834585,-0.2548625654128206,Risk,Declining
89907,SGYBUE,MAX NOW PTE. LTD.,Aspire FT Pte Ltd,AspireOS,Key,SG AM-Rachel,2026-Q2,2026-Q3,286.90584780572647,-286.3606012818998,-0.9980995628775198,-0.5859603942176421,-0.5987538230675717,154.881479885759,106.32969712689292,0.6865229929706379,0.8043497061996581,-0.11782671322902016,Risk,Growing
87181,SGTVE4,TPA VENTURES PTE. LTD. (USD),Aspire FT Pte Ltd,AspireOS,Key,SG AM-Rachel,2026-Q2,2026-Q3,285.21292880000004,209.74426055638924,0.7353953463430414,-0.5859603942176421,-0.5987538230675717,153.96758495144877,105.70228724132956,0.6865229929706379,0.5054089811017245,0.1811140118689134,Safe,Declining
102316,SGDGLZ,PT Digital Laskar Pelangi,Aspire FT Pte Ltd,AspireBA,Key,Eureka,2026-Q2,2026-Q3,285.14890586950105,50.84024905796506,0.17829368449771363,-0.5859603942176421,-0.5987538230675717,153.9330232082911,105.67855980997467,0.6865229929706379,0.18718045981931788,0.49934253315132004,Safe,Growing
150189,SGENMN,MEDIATROPY PTE LTD (USD),Aspire FT Pte Ltd,AspireBA,Key,SG AM-Rachel,2026-Q2,2026-Q3,282.73361590716615,177.5564751755846,0.6279991666568725,-0.5859603942176421,-0.5987538230675717,152.62916800080518,104.78343323053109,0.6865229929706379,0.6640514472095348,0.022471545761103107,Safe,Declining
80159,SGGP7R,GEONODE PTE. LTD.,Aspire FT Pte Ltd,AspireBA,Key,SG AM-Rachel,2026-Q2,2026-Q3,282.42864072320646,195.97262738168115,0.6938836899822198,-0.5859603942176421,-0.5987538230675717,152.46453208215326,104.6704068869077,0.6865229929706379,0.8871077560256756,-0.2005847630550377,Risk,Declining
79736,SGU5T4,SIGNALPLUS SG PTE. LTD.,Aspire FT Pte Ltd,AspireBA,Scaled,SG AM-Rachel,2026-Q2,2026-Q3,279.7389171321346,169.9400381562383,0.6074951597670165,-0.5859603942176421,-0.5987538230675717,151.01252832044904,103.6735729186179,0.6865229929706379,0.5077786585158977,0.17874433445474025,Safe,Declining
116971,SGMPN4,MANGOSTAR PTE. LTD.,Aspire FT Pte Ltd,AspireBA,Key,SG AM - Caroline,2026-Q2,2026-Q3,277.45434390544796,277.45434390544796,1.0,-0.5859603942176421,-0.5987538230675717,149.7792384277446,102.826891050278,0.6865229929706379,0.974307366854419,-0.2877843738837811,Risk,Declining
68432,SGARP6,ARMADA-GROUP PTE. LTD.,Aspire FT Pte Ltd,AspireBA,Key,SG AM - Caroline,2026-Q2,2026-Q3,276.6405417438162,197.16337397091198,0.7127060000970347,-0.5859603942176421,-0.5987538230675717,149.3399204978671,102.52528919019284,0.6865229929706379,0.686198426288215,0.00032456668242286657,Safe,Declining
145961,SGGSTQ,GRAPESEED SERVICES PTE. LTD.,Aspire FT Pte Ltd,AspireBA,Key,SG AM-Rachel,2026-Q2,2026-Q3,275.93847211192247,239.21484808604762,0.8669137226686553,-0.5859603942176421,-0.5987538230675717,148.96091956636923,102.26509633636226,0.6865229929706379,0.7401306442315688,-0.05360765126093092,Risk,Declining
122962,SGEP8R,ERANOVA PTE. LTD.,Aspire FT Pte Ltd,AspireBA,Key,SG AM - Caroline,2026-Q2,2026-Q3,274.1886377883576,274.1886377883576,1.0,-0.5859603942176421,-0.5987538230675717,148.01629981859702,101.61659315990251,0.6865229929706379,0.9908883208592266,-0.3043653278885887,Risk,Declining
81235,SGDEDX,DECUBE DATA PTE. LTD.,Aspire FT Pte Ltd,AspireBA,Key,SG AM-Rachel,2026-Q2,2026-Q3,273.3611705991125,251.6935699817722,0.9207363629228963,-0.5859603942176421,-0.5987538230675717,147.56960504465857,101.30992692675395,0.6865229929706379,0.9166209716782935,-0.23009797870765558,Risk,Declining
70084,SGTSD5,ATTIX APAC PTE. LTD.,Aspire FT Pte Ltd,AspireOS,Key,SG AM-Rachel,2026-Q2,2026-Q3,270.5926135177165,152.36842238634424,0.5630915803855386,-0.5859603942176421,-0.5987538230675717,146.07504429870554,100.28387661026584,0.6865229929706379,0.7340380117755751,-0.04751501880493725,Risk,Declining
104000,SGRPBE,RADIAROSE PTE. LTD.,Aspire FT Pte Ltd,AspireBA,Key,SG AM-Rachel,2026-Q2,2026-Q3,270.369548294968,206.11889560608012,0.7623598770864843,-0.5859603942176421,-0.5987538230675717,145.95462614733444,100.20120678057856,0.6865229929706379,0.8341066317940985,-0.1475836388234606,Risk,Declining
107087,SGFGZX,OSOME LTD.,Aspire FT Pte Ltd,AspireOS,Key,SG AM-Rachel,2026-Q2,2026-Q3,269.88723163071217,191.58530252446812,0.709871679986014,-0.5859603942176421,-0.5987538230675717,145.69425529987757,100.02245620710018,0.6865229929706379,0.6590653836388015,0.027457609331836386,Safe,Declining
97027,SGLQUV,LIQUIDX VENTURES PTE. LTD.,Aspire FT Pte Ltd,AspireBA,Scaled,SG AM - Caroline,2026-Q2,2026-Q3,268.0846677897637,268.0846677897637,1.0,-0.5859603942176421,-0.5987538230675717,144.72117037529392,99.3544110322604,0.6865229929706379,0.957408188535974,-0.2708851955653361,Risk,Declining
116840,SGRPCV,RPC VENTURES PTE. LTD.,Aspire FT Pte Ltd,AspireBA,Scaled,SG AM-Rachel,2026-Q2,2026-Q3,267.560496253922,247.50005558048662,0.9250246544078858,-0.5859603942176421,-0.5987538230675717,144.43820485261088,99.16014869472053,0.6865229929706379,0.9112127125578328,-0.22468971958719486,Risk,Declining
97033,SGNPKD,NF INVESTMENTS PTE. LTD.,Aspire FT Pte Ltd,AspireBA,Key,SG AM - Caroline,2026-Q2,2026-Q3,267.3992602739726,267.3992602739726,1.0,-0.5859603942176421,-0.5987538230675717,144.3511642175859,99.10039329745312,0.6865229929706379,0.9996619513857187,-0.31313895841508077,Risk,Declining
107103,SGQUFM,QUANTUM FRONTIER PTE LTD,Aspire FT Pte Ltd,AspireBA,Key,SG AM - Caroline,2026-Q2,2026-Q3,263.96073129636085,263.96073129636085,1.0,-0.5859603942176421,-0.5987538230675717,142.49492998340887,97.82604581535135,0.6865229929706379,0.9980353996896959,-0.311512406719058,Risk,Declining
106869,SGVPRK,OVERMUGGED PTE. LTD.,Aspire FT Pte Ltd,AspireBA,Scaled,SG AM - Caroline,2026-Q2,2026-Q3,262.4016517215043,101.9800997594001,0.38864122649515565,-0.5859603942176421,-0.5987538230675717,141.65328610037116,97.24823793775288,0.6865229929706379,0.489085719532599,0.1974372734380389,Safe,Declining
122923,SGCTQP,HE CHUANG TECHNOLOGY (SINGAPORE) PTE. LTD.,Aspire FT Pte Ltd,AspireBA,Scaled,SG AM-Rachel,2026-Q2,2026-Q3,259.8077284284674,259.8077284284674,1.0,-0.5859603942176421,-0.5987538230675717,140.25299857954047,96.28690835793276,0.6865229929706379,0.994269803587157,-0.3077468106165191,Risk,Declining
76663,SGMEPR,MEDIQ PTE. LTD.,Aspire FT Pte Ltd,AspireBA,Key,SG AM-Rachel,2026-Q2,2026-Q3,259.2871425,259.2871425,1.0,-0.5859603942176421,-0.5987538230675717,139.97196868898445,96.09397487635401,0.6865229929706379,0.9796053753415683,-0.2930823823709304,Risk,Declining
50195,SGDEPK,Deliveree Private Limited,Aspire FT Pte Ltd,AspireBA,Key,SG AM-Rachel,2026-Q2,2026-Q3,259.2668366041738,139.65701093802556,0.5386612987886369,-0.5859603942176421,-0.5987538230675717,139.9610068796661,96.0864493422124,0.6865229929706379,0.6253087792778712,0.061214213692766695,Safe,Declining
84886,SGPATN,PATEN INTERNATIONAL PTE. LTD.,Aspire FT Pte Ltd,AspireBA,Key,SG AM - Caroline,2026-Q2,2026-Q3,258.38998782051686,231.82129472460034,0.8971759961753174,-0.5859603942176421,-0.5987538230675717,139.4876542509641,95.7614818788254,0.6865229929706379,0.8264593611373007,-0.13993636816666277,Risk,Declining
111968,SGDAT7,DASTGYR TECHNOLOGIES PTE. LTD. (USD),Aspire FT Pte Ltd,AspireBA,Scaled,SG AM - Caroline,2026-Q2,2026-Q3,255.7935,162.2935,0.6344707742769069,-0.5859603942176421,-0.5987538230675717,138.0859823114667,94.79920186375868,0.6865229929706379,0.6362928523573361,0.05023014061330178,Safe,Declining
79689,SGPSGR,PURPLE STONE CONSULTING PTE. LTD.,Aspire FT Pte Ltd,AspireBA,Key,SG AM-Rachel,2026-Q2,2026-Q3,251.86498749999998,251.86498749999998,1.0,-0.5859603942176421,-0.5987538230675717,135.9652384005175,93.34326240668959,0.6865229929706379,0.9826898601661145,-0.2961668671954766,Risk,Declining
108170,SGYNCA,YING CONSERVATION RESEARCH PTE. LTD.,Aspire FT Pte Ltd,AspireBA,Key,SG AM - Caroline,2026-Q2,2026-Q3,249.84343360788358,249.84343360788358,1.0,-0.5859603942176421,-0.5987538230675717,134.8739352400054,92.5940576946965,0.6865229929706379,0.9969240487269994,-0.31040105575636145,Risk,Declining
105103,SGTML4,TIME LOGISTICS & TECHNOLOGY PTE. LTD.,Aspire FT Pte Ltd,AspireBA,Key,SG AM - Caroline,2026-Q2,2026-Q3,249.65401558210874,249.55799208162114,0.9996153736992225,-0.5859603942176421,-0.5987538230675717,134.77168098351873,92.52385779648928,0.6865229929706379,0.989531732021948,-0.3030087390513101,Risk,Declining
104811,SGJK5R,SENSORFLOW PTE. LTD.,Aspire FT Pte Ltd,AspireBA,Key,SG AM-Rachel,2026-Q2,2026-Q3,243.70916484117885,128.73084394283055,0.5282150305127928,-0.5859603942176421,-0.5987538230675717,131.56244949696273,90.32064659120324,0.6865229929706379,0.4826775661858552,0.20384542678478268,Safe,Declining
78038,SGZUZG,MATHRIX SINGAPORE PTE. LTD.,Aspire FT Pte Ltd,AspireBA,Key,SG AM-Rachel,2026-Q2,2026-Q3,240.1763509570603,239.47510910223093,0.9970803043179104,-0.5859603942176421,-0.5987538230675717,129.65531708151005,89.01135633735535,0.6865229929706379,0.9869116864995369,-0.30038869352889896,Risk,Declining
124441,SGGSEU,GRAAS SDN. BHD.,Aspire FT Pte Ltd,AspireOS,Key,SG AM-Rachel,2026-Q2,2026-Q3,239.0748711,143.55080250605192,0.6004428731700858,-0.5859603942176421,-0.5987538230675717,129.0607010022959,88.6031387269848,0.6865229929706379,0.5937204452385284,0.0928025477321095,Safe,Declining
115951,SGSKPL,SKINSEOUL PTE. LTD.,Aspire FT Pte Ltd,AspireBA,Key,SG AM-Rachel,2026-Q2,2026-Q3,237.64366575932416,77.55488687862803,0.3263494805587306,-0.5859603942176421,-0.5987538230675717,128.28808795561318,88.07272210576801,0.6865229929706379,0.5295907392507175,0.15693225371992037,Safe,Growing
146431,SGGMW4,GEOSPOT MEDIA NETWORK PTE. LTD.,Aspire FT Pte Ltd,AspireBA,Key,SG AM-Rachel,2026-Q2,2026-Q3,235.57811121562966,122.97580004303965,0.5220170898240936,-0.5859603942176421,-0.5987538230675717,127.17303175526416,87.30721038577393,0.6865229929706379,0.8002025958484302,-0.11367960287779233,Risk,Declining
129875,SGJSP7,Clarus Technology Limited,Aspire FT Pte Ltd,AspireBA,Key,SG AM - Caroline,2026-Q2,2026-Q3,233.13698910122366,233.13698910122366,1.0,-0.5859603942176421,-0.5987538230675717,125.85523147843935,86.40251019559062,0.6865229929706379,0.9453958462136386,-0.2588728532430007,Risk,Declining
174591,SGZYLU,ZYNK LABS PTE LTD,AFT HK Limited,AspireBA,Key,SG AM-Rachel,2026-Q2,2026-Q3,231.68284066483963,189.68284066483963,0.8187176923440841,-0.5859603942176421,-0.5987538230675717,125.07023297275107,85.86359067198804,0.6865229929706379,0.9906814100358403,-0.3041584170652024,Risk,Declining
72754,SGBUFP,BUFFALOGAMES PTE. LTD.,Aspire FT Pte Ltd,AspireBA,Key,SG AM - Caroline,2026-Q2,2026-Q3,231.56862427773424,231.56862427773424,1.0,-0.5859603942176421,-0.5987538230675717,125.00857510415976,85.82126112750254,0.6865229929706379,0.7298573631646039,-0.04333437019396602,Risk,Declining
75311,SGPNBU,PEARLMIRROR INNOVATION PTE. LTD.,Aspire FT Pte Ltd,AspireBA,Key,SG AM-Rachel,2026-Q2,2026-Q3,230.15439441527963,230.15439441527963,1.0,-0.5859603942176421,-0.5987538230675717,124.2451259947365,85.29713575992051,0.6865229929706379,0.9862478526866568,-0.2997248597160189,Risk,Declining
110176,SGE7RP,Tecfinics Pte Ltd,Aspire FT Pte Ltd,AspireBA,Key,SG AM-Rachel,2026-Q2,2026-Q3,229.93896088558094,141.54810736709678,0.6155899236125191,-0.5859603942176421,-0.5987538230675717,124.12882768937975,85.21729429924957,0.6865229929706379,0.8183602875238547,-0.1318372945532168,Risk,Declining
104726,SGBLTH,BLUE TECHNOLOGY COMPANY LIMITED,Aspire FT Pte Ltd,AspireBA,Scaled,SG AM-Rachel,2026-Q2,2026-Q3,229.18667670000002,61.25776889813817,0.26728328967535553,-0.5859603942176421,-0.5987538230675717,123.72271924353056,84.93849151353454,0.6865229929706379,0.13116563981733648,0.5553573531533014,Safe,Growing
118608,SGGFNE,GROCK FOUNDATION PTE. LTD.,Aspire FT Pte Ltd,AspireBA,Key,SG AM-Rachel,2026-Q2,2026-Q3,229.1619881689647,156.50303839477502,0.68293629168282,-0.5859603942176421,-0.5987538230675717,123.70939153950431,84.929341738277,0.6865229929706379,0.6647665361422807,0.02175645682835725,Safe,Declining
103959,SGSQPY,SQUAREX PTE. LTD.,Aspire FT Pte Ltd,AspireOS,Key,SG AM-Rachel,2026-Q2,2026-Q3,228.50820404179464,109.8609429616752,0.4807746112326952,-0.5859603942176421,-0.5987538230675717,123.35645675648628,84.68704389471603,0.6865229929706379,0.720784637202104,-0.03426164423146605,Risk,Declining
133410,SGNNTX,Nonce Technology Pte. Ltd.,Aspire FT Pte Ltd,AspireBA,Key,SG AM-Rachel,2026-Q2,2026-Q3,227.16054110613766,227.16054110613766,1.0,-0.5859603942176421,-0.5987538230675717,122.62894272546144,84.18758878470872,0.6865229929706379,0.9991234320806961,-0.3126004391100582,Risk,Declining
133261,SGJVHF,CAVAS C A PTE LTD,Aspire FT Pte Ltd,AspireBA,Key,SG AM - Caroline,2026-Q2,2026-Q3,225.7184575,225.7184575,1.0,-0.5859603942176421,-0.5987538230675717,121.8504572231763,83.65314058769569,0.6865229929706379,0.993442633188284,-0.30691964021764606,Risk,Declining
127680,SGCAER,CIRCLE ASIA TECHNOLOGIES PTE. LTD.,Aspire FT Pte Ltd,AspireBA,Key,SG AM - Caroline,2026-Q2,2026-Q3,225.1557161609723,185.13832967703064,0.8222679523031442,-0.5859603942176421,-0.5987538230675717,121.54667041629142,83.44458395980807,0.6865229929706379,0.9616028755438398,-0.27507988257320193,Risk,Declining
66817,SGKRRT,KRRAVE TECHNOLOGIES PTE. LTD.,Aspire FT Pte Ltd,AspireBA,Key,SG AM - Caroline,2026-Q2,2026-Q3,224.53173865801398,151.66526581132928,0.6754736177513497,-0.5859603942176421,-0.5987538230675717,121.20982625709168,83.21333269946959,0.6865229929706379,0.8425680059495017,-0.15604501297886375,Risk,Declining
67575,SGSTNE,STELLAR NATION TRADING PTE.LTD.,Aspire FT Pte Ltd,AspireBA,Key,SG AM - Caroline,2026-Q2,2026-Q3,222.62398563592356,217.12398563592356,0.9752946656475973,-0.5859603942176421,-0.5987538230675717,120.17995665499849,82.50630353787109,0.6865229929706379,0.9980889359408952,-0.3115659429702573,Risk,Declining
146925,SGLT93,LUSTRON TECHNOLOGY PTE. LTD.,Aspire FT Pte Ltd,AspireBA,Key,SG AM-Rachel,2026-Q2,2026-Q3,222.25423268365017,222.25423268365017,1.0,-0.5859603942176421,-0.5987538230675717,119.98035150620763,82.36927001371085,0.6865229929706379,0.9975786486774079,-0.31105565570676996,Risk,Declining
81903,SGCAUA,CAUCHYE ASIA PTE. LTD.,Aspire FT Pte Ltd,AspireBA,Scaled,SG AM-Rachel,2026-Q2,2026-Q3,220.35075618349904,195.0811090677226,0.8853208060028942,-0.5859603942176421,-0.5987538230675717,118.95279051529049,81.66382576676654,0.6865229929706379,0.7053207794122407,-0.018797786441602793,Risk,Declining
69417,SGZAUT,ZAURAC TECHNOLOGIES PTE. LTD.,Aspire FT Pte Ltd,AspireBA,Key,SG AM-Rachel,2026-Q2,2026-Q3,218.60349220244888,121.13163740786376,0.5541157471340104,-0.5859603942176421,-0.5987538230675717,118.00955832533742,81.01627518065371,0.6865229929706379,0.47444641943770766,0.21207657353293025,Safe,Declining
134854,SGQPUW,QUAK PTE. LTD,Aspire FT Pte Ltd,AspireBA,Key,SG AM-Rachel,2026-Q2,2026-Q3,216.84543780880472,216.6902543290804,0.9992843590287515,-0.5859603942176421,-0.5987538230675717,117.0605011057312,80.36472557774925,0.6865229929706379,0.6657115818390795,0.020811411131558377,Safe,Declining
175907,SGGPVM,GLOBAL PHARMACEUTICAL STRATEGIC ADVISORY GPSA PTE LTD,Aspire FT Pte Ltd,AspireBA,Scaled,SG AM-Rachel,2026-Q2,2026-Q3,216.08475499999997,216.08475499999997,1.0,-0.5859603942176421,-0.5987538230675717,116.6498587990219,80.08281019230681,0.6865229929706379,0.9880972317169128,-0.30157423874627487,Risk,Declining
137290,SGDRDU,SPRING STAR FINANCIAL CONSULTING PTE. LTD.,Aspire FT Pte Ltd,AspireBA,Key,SG AM-Rachel,2026-Q2,2026-Q3,215.4837425575436,215.42983026015915,0.9997498080516676,-0.5859603942176421,-0.5987538230675717,116.32541195616622,79.86006997468967,0.6865229929706379,0.9994801530817138,-0.3129571601110759,Risk,Declining
134548,SGGVDN,GREENBOY VENTURES LIMITED,AFT HK Limited,AspireBA,Key,SG AM - Caroline,2026-Q2,2026-Q3,213.50380754982473,213.50380754982473,1.0,-0.5859603942176421,-0.5987538230675717,115.25657607701481,79.12628956794023,0.6865229929706379,0.9997493819613117,-0.3132263889906738,Risk,Declining
124461,SGSHKL,OSHIKATSU LABO PTE. LTD.,Aspire FT Pte Ltd,AspireBA,Key,SG AM - Caroline,2026-Q2,2026-Q3,212.54570222551942,135.5012991538996,0.637516062357861,-0.5859603942176421,-0.5987538230675717,114.73935841955071,78.77120775372072,0.6865229929706379,0.6916257998775606,-0.005102806906922663,Risk,Declining
101612,SGBPFB,BUGUARD PTE. LTD,Aspire FT Pte Ltd,AspireBA,Scaled,SG AM-Rachel,2026-Q2,2026-Q3,211.41448455709377,107.4073978869777,0.5080418123289546,-0.5859603942176421,-0.5987538230675717,114.12868886401999,78.35196906274172,0.6865229929706379,0.5859579501963227,0.10056504277431522,Safe,Declining
77547,SGRUGC,RUGGABLE CORPORATION PTE. LTD.,Aspire FT Pte Ltd,AspireBA,Key,SG AM-Rachel,2026-Q2,2026-Q3,211.20161000000002,211.20161000000002,1.0,-0.5859603942176421,-0.5987538230675717,114.0137719786206,78.27307597863447,0.6865229929706379,0.9949616031693338,-0.3084386101986959,Risk,Declining
78230,SGBPQA,BUNZZ PTE. LTD.,Aspire FT Pte Ltd,AspireBA,Key,SG AM - Caroline,2026-Q2,2026-Q3,209.5827228138097,174.16666745281765,0.8310163410155942,-0.5859603942176421,-0.5987538230675717,113.13984192427391,77.67310290207737,0.6865229929706379,0.9330513809296768,-0.24652838795903886,Risk,Declining
70476,SGTPSH,SH TECH PTE. LTD.,Aspire FT Pte Ltd,AspireBA,Key,SG AM-Rachel,2026-Q2,2026-Q3,209.296765449662,115.14795824057086,0.5501659712379317,-0.5859603942176421,-0.5987538230675717,112.98547246794472,77.56712472089501,0.6865229929706379,0.42031089723470166,0.26621209573593624,Safe,Declining
127467,SGSMDV,SMART DATA PTE. LTD.,Aspire FT Pte Ltd,AspireBA,Key,SG AM-Rachel,2026-Q2,2026-Q3,207.65219575518353,207.65219575518353,1.0,-0.5859603942176421,-0.5987538230675717,112.09767812703407,76.95763349283064,0.6865229929706379,0.9547290396836373,-0.2682060467129994,Risk,Declining
131533,SGEEV4,TAPPADS PTE. LTD.,Aspire FT Pte Ltd,AspireBA,Key,SG AM-Rachel,2026-Q2,2026-Q3,207.34284198589802,190.75569977416615,0.9200013752446781,-0.5859603942176421,-0.5987538230675717,111.93067849993821,76.8429844090118,0.6865229929706379,0.45376673760044,0.2327562553701979,Safe,Declining
91832,SGFRPA,FIRST PAGE DIGITAL PTE. LTD.,Aspire FT Pte Ltd,AspireOS,Key,SG AM-Rachel,2026-Q2,2026-Q3,207.0275137581692,36.15854321576366,0.17465573806774687,-0.5859603942176421,-0.5987538230675717,111.7604536581167,76.72612114112655,0.6865229929706379,-0.018310895298292676,0.7048338882689306,Safe,Growing
107711,SGHAHM,HATI HEALTH PTE. LTD.,Aspire FT Pte Ltd,AspireBA,Scaled,SG AM - Caroline,2026-Q2,2026-Q3,206.44182682667997,176.06817636267718,0.8528706564416171,-0.5859603942176421,-0.5987538230675717,111.44428004439442,76.50906068553559,0.6865229929706379,0.8179106119605848,-0.13138761898994689,Risk,Declining
76632,SGLKAP,LKA PACIFIC PTE. LTD.,Aspire FT Pte Ltd,AspireBA,Key,SG AM - Caroline,2026-Q2,2026-Q3,206.4342084284674,205.92887399037727,0.9975520799486813,-0.5859603942176421,-0.5987538230675717,111.44016737538279,76.50623724369663,0.6865229929706379,0.984420316297772,-0.29789732332713414,Risk,Declining
74054,SGPL5G,Primal Co Ltd,Aspire FT Pte Ltd,AspireBA,Key,SG AM-Rachel,2026-Q2,2026-Q3,205.65162808949972,34.51947874410971,0.16785414764179163,-0.5859603942176421,-0.5987538230675717,111.01770404131061,76.21620645116904,0.6865229929706379,0.5906835058952901,0.09583948707534784,Safe,Growing
116405,SG48H5,PENGYUAN PHARMA LIMITED,AFT HK Limited,AspireBA,Key,SG AM - Caroline,2026-Q2,2026-Q3,205.5530801458175,205.5530801458175,1.0,-0.5859603942176421,-0.5987538230675717,110.96450452839049,76.17968376233455,0.6865229929706379,0.9949605351567039,-0.308437542186066,Risk,Declining
127602,SGY5NA,NARWHAL PROJECT PTE. LTD.,Aspire FT Pte Ltd,AspireBA,Scaled,SG AM-Rachel,2026-Q2,2026-Q3,205.45736344611836,138.59855341453218,0.6745854764698173,-0.5859603942176421,-0.5987538230675717,110.91283341672592,76.14421035610447,0.6865229929706379,0.6928120038319849,-0.006289010861347033,Risk,Declining
74389,SGZERB,ZERO BYTE LABS PTE. LTD.,Aspire FT Pte Ltd,AspireBA,Key,SG AM-Rachel,2026-Q2,2026-Q3,204.29686593792465,168.9765773095035,0.8271129198861369,-0.5859603942176421,-0.5987538230675717,110.28635761343561,75.71412031260591,0.6865229929706379,0.9540702161202198,-0.2675472231495819,Risk,Declining
146485,SGSYPB,SYNGENTIX PTE. LTD.,Aspire FT Pte Ltd,AspireBA,Key,SG AM-Rachel,2026-Q2,2026-Q3,204.1698732701173,204.1698732701173,1.0,-0.5859603942176421,-0.5987538230675717,110.2178026764238,75.66705577206565,0.6865229929706379,0.9853236331699323,-0.2988006401992944,Risk,Declining
137806,SGEQTJ,LEARTBAR PARTNERS PTE. LTD.,Aspire FT Pte Ltd,AspireBA,Key,SG AM - Caroline,2026-Q2,2026-Q3,203.73171340414183,192.73171340414183,0.9460074240961233,-0.5859603942176421,-0.5987538230675717,109.98126916207461,75.50467007585678,0.6865229929706379,0.9154023442206354,-0.22887935124999748,Risk,Declining
63053,SGTNAP,Tinai Private Limited,Aspire FT Pte Ltd,AspireBA,Key,SG AM - Caroline,2026-Q2,2026-Q3,203.7118344247956,191.83726411306253,0.9417089814871958,-0.5859603942176421,-0.5987538230675717,109.97053781671057,75.49730276051886,0.6865229929706379,0.9690135722459972,-0.28249057927535925,Risk,Declining
116571,SGMTDL,MINGRUI TECH PTE. LTD.,Aspire FT Pte Ltd,AspireBA,Scaled,SG AM-Rachel,2026-Q2,2026-Q3,202.72660904108318,182.6305855405956,0.9008713084308777,-0.5859603942176421,-0.5987538230675717,109.4386798339701,75.13217002637255,0.6865229929706379,0.9403466043939096,-0.2538236114232717,Risk,Declining
72551,SGENDL,Endowus HK Limited,Aspire FT Pte Ltd,AspireBA,Key,SG AM-Rachel,2026-Q2,2026-Q3,201.6407723,72.71236619139488,0.36060348986966695,-0.5859603942176421,-0.5987538230675717,108.85250843781519,74.7297498850905,0.6865229929706379,0.4215165153258422,0.2650064776447957,Safe,Growing
142469,SGCCHR,CROSSPOINT CAPITAL ASIA PTE. LTD.,Aspire FT Pte Ltd,AspireBA,Key,SG AM - Caroline,2026-Q2,2026-Q3,196.70626256310956,196.70626256310956,1.0,-0.5859603942176421,-0.5987538230675717,106.18869319526989,72.9009794720575,0.6865229929706379,0.9951015434151614,-0.30857855044452354,Risk,Declining
86188,SGTSAK,HR TECH SOLUTIONS PTE. LTD.,Aspire FT Pte Ltd,AspireBA,Key,SG AM-Rachel,2026-Q2,2026-Q3,196.69955903462827,193.02166058044085,0.9813019486559198,-0.5859603942176421,-0.5987538230675717,106.18507440388038,72.89849508856183,0.6865229929706379,0.9748915263250266,-0.2883685333543887,Risk,Declining
117503,SGKASE,KAIN SUITE PTE. LTD.,Aspire FT Pte Ltd,AspireBA,Key,SG AM-Rachel,2026-Q2,2026-Q3,196.30093486666667,103.4718820111674,0.527108452547353,-0.5859603942176421,-0.5987538230675717,105.969883596428,72.75076165136986,0.6865229929706379,0.5860303837587083,0.1004926092119296,Safe,Declining
84818,SGTRS9,EXO TRAVEL (SINGAPORE) CO. PTE. LTD. (USD),Aspire FT Pte Ltd,AspireBA,Key,SG AM - Caroline,2026-Q2,2026-Q3,194.970312,96.19233168418126,0.4933691221881065,-0.5859603942176421,-0.5987538230675717,105.25156837094431,72.25762173287441,0.6865229929706379,0.5633603434830079,0.12316264948763,Safe,Declining
85909,SGPSNF,PRASAD SEEDS GLOBAL PTE. LTD.,Aspire FT Pte Ltd,AspireBA,Scaled,SG AM - Caroline,2026-Q2,2026-Q3,194.15648106619216,194.10256876880774,0.9997223255330527,-0.5859603942176421,-0.5987538230675717,104.8122349088731,71.95600920958113,0.6865229929706379,0.9741237995953587,-0.28760080662472076,Risk,Declining
66536,SGTAZT,TAZAH TECHNOLOGIES PTE. LTD.,Aspire FT Pte Ltd,AspireBA,Key,SG AM-Rachel,2026-Q2,2026-Q3,194.0233666184575,188.5233666184575,0.9716528988448303,-0.5859603942176421,-0.5987538230675717,104.7403752280161,71.90667588640528,0.6865229929706379,0.9161746368160071,-0.22965164384536918,Risk,Declining
81384,SGATPA,ATOP AESTHETIC PTE. LTD.,Aspire FT Pte Ltd,AspireBA,Scaled,SG AM-Rachel,2026-Q2,2026-Q3,193.72389092550307,124.98658510788374,0.645178994241591,-0.5859603942176421,-0.5987538230675717,104.57870812060321,71.79568769995927,0.6865229929706379,0.6374314254008947,0.0490915675697432,Safe,Declining
121341,SGPAV3,PANACEA VENTURES PTE. LTD.,Aspire FT Pte Ltd,AspireBA,Key,SG AM - Caroline,2026-Q2,2026-Q3,193.5506767827415,193.1086674620422,0.9977163121925146,-0.5859603942176421,-0.5987538230675717,104.48520126818724,71.73149309577539,0.6865229929706379,0.9976814696637637,-0.3111584766931258,Risk,Declining
95797,SGNBCC,PALE BLUE DOT AI PTE. LTD.,Aspire FT Pte Ltd,AspireBA,Scaled,SG AM-Rachel,2026-Q2,2026-Q3,193.45462871695747,146.42249411755435,0.7568828675161058,-0.5859603942176421,-0.5987538230675717,104.43335127390314,71.69589688251396,0.6865229929706379,0.8023789310820478,-0.11585593811140993,Risk,Declining
63773,SGHEPM,HEXECON PTE. LTD.,Aspire FT Pte Ltd,AspireBA,Scaled,SG AM - Caroline,2026-Q2,2026-Q3,192.4251082426334,90.47224074517621,0.4701685843985474,-0.5859603942176421,-0.5987538230675717,103.87758130317752,71.3143480188082,0.6865229929706379,0.4681286423259653,0.2183943506446726,Safe,Declining
122552,SGCPS7,CYBROG PTE. LTD.,Aspire FT Pte Ltd,AspireBA,Key,SG AM - Caroline,2026-Q2,2026-Q3,191.8753563248859,78.0598523019534,0.40682583629854696,-0.5859603942176421,-0.5987538230675717,103.58080662520574,71.11060537864913,0.6865229929706379,0.41344498631401916,0.27307800665661874,Safe,Declining
87493,SGGTZ7,GETGO TECHNOLOGIES PTE. LTD.,Aspire FT Pte Ltd,AspireOS,Key,SG AM-Rachel,2026-Q2,2026-Q3,191.57665960941597,96.10179773000704,0.5016362532154917,-0.5859603942176421,-0.5987538230675717,103.41956003618422,70.99990588774777,0.6865229929706379,0.31318252887748876,0.37334046409314914,Safe,Declining
147638,SGBMM2,BEFITTING MOTION PTE. LTD.,Aspire FT Pte Ltd,AspireBA,Key,SG AM-Rachel,2026-Q2,2026-Q3,190.288,190.288,1.0,-0.5859603942176421,-0.5987538230675717,102.72389799617416,70.52231790194399,0.6865229929706379,0.996113786438847,-0.30959079346820906,Risk,Declining
96714,SGATD6,Atas Digital Pte Ltd,Aspire FT Pte Ltd,AspireBA,Key,SG AM-Rachel,2026-Q2,2026-Q3,189.66391404566957,189.66391404566957,1.0,-0.5859603942176421,-0.5987538230675717,102.38699529125589,70.2910264486236,0.6865229929706379,0.9591492235462815,-0.2726262305756436,Risk,Declining
128220,SGNEV8,NEW VISION MEDICAL SUPPLIES PTE. LTD.,Aspire FT Pte Ltd,AspireBA,Key,SG AM - Caroline,2026-Q2,2026-Q3,189.50877963586848,189.50877963586848,1.0,-0.5859603942176421,-0.5987538230675717,102.30324849015388,70.23353234407934,0.6865229929706379,0.981874979228153,-0.29535198625751513,Risk,Declining
90238,SGATSP,ATISFY PTE. LTD.,Aspire FT Pte Ltd,AspireBA,Scaled,SG AM-Rachel,2026-Q2,2026-Q3,187.432009,115.09547494193069,0.6140652045293432,-0.5859603942176421,-0.5987538230675717,101.18213746391783,69.46386384689538,0.6865229929706379,0.5945016001894372,0.0920213927812007,Safe,Declining
70215,SGFACT,Factail Technologies Pte. Ltd.,Aspire FT Pte Ltd,AspireBA,Key,SG AM-Rachel,2026-Q2,2026-Q3,186.13309,186.13309,1.0,-0.5859603942176421,-0.5987538230675717,100.48093705789489,68.98247364548028,0.6865229929706379,0.9975319948651239,-0.311009001894486,Risk,Declining
122161,SGGRN8,PT GRAAS INDONESIA TECHNOLOGY,Aspire FT Pte Ltd,AspireOS,Key,SG AM-Rachel,2026-Q2,2026-Q3,185.99952173947406,58.97508458637745,0.31707116252149675,-0.5859603942176421,-0.5987538230675717,100.40883239354508,68.9329721355037,0.6865229929706379,0.30782366325519833,0.37869932971543957,Safe,Growing
68077,SGGAP7,GAMAI PTE. LTD.,Aspire FT Pte Ltd,AspireBA,Key,SG AM-Rachel,2026-Q2,2026-Q3,184.95268418600364,184.95268418600364,1.0,-0.5859603942176421,-0.5987538230675717,99.84371407782754,68.54500541801478,0.6865229929706379,0.9581509956323939,-0.271628002661756,Risk,Declining
103911,SGRNXQ,SUPERBENCH PTE LTD,Aspire FT Pte Ltd,AspireBA,Key,SG AM-Rachel,2026-Q2,2026-Q3,183.23987826611193,64.36786113812663,0.3512764893057163,-0.5859603942176421,-0.5987538230675717,98.9190835146696,67.91022527640345,0.6865229929706379,0.9203768731946812,-0.2338538802240433,Risk,Growing
74194,SGBEDH,BEAM DATA PTE LTD,Aspire FT Pte Ltd,AspireBA,Key,SG AM - Caroline,2026-Q2,2026-Q3,183.15919187420457,183.15919187420457,1.0,-0.5859603942176421,-0.5987538230675717,98.8755262714805,67.88032222744373,0.6865229929706379,0.9963181288981936,-0.3097951359275557,Risk,Declining
132801,SGPZYU,AUMENT CAPITAL GROUP PTE LTD,Aspire FT Pte Ltd,AspireBA,Key,SG AM - Caroline,2026-Q2,2026-Q3,183.13428195444752,82.06970078088278,0.4481394739696888,-0.5859603942176421,-0.5987538230675717,98.86207905433483,67.87109040368176,0.6865229929706379,0.9406364673518132,-0.25411347438117526,Risk,Declining
59305,SGHMPF,Princep Pte. Ltd.,Aspire FT Pte Ltd,AspireBA,Scaled,SG AM - Caroline,2026-Q2,2026-Q3,182.4979302540485,156.29522524128998,0.8564219058469172,-0.5859603942176421,-0.5987538230675717,98.51855488485761,67.6352531626945,0.6865229929706379,0.8404118899985288,-0.15388889702789088,Risk,Declining
93238,CNGREP,GREATTEC PTE. LTD.,Aspire FT Pte Ltd,AspireBA,Key,SG AM-Rachel,2026-Q2,2026-Q3,182.294525,182.294525,1.0,-0.5859603942176421,-0.5987538230675717,98.40874984949664,67.55986948117526,0.6865229929706379,0.9740706015570708,-0.2875476085864329,Risk,Declining
86112,SGANPH,ANPRI HOLDINGS PTE. LTD.,Aspire FT Pte Ltd,AspireBA,Key,SG AM - Caroline,2026-Q2,2026-Q3,182.18018742191776,168.02627010563324,0.9223081416449257,-0.5859603942176421,-0.5987538230675717,98.34702655791732,67.5174950223042,0.6865229929706379,0.9837126412788286,-0.2971896483081907,Risk,Declining
128829,SGLNDN,LINDER INTERNATION PTE. LTD.,Aspire FT Pte Ltd,AspireBA,Key,SG AM-Rachel,2026-Q2,2026-Q3,180.12821,180.12821,1.0,-0.5859603942176421,-0.5987538230675717,97.23929974708567,66.75701509673824,0.6865229929706379,0.9984749759269682,-0.3119519829563303,Risk,Declining
87708,SGRDPE,RIDMIK PTE. LTD.,Aspire FT Pte Ltd,AspireBA,Key,SG AM-Rachel,2026-Q2,2026-Q3,178.22670237211938,162.7561091846916,0.9131971080566439,-0.5859603942176421,-0.5987538230675717,96.21280162000798,66.05230053025812,0.6865229929706379,0.965516313907459,-0.27899332093682105,Risk,Declining
97373,SGPPJD,AP PREMIER PTE. LTD.,Aspire FT Pte Ltd,AspireBA,Key,SG AM-Rachel,2026-Q2,2026-Q3,177.39785750000001,177.39785750000001,1.0,-0.5859603942176421,-0.5987538230675717,95.7653631262604,65.74512371636025,0.6865229929706379,0.9304746824514248,-0.24395168948078694,Risk,Declining
73402,SGFVPM,S FIVE PTE. LTD.,Aspire FT Pte Ltd,AspireBA,Scaled,SG AM-Rachel,2026-Q2,2026-Q3,176.14612749999998,158.8461275,0.90178608950685,-0.5859603942176421,-0.5987538230675717,95.08963693838331,65.28122215143023,0.6865229929706379,0.8261521376619084,-0.13962914469127052,Risk,Declining
131506,SGFUPJ,1MX AI FUND I PTE. LTD.,Aspire FT Pte Ltd,AspireBA,Scaled,SG AM - Caroline,2026-Q2,2026-Q3,174.9042925,163.90429250000003,0.9371084617605941,-0.5859603942176421,-0.5987538230675717,94.41925240615808,64.82098775592574,0.6865229929706379,0.9603406213433114,-0.27381762837267354,Risk,Declining
70049,SGTAPB,TANKARD PTE. LTD.,Aspire FT Pte Ltd,AspireBA,Key,SG AM-Rachel,2026-Q2,2026-Q3,174.35305883123993,174.35305883123993,1.0,-0.5859603942176421,-0.5987538230675717,94.12167782887644,64.61669596649838,0.6865229929706379,0.9918491537952515,-0.3053261608246136,Risk,Declining
143025,SG5TP2,HANGCHENGDA MARINE SUPPLY & TECHNICAL SERVICES PTE. LTD.,Aspire FT Pte Ltd,AspireBA,Scaled,SG AM - Caroline,2026-Q2,2026-Q3,173.45388232049325,139.96063590419317,0.8069040256221298,-0.5859603942176421,-0.5987538230675717,93.63627193796111,64.28345366146162,0.6865229929706379,0.7363738825679419,-0.04985088959730399,Risk,Declining
123356,SGAPG5,APPFACTORY GLOBAL PTE. LTD.,Aspire FT Pte Ltd,AspireBA,Key,SG AM-Rachel,2026-Q2,2026-Q3,173.06579837867193,100.74522760446112,0.5821209536966296,-0.5859603942176421,-0.5987538230675717,93.42677110105281,64.13962651987747,0.6865229929706379,0.6785383076132809,0.007984685357356969,Safe,Declining
80966,SGARLC,"AIRR LABS (VIETNAM) CO., LTD.",Aspire FT Pte Ltd,AspireBA,Key,SG AM-Rachel,2026-Q2,2026-Q3,172.40972225461445,16.434627263893553,0.09532308879671482,-0.5859603942176421,-0.5987538230675717,93.07259902059894,63.89647924317765,0.6865229929706379,0.43640708623853414,0.25011590673210377,Safe,Growing
105899,SGPP3P,PROCREDIT PTE. LTD.,Aspire FT Pte Ltd,AspireBA,Key,SG AM - Caroline,2026-Q2,2026-Q3,171.94138694010766,171.94138694010766,1.0,-0.5859603942176421,-0.5987538230675717,92.81977577858999,63.72291027438112,0.6865229929706379,0.9877899023055208,-0.30126690933488287,Risk,Declining
142788,SGUTAL,UTAK LIMITED,AFT HK Limited,AspireBA,Key,SG AM - Caroline,2026-Q2,2026-Q3,171.53122124712598,171.53122124712598,1.0,-0.5859603942176421,-0.5987538230675717,92.598354465594,63.570899451875626,0.6865229929706379,0.9286772525014477,-0.24215425953080982,Risk,Declining
107250,SGQELS,QUANTUM EMPIRE PTE. LTD.,Aspire FT Pte Ltd,AspireBA,Key,SG AM - Caroline,2026-Q2,2026-Q3,170.4262128492897,170.4262128492897,1.0,-0.5859603942176421,-0.5987538230675717,92.00183356073269,63.16137413490069,0.6865229929706379,0.9739934868294299,-0.287470493858792,Risk,Declining
72462,SGRPS6,REWIND PTE LTD,Aspire FT Pte Ltd,AspireBA,Key,SG AM-Rachel,2026-Q2,2026-Q3,170.01183759999998,0.6693624316187896,0.003937151912878269,-0.5859603942176421,-0.5987538230675717,91.77813978687317,63.007803215761754,0.6865229929706379,0.5811690093676126,0.10535398360302528,Safe,Growing
79131,SGWSAF,WHITE STORM CONSULTING PTE. LTD.,Aspire FT Pte Ltd,AspireBA,Key,SG AM-Rachel,2026-Q2,2026-Q3,169.41391876279218,169.41391876279218,1.0,-0.5859603942176421,-0.5987538230675717,91.45536297675731,62.7862095140195,0.6865229929706379,0.9996149758325285,-0.31309198286189055,Risk,Declining
130037,SGXT7U,SOCMA ASIA PTE. LTD.,Aspire FT Pte Ltd,AspireBA,Key,SG AM - Caroline,2026-Q2,2026-Q3,169.3819567056812,158.3819567056812,0.9350580179026173,-0.5859603942176421,-0.5987538230675717,91.43810877736264,62.77436410940976,0.6865229929706379,0.9840987566268491,-0.2975757636562112,Risk,Declining
83560,SGZAPG,IZANAGI PTE. LTD.,Aspire FT Pte Ltd,AspireBA,Key,SG AM-Rachel,2026-Q2,2026-Q3,169.26711649788484,125.66463047557963,0.7424042724633401,-0.5859603942176421,-0.5987538230675717,91.37611414926452,62.73180337177973,0.6865229929706379,0.8007331477157852,-0.11421015474514729,Risk,Declining
130416,SGWNAT,WINAI TECH PTE. LTD.,Aspire FT Pte Ltd,AspireBA,Scaled,SG AM-Rachel,2026-Q2,2026-Q3,167.5689768733708,167.5689768733708,1.0,-0.5859603942176421,-0.5987538230675717,90.45940094836986,62.102458681405835,0.6865229929706379,0.9353193248852484,-0.24879633191461048,Risk,Declining
67502,SGQAPF,Qapita Fintech Pte Ltd,Aspire FT Pte Ltd,AspireOS,Key,SG AM-Rachel,2026-Q2,2026-Q3,167.19464853308764,103.49347392605844,0.6189999191605537,-0.5859603942176421,-0.5987538230675717,90.25732585039037,61.96372948033613,0.6865229929706379,0.5769396184020122,0.10958337456862566,Safe,Declining
76748,SGRUPG,DrVishys SIA Limited,Aspire FT Pte Ltd,AspireBA,Scaled,SG AM - Caroline,2026-Q2,2026-Q3,166.01150479999998,97.24978641169827,0.5858014872454688,-0.5859603942176421,-0.5987538230675717,89.61862484900033,61.52524655724849,0.6865229929706379,0.3555696703051483,0.3309533226654896,Safe,Declining
111310,SGCNMZ,KC CONNEKT MEDIA PTE. LTD.,Aspire FT Pte Ltd,AspireBA,Scaled,SG AM-Rachel,2026-Q2,2026-Q3,165.68507397780874,138.01077491550367,0.8329704758679006,-0.5859603942176421,-0.5987538230675717,89.442406451195,61.40426857537068,0.6865229929706379,0.8497423362836002,-0.16321934331296228,Risk,Declining
70447,SGWPYJ,WEBAFFINITI PTE. LTD.,Aspire FT Pte Ltd,AspireBA,Scaled,SG AM-Rachel,2026-Q2,2026-Q3,165.1080069661652,65.40958177260738,0.3961623846989532,-0.5859603942176421,-0.5987538230675717,89.1308861617336,61.190402733878564,0.6865229929706379,0.47710675990106,0.2094162330695779,Safe,Declining
77915,SGURTT,URTON TRADING PTE. LTD.,Aspire FT Pte Ltd,AspireBA,Key,SG AM - Caroline,2026-Q2,2026-Q3,164.96836183333335,109.33575618048664,0.6627680299750323,-0.5859603942176421,-0.5987538230675717,89.0555009961915,61.13864908440501,0.6865229929706379,0.7531943378585143,-0.0666713448878764,Risk,Declining
126503,SGWLH7,WORDTECH LABORATORY PTE. LTD.,Aspire FT Pte Ltd,AspireBA,Scaled,SG AM-Rachel,2026-Q2,2026-Q3,164.3024414934327,109.00916784468933,0.6634665124501301,-0.5859603942176421,-0.5987538230675717,88.69601467509118,60.891853459311214,0.6865229929706379,0.7245395805905605,-0.03801658761992255,Risk,Declining
77290,SGGLDA,GOLDIE AGENCY PTE. LTD.,Aspire FT Pte Ltd,AspireBA,Key,SG AM-Rachel,2026-Q2,2026-Q3,164.0130539896967,63.95511094327369,0.3899391504976875,-0.5859603942176421,-0.5987538230675717,88.53979351340392,60.78460403982433,0.6865229929706379,0.47306252014035305,0.21346047283028485,Safe,Declining
110948,SGRML3,RUYI MANAGEMENT PTE LTD,Aspire FT Pte Ltd,AspireBA,Key,SG AM-Rachel,2026-Q2,2026-Q3,162.91946601607688,162.91946601607688,1.0,-0.5859603942176421,-0.5987538230675717,87.94943773977677,60.379311227196325,0.6865229929706379,0.9920269608493609,-0.305503967878723,Risk,Declining
68726,SGKNPS,SYLNDR PTE LTD,Aspire FT Pte Ltd,AspireBA,Key,SG AM-Rachel,2026-Q2,2026-Q3,162.73555928954886,60.10351590748359,0.36933240755662883,-0.5859603942176421,-0.5987538230675717,87.85015866901732,60.3111538623992,0.6865229929706379,0.5340205783500421,0.15250241462059577,Safe,Growing
139287,SGSWRL,SWRM LABS PTE. LTD.,Aspire FT Pte Ltd,AspireBA,Key,SG AM-Rachel,2026-Q2,2026-Q3,162.7330033294856,132.0517041765074,0.8114623430696615,-0.5859603942176421,-0.5987538230675717,87.84877887533185,60.31020660230857,0.6865229929706379,0.9552063268464989,-0.26868333387586096,Risk,Declining
76662,SGMAL9,J S MARITIME LANKA (PVT) LTD,Aspire FT Pte Ltd,AspireBA,Key,SG AM - Caroline,2026-Q2,2026-Q3,162.64365,157.14365,0.9661837397279267,-0.5859603942176421,-0.5987538230675717,87.80054292611963,60.27709151408662,0.6865229929706379,0.9823353849820009,-0.295812392011363,Risk,Declining
110161,SGJPTD,JATRI PTE. LTD.,Aspire FT Pte Ltd,AspireBA,Key,SG AM - Caroline,2026-Q2,2026-Q3,161.78921478366658,118.39815364717242,0.731804983450141,-0.5859603942176421,-0.5987538230675717,87.33928989909231,59.96043070545505,0.6865229929706379,0.6478948131340089,0.03862817983662903,Safe,Declining
116786,SGGHYA,GREAT PRO HOLDING PTE. LTD.,Aspire FT Pte Ltd,AspireBA,Key,SG AM - Caroline,2026-Q2,2026-Q3,160.6099,160.6099,1.0,-0.5859603942176421,-0.5987538230675717,86.70265589409598,59.52336682291809,0.6865229929706379,0.9985918576880561,-0.31206886471741824,Risk,Declining
96049,SGSRLS,SIRLINE SUPPLY CHAIN MANAGEMENT PTE. LTD,Aspire FT Pte Ltd,AspireBA,Scaled,SG AM - Caroline,2026-Q2,2026-Q3,159.8332974792064,159.8332974792064,1.0,-0.5859603942176421,-0.5987538230675717,86.28341958844572,59.235551459601126,0.6865229929706379,0.9731421738896877,-0.2866191809190498,Risk,Declining
133221,SGMBS6,MAZON INTERNATIONAL PTE. LTD.,Aspire FT Pte Ltd,AspireBA,Key,SG AM-Rachel,2026-Q2,2026-Q3,159.09912500000002,159.09912500000002,1.0,-0.5859603942176421,-0.5987538230675717,85.88708845424073,58.96346102313926,0.6865229929706379,0.9902904238875643,-0.3037674309169264,Risk,Declining
78894,SGDAGC,Dagaz Company Limited,Aspire FT Pte Ltd,AspireBA,Key,SG AM - Caroline,2026-Q2,2026-Q3,158.761715,158.761715,1.0,-0.5859603942176421,-0.5987538230675717,85.70494312493523,58.838414066508825,0.6865229929706379,0.9495572243469764,-0.2630342313763385,Risk,Declining
76351,SGCVLP,CIVILS.AI PTE. LTD.,Aspire FT Pte Ltd,AspireBA,Key,SG AM-Rachel,2026-Q2,2026-Q3,158.4854265439956,89.43552881940089,0.5643138979379505,-0.5859603942176421,-0.5987538230675717,85.55579327222712,58.73601926322653,0.6865229929706379,0.9123641562689572,-0.22584116329831927,Risk,Declining
145093,SGQCR4,CREDSHIELDS TECHNOLOGIES PTE. LTD.,Aspire FT Pte Ltd,AspireBA,Key,SG AM-Rachel,2026-Q2,2026-Q3,158.16935698722097,155.5354044350146,0.9833472639556905,-0.5859603942176421,-0.5987538230675717,85.38516823591472,58.61888125262161,0.6865229929706379,0.9589529309313974,-0.27242993796075954,Risk,Declining
114067,SGWP8H,WAVESHORE PTE LTD,Aspire FT Pte Ltd,AspireBA,Key,SG AM-Rachel,2026-Q2,2026-Q3,156.67819544783598,155.6675265716557,0.9935493967536998,-0.5859603942176421,-0.5987538230675717,84.5801888054325,58.06624436472716,0.6865229929706379,0.9988062490565356,-0.3122832560858977,Risk,Declining
96490,SGWPEK,TOCESS PTE. LTD.,Aspire FT Pte Ltd,AspireBA,Scaled,SG AM-Rachel,2026-Q2,2026-Q3,155.31422528013726,155.0615580610922,0.9983731868823391,-0.5859603942176421,-0.5987538230675717,83.84387157903615,57.5607456586857,0.6865229929706379,0.9920608925059684,-0.3055378995353305,Risk,Declining
91447,SGXKNJ,WPC PACIFIC PTE. LTD.,Aspire FT Pte Ltd,AspireBA,Key,SG AM-Rachel,2026-Q2,2026-Q3,155.04018863681983,149.62046963249657,0.9650431346093179,-0.5859603942176421,-0.5987538230675717,83.69593733097346,57.459185395942846,0.6865229929706379,0.6873046848860868,-0.0007816919154488566,Risk,Declining
98596,SGCRRP,CIRRASCALE PTE. LTD.,Aspire FT Pte Ltd,AspireBA,Scaled,SG AM-Rachel,2026-Q2,2026-Q3,154.9125856530703,83.80473224557252,0.5409807853395129,-0.5859603942176421,-0.5987538230675717,83.62705292477499,57.41189466723046,0.6865229929706379,0.5672197940319453,0.11930319893869257,Safe,Declining
87199,SGPLYN,POLYTECH NEW ENERGY TECHNOLOGY PTE. LTD.,Aspire FT Pte Ltd,AspireBA,Key,SG AM - Caroline,2026-Q2,2026-Q3,154.813205,154.813205,1.0,-0.5859603942176421,-0.5987538230675717,83.57340388716472,57.37506336936026,0.6865229929706379,0.9984358919276788,-0.3119128989570409,Risk,Declining
129904,SGGLDF,GOLD FORTUNE CAPITAL MANAGEMENT PTE. LTD.,Aspire FT Pte Ltd,AspireBA,Scaled,SG AM - Caroline,2026-Q2,2026-Q3,154.72361986678538,149.22361986678538,0.9644527448056385,-0.5859603942176421,-0.5987538230675717,83.5250428024599,57.3418623727454,0.6865229929706379,0.9954058093036324,-0.3088828163329945,Risk,Declining
68139,SGDEKB,DEKANG BIOTECH PTE. LTD.,Aspire FT Pte Ltd,AspireBA,Key,SG AM - Caroline,2026-Q2,2026-Q3,153.93290483060002,153.93290483060002,1.0,-0.5859603942176421,-0.5987538230675717,83.09818808371176,57.048816793666795,0.6865229929706379,0.9688361422514318,-0.2823131492807939,Risk,Declining
75879,SGBUGP,BOUGHTNEX PTE. LTD.,Aspire FT Pte Ltd,AspireBA,Scaled,SG AM-Rachel,2026-Q2,2026-Q3,153.6941697214479,55.04198833675973,0.3581267164298859,-0.5859603942176421,-0.5987538230675717,82.96931079769976,56.960339573547905,0.6865229929706379,0.4411254725558396,0.2453975204147983,Safe,Growing
94789,SGNVTG,NOVOTEC GROUP PTE. LTD.,Aspire FT Pte Ltd,AspireBA,Scaled,SG AM - Caroline,2026-Q2,2026-Q3,153.41963852422333,111.68274844083334,0.7279560134226221,-0.5859603942176421,-0.5987538230675717,82.82110957271205,56.85859602500742,0.6865229929706379,0.8637094882087519,-0.17718649523811403,Risk,Declining
147723,SGHMYE,OPTIMAL AGILITY PTE LTD,Aspire FT Pte Ltd,AspireBA,Key,SG AM-Rachel,2026-Q2,2026-Q3,153.26326483372236,153.26326483372236,1.0,-0.5859603942176421,-0.5987538230675717,82.73669376597536,56.800642632712524,0.6865229929706379,0.975740574982303,-0.28921758201166514,Risk,Declining
83001,SGANU7,ACCTIVA INTERNATIONAL PTE. LTD.,Aspire FT Pte Ltd,AspireBA,Key,SG AM - Caroline,2026-Q2,2026-Q3,152.50368794239608,129.28152676417233,0.8477272157051359,-0.5859603942176421,-0.5987538230675717,82.3266484709234,56.51913710949992,0.6865229929706379,0.892594033747289,-0.20607104077665106,Risk,Declining
99490,SGBRLG,X HOLDINGS LABO PTE. LTD.,Aspire FT Pte Ltd,AspireBA,Key,SG AM-Rachel,2026-Q2,2026-Q3,150.76428,150.76428,1.0,-0.5859603942176421,-0.5987538230675717,81.38765723632935,55.87449803675322,0.6865229929706379,0.9994870477820941,-0.31296405481145617,Risk,Declining
87485,SGZFEM,ORIENTAL OCEAN CHEMICAL TECHNOLOGY PTE. LTD.,Aspire FT Pte Ltd,AspireBA,Scaled,SG AM - Caroline,2026-Q2,2026-Q3,149.44222862590442,149.44222862590442,1.0,-0.5859603942176421,-0.5987538230675717,80.67396919242593,55.38453478480528,0.6865229929706379,0.9728049380977917,-0.28628194512715377,Risk,Declining
141908,SGX7WK,NOVARTIS TECH PTE. LTD.,Aspire FT Pte Ltd,AspireBA,Scaled,SG AM-Rachel,2026-Q2,2026-Q3,148.5050106142337,78.52531508890821,0.5287721590276216,-0.5859603942176421,-0.5987538230675717,80.16802721273702,55.037193982639764,0.6865229929706379,0.4976297608218432,0.18889323214879472,Safe,Declining
136278,SGLVHM,LOVEBONITO HOLDINGS PTE. LTD. (USD),Aspire FT Pte Ltd,AspireOS,Key,SG AM-Rachel,2026-Q2,2026-Q3,148.07616,-0.6745161507035506,-0.00455519747880787,-0.5859603942176421,-0.5987538230675717,79.93651914731964,54.87825837267258,0.6865229929706379,0.02101240072855668,0.6655105922420812,Safe,Growing
136259,SGWN4U,OLD WALL INTERNATIONAL PTE.LTD.,Aspire FT Pte Ltd,AspireBA,Key,SG AM-Rachel,2026-Q2,2026-Q3,147.30681951054214,147.30681951054214,1.0,-0.5859603942176421,-0.5987538230675717,79.52120313178848,54.593134378661496,0.6865229929706379,0.9915322546417735,-0.3050092616711356,Risk,Declining
151476,SGWRGT,NF WORLDS GAMING PTE LTD,Aspire FT Pte Ltd,AspireBA,Scaled,SG AM - Caroline,2026-Q2,2026-Q3,146.58136383002608,118.32639123300213,0.8072403485767259,-0.5859603942176421,-0.5987538230675717,79.12957762032126,54.324274460405356,0.6865229929706379,0.8232607727927543,-0.13673777982211643,Risk,Declining
130053,SGPT8B,PLVR TECH PTE. LTD.,Aspire FT Pte Ltd,AspireBA,Key,SG AM - Caroline,2026-Q2,2026-Q3,145.36142743728297,83.790341345372,0.5764276178529124,-0.5859603942176421,-0.5987538230675717,78.47101469691063,53.872155871166,0.6865229929706379,0.7664812969209056,-0.0799583039502677,Risk,Declining
117533,SGCL5A,PT COVE LIVING MANAGEMENT,Aspire FT Pte Ltd,AspireOS,Key,SG AM-Rachel,2026-Q2,2026-Q3,144.9986536283946,19.917649374750404,0.1373643746085791,-0.5859603942176421,-0.5987538230675717,78.27517712575566,53.73770887568059,0.6865229929706379,0.20049416974903786,0.4860288232216,Safe,Growing
77673,SGMC96,MAIORA CAPITAL PTE. LTD.,Aspire FT Pte Ltd,AspireBA,Scaled,SG AM - Caroline,2026-Q2,2026-Q3,144.63677480455652,139.71810932273405,0.9659929814636082,-0.5859603942176421,-0.5987538230675717,78.07982269779953,53.60359356911008,0.6865229929706379,0.9326444357789052,-0.2461214428082673,Risk,Declining
127109,SGHMPS,IVY HOMES PTE. LTD.,Aspire FT Pte Ltd,AspireBA,Key,SG AM - Caroline,2026-Q2,2026-Q3,143.4681554223533,143.4681554223533,1.0,-0.5859603942176421,-0.5987538230675717,77.44896243223472,53.170493491448276,0.6865229929706379,0.9999813348553295,-0.31345834188469157,Risk,Declining
115326,SGGCY2,AC GLOBAL CONSULTING PTE. LTD.,Aspire FT Pte Ltd,AspireBA,Key,SG AM-Rachel,2026-Q2,2026-Q3,143.37035258167487,142.76367736447622,0.9957684750977157,-0.5859603942176421,-0.5987538230675717,77.39616515111564,53.134246943993695,0.6865229929706379,0.9889932753249486,-0.3024702823543107,Risk,Declining
76361,SGSHUW,SHUNG WAY RESOURCES HOLDING PTE. LTD.,Aspire FT Pte Ltd,AspireBA,Key,SG AM - Caroline,2026-Q2,2026-Q3,142.47417858811974,142.47417858811974,1.0,-0.5859603942176421,-0.5987538230675717,76.91238012052634,52.80211739683913,0.6865229929706379,0.9999813620703532,-0.31345836909971525,Risk,Declining
72859,SGEARV,EARTH VENTURE CAPITAL PTE. LTD.,Aspire FT Pte Ltd,AspireBA,Key,SG AM - Caroline,2026-Q2,2026-Q3,142.09365478408645,124.16566445974692,0.8738297614233275,-0.5859603942176421,-0.5987538230675717,76.70696050168209,52.661092105295296,0.6865229929706379,0.8812264020107342,-0.1947034090400963,Risk,Declining
70404,SGCPSF,CPWEB SOLUTIONS PTE. LTD.,Aspire FT Pte Ltd,AspireBA,Key,SG AM-Rachel,2026-Q2,2026-Q3,141.44899123451268,78.63963456919544,0.5559575496640788,-0.5859603942176421,-0.5987538230675717,76.35894931491114,52.42217442376604,0.6865229929706379,0.7992083708648837,-0.11268537789424582,Risk,Declining
115415,SGNTRV,Intrepid Vietnam Company Limited,Aspire FT Pte Ltd,AspireOS,Key,SG AM-Rachel,2026-Q2,2026-Q3,140.2493029411649,0.694925704295056,0.004954931609083147,-0.5859603942176421,-0.5987538230675717,75.71131700035079,51.977559948829565,0.6865229929706379,0.26817252286157894,0.41835047010905896,Safe,Growing
114086,SGVPRM,VERICAP PTE. LTD.,Aspire FT Pte Ltd,AspireBA,Scaled,SG AM - Caroline,2026-Q2,2026-Q3,140.24800938798927,118.8660688827394,0.847541932334328,-0.5859603942176421,-0.5987538230675717,75.71061869659823,51.977080547247354,0.6865229929706379,0.6708394681014901,0.015683524869147814,Safe,Declining
