Gagan-D-Aspire/High-Value-Data-Projects/csm_targets_2026_Q4.csv
business_id,business_ref_code,company_name,business_group,business_unit,account_motion,account_manager,base_quarter,target_quarter,base_revenue,base_gp,base_take_rate,avg_rev_g,avg_gp_g,target_revenue,target_gp,target_take_rate,hist_avg_tr,tr_delta,guardrail,gp_trend
84093,SGGPGP,GERO PTE. LTD.,Aspire FT Pte Ltd,AspireBA,Key,SG AM - Caroline,2026-Q3,2026-Q4,106641.68087049709,100417.99224323452,0.9416392485896724,-0.07120204669244755,-0.08759015690150584,110687.56240280549,74706.93497314441,0.6749352262477043,0.9610584817474129,-0.28612325549970863,Risk,Declining
86951,SGEVMG,EVERY MOMENT LOGISTICS PTE. LTD.,Aspire FT Pte Ltd,AspireBA,Key,SG AM - Caroline,2026-Q3,2026-Q4,91157.33656519046,88343.6744567387,0.9691340026544152,-0.07120204669244755,-0.08759015690150584,94615.75715208462,63859.507460040084,0.6749352262477043,0.9856567069208952,-0.31072148067319094,Risk,Declining
134453,SGBLVG,BERIKLAN LANCAR SEJAHTERA LIMITED,AFT HK Limited,AspireBA,Key,Eureka,2026-Q3,2026-Q4,65689.83432473344,20870.027021216523,0.31770558162845863,-0.07120204669244755,-0.08759015690150584,68182.04267502742,46018.462398900265,0.6749352262477043,0.30538482688686686,0.36955039936083744,Safe,Growing
89483,SGFBPZ,FIBONEX PTE. LTD.,Aspire FT Pte Ltd,AspireBA,Key,SG AM - Caroline,2026-Q3,2026-Q4,61091.96398973306,59216.17300061923,0.9692956181695341,-0.07120204669244755,-0.08759015690150584,63409.73361658908,42797.462904819215,0.6749352262477043,0.9855420290177462,-0.31060680277004193,Risk,Declining
99873,SGSUCM,SUCCESS MCMOORE PTE LIMITED,Aspire FT Pte Ltd,AspireX,Key,Eureka,2026-Q3,2026-Q4,56307.585923710896,24182.01201629964,0.42946277343629985,-0.07120204669244755,-0.08759015690150584,58443.84090542167,39445.806984285606,0.6749352262477043,0.43450094649302606,0.24043427975467824,Safe,Growing
147170,SGAVNH,AVNM HOLDINGS PTE LTD,Aspire FT Pte Ltd,AspireBA,Key,SG AM - Caroline,2026-Q3,2026-Q4,44561.33949441201,43169.64185380647,0.9687689450901704,-0.07120204669244755,-0.08759015690150584,46251.95332423626,31217.072581291657,0.6749352262477043,0.9796909755386105,-0.3047557492909062,Risk,Declining
151475,SGSM5V,SUCCESS MCMOORE PTE LIMITED,AFT HK Limited,AspireBA,Key,Eureka,2026-Q3,2026-Q4,43535.24096729704,12081.297947183288,0.2775061692264104,-0.07120204669244755,-0.08759015690150584,45186.92561814272,30498.24786551934,0.6749352262477043,0.26138915624951764,0.41354606999818666,Safe,Growing
125930,SGRAT5,Rasewa,Aspire FT Pte Ltd,AspireBA,Key,Eureka,2026-Q3,2026-Q4,40030.20604878233,5854.714969431133,0.14625742776083525,-0.07120204669244755,-0.08759015690150584,41548.913087767825,28042.82505523878,0.6749352262477043,0.16818095106656922,0.5067542751811351,Safe,Growing
91639,SGFT9T,PT REPUBLIK AZERO MANAGEMEN,Aspire FT Pte Ltd,AspireX,Key,Eureka,2026-Q3,2026-Q4,38734.87903315707,6389.056994117228,0.1649432540798228,-0.07120204669244755,-0.08759015690150584,40204.44262646505,27135.394580256034,0.6749352262477043,0.20446674850188296,0.47046847774582135,Safe,Growing
99150,SGHLWJ,HERITAGE LINE PTE. LTD.,Aspire FT Pte Ltd,AspireBA,Key,SG AM - Caroline,2026-Q3,2026-Q4,38485.61775794482,36993.88878867405,0.9612393133805726,-0.07120204669244755,-0.08759015690150584,39945.72462118376,26960.776684827157,0.6749352262477043,0.9743320390249146,-0.2993968127772103,Risk,Declining
75513,SGDEUP,DELUGS PTE. LTD.,Aspire FT Pte Ltd,AspireBA,Key,SG AM - Caroline,2026-Q3,2026-Q4,34978.23151748598,19017.251005744427,0.5436881792104756,-0.07120204669244755,-0.08759015690150584,36305.27156199972,24503.706675682624,0.6749352262477043,0.5310539039052101,0.14388132234249418,Safe,Growing
104231,SGDGZG,PT Digizie Global Learning,Aspire FT Pte Ltd,AspireBA,Key,Eureka,2026-Q3,2026-Q4,33988.62615663383,4199.591040878508,0.12355871701095045,-0.07120204669244755,-0.08759015690150584,35278.12153736261,23810.446941413844,0.6749352262477043,0.1504009559663403,0.524534270281364,Safe,Growing
71455,SGCP3W,SF CAPITAL SG PTE. LTD.,Aspire FT Pte Ltd,AspireBA,Key,SG AM - Caroline,2026-Q3,2026-Q4,28874.998659340272,27371.741343186313,0.9479391381489226,-0.07120204669244755,-0.08759015690150584,29970.487992100545,20228.138093702488,0.6749352262477043,0.9591973684173339,-0.28426214216962964,Risk,Declining
135284,SGLC7B,LARES CAPITAL PTE. LTD.,Aspire FT Pte Ltd,AspireBA,Key,SG AM - Caroline,2026-Q3,2026-Q4,28539.65080144679,27614.322020045835,0.9675774315586914,-0.07120204669244755,-0.08759015690150584,29622.417363015957,19993.212964911098,0.6749352262477043,0.9828294106945918,-0.30789418444688754,Risk,Declining
122887,SGBLPB,BLAZETEC PTE. LTD.,Aspire FT Pte Ltd,AspireBA,Key,SG AM - Caroline,2026-Q3,2026-Q4,28333.95045163152,27314.37698645802,0.9640158379286362,-0.07120204669244755,-0.08759015690150584,29408.912942224746,19849.111310359498,0.6749352262477043,0.9779682001507725,-0.30303297390306816,Risk,Declining
105489,SGRDVT,PT Ordivo Teknologi Indonesia,Aspire FT Pte Ltd,AspireBA,Key,Eureka,2026-Q3,2026-Q4,26530.18850164535,4180.975789794327,0.15759314297880062,-0.07120204669244755,-0.08759015690150584,27536.71802022839,18585.501007102084,0.6749352262477043,0.18314069704082556,0.4917945292068787,Safe,Growing
28763,SGPRST,Prism Tech Private Limited,Aspire FT Pte Ltd,AspireOS,Key,SG AM-Rachel,2026-Q3,2026-Q4,26269.786772279895,12407.446960751302,0.47230862847519367,-0.07120204669244755,-0.08759015690150584,27266.43690281109,18403.078759967557,0.6749352262477043,0.35014223064033556,0.32479299560736874,Safe,Growing
117955,SGNAMD,NAM HO DMC PTE. LTD.,Aspire FT Pte Ltd,AspireBA,Key,SG AM - Caroline,2026-Q3,2026-Q4,25857.410430348493,355.18403757766964,0.0137362570986921,-0.07120204669244755,-0.08759015690150584,26838.41540400892,18114.191972834633,0.6749352262477043,0.022034746888257427,0.6529004793594468,Safe,Growing
138876,SGDBJV,V MEDICAL AESTHETICS PTE. LTD.,Aspire FT Pte Ltd,AspireBA,Key,SG AM-Rachel,2026-Q3,2026-Q4,25611.05372429604,1800.0093757618852,0.07028251922545062,-0.07120204669244755,-0.08759015690150584,26582.712164413093,17941.608848965752,0.6749352262477043,0.06433079512525215,0.6106044311224521,Safe,Growing
138008,SGDSFP,DOSFARM PTE. LTD.,Aspire FT Pte Ltd,AspireOS,Key,SG AM-Rachel,2026-Q3,2026-Q4,23537.48846390967,22786.752126495172,0.9681046540472824,-0.07120204669244755,-0.08759015690150584,24430.47785713481,16488.990099844814,0.6749352262477043,0.9836610484556203,-0.308725822207916,Risk,Declining
88136,SGPAVT,PAVING THE WAY PTE. LTD.,Aspire FT Pte Ltd,AspireBA,Key,SG AM - Caroline,2026-Q3,2026-Q4,22386.83150723393,21441.64613907581,0.9577794040280913,-0.07120204669244755,-0.08759015690150584,23236.166095948905,15682.90702109851,0.6749352262477043,0.9787701636086084,-0.30383493736090406,Risk,Declining
118203,SGSRC7,SORA CLOUD PTE. LTD.,Aspire FT Pte Ltd,AspireBA,Key,SG AM-Rachel,2026-Q3,2026-Q4,22203.68469281871,21331.803442051074,0.9607325872786499,-0.07120204669244755,-0.08759015690150584,23046.070869729832,15554.605056581731,0.6749352262477043,0.9765352397789446,-0.30160001353124033,Risk,Declining
176080,SGPPY2,PERSISTENCE AI PTE LTD,Aspire FT Pte Ltd,AspireBA,Key,SG AM-Rachel,2026-Q3,2026-Q4,22184.613504031327,21438.421518320756,0.9663644360730028,-0.07120204669244755,-0.08759015690150584,23026.276138609996,15541.244895254853,0.6749352262477043,0.9777426597345718,-0.30280743348686745,Risk,Declining
73338,SGBLCA,BLOCKTECH APAC PTE. LTD.,Aspire FT Pte Ltd,AspireX,Key,SG AM - Caroline,2026-Q3,2026-Q4,21731.78474163493,20674.82520401805,0.9513634268798964,-0.07120204669244755,-0.08759015690150584,22556.267493900014,15224.019504299144,0.6749352262477043,0.9603901733946265,-0.2854549471469222,Risk,Declining
141988,SGATFM,ASIA TRAVELS INTERNATIONAL LIMITED,AFT HK Limited,AspireBA,Key,SG AM - Caroline,2026-Q3,2026-Q4,21407.376437035757,20069.918636413357,0.9375235071632348,-0.07120204669244755,-0.08759015690150584,22219.551454109576,14996.757987801953,0.6749352262477043,0.9443860655856473,-0.269450839337943,Risk,Declining
65061,SGPP5T,POSTEX PTE. LTD.,Aspire FT Pte Ltd,AspireOS,Key,SG AM-Rachel,2026-Q3,2026-Q4,21195.7704662174,19031.111480405027,0.8978730690982671,-0.07120204669244755,-0.08759015690150584,21999.917358804887,14848.519199995773,0.6749352262477043,0.9157354635921452,-0.2408002373444409,Risk,Declining
129328,SGWPEZ,WEGO PTE. LTD.,Aspire FT Pte Ltd,AspireOS,Key,SG AM-Rachel,2026-Q3,2026-Q4,20797.244214052174,6648.981585138431,0.319704933822236,-0.07120204669244755,-0.08759015690150584,21586.271408688415,14569.334977067467,0.6749352262477043,0.32635328107716255,0.34858194517054175,Safe,Growing
67398,SGMAPC,MAVINA PTE. LTD.,Aspire FT Pte Ltd,AspireBA,Key,SG AM - Caroline,2026-Q3,2026-Q4,20687.093280829704,20052.05027003407,0.969302453361869,-0.07120204669244755,-0.08759015690150584,21471.941456316454,14492.169664796407,0.6749352262477043,0.9858201939682818,-0.3108849677205775,Risk,Declining
92687,SGSG9S,SURGE GLOBAL PTE. LTD.,Aspire FT Pte Ltd,AspireOS,Key,SG AM-Rachel,2026-Q3,2026-Q4,20354.2207487428,11656.078667573625,0.5726615040417883,-0.07120204669244755,-0.08759015690150584,21126.440064489252,14258.978604734619,0.6749352262477043,0.5864733021265942,0.08846192412111009,Safe,Growing
90404,SGPUNK,PUREST NEST PTE. LTD.,Aspire FT Pte Ltd,AspireBA,Key,SG AM - Caroline,2026-Q3,2026-Q4,20241.121039730067,4497.357179655853,0.22218913521777095,-0.07120204669244755,-0.08759015690150584,21009.049462644856,14179.747552319417,0.6749352262477043,0.1807213867446796,0.49421383950302467,Safe,Growing
90656,SGDAZP,DAZZ PTE LTD,Aspire FT Pte Ltd,AspireBA,Key,SG AM-Rachel,2026-Q3,2026-Q4,19948.4147231698,19213.48888478299,0.9631586846079951,-0.07120204669244755,-0.08759015690150584,20705.23815345043,13974.694597611666,0.6749352262477043,0.9791168602858458,-0.30418163403814147,Risk,Declining
84694,SGLVTX,LOVE IN THE HAIR PTE. LTD.,Aspire FT Pte Ltd,AspireBA,Key,SG AM-Rachel,2026-Q3,2026-Q4,19790.46084751957,18778.01833518075,0.9488418930645713,-0.07120204669244755,-0.08759015690150584,20541.291661562034,13864.041335016453,0.6749352262477043,0.966572815789718,-0.2916375895420137,Risk,Declining
108372,SGEVSA,EVENTUS SECURITY PTE. LTD.,Aspire FT Pte Ltd,AspireBA,Key,SG AM-Rachel,2026-Q3,2026-Q4,19644.03072223333,18013.58265622541,0.9170003300716406,-0.07120204669244755,-0.08759015690150584,20389.306119905446,13761.460939072085,0.6749352262477043,0.9258913837370399,-0.25095615748933564,Risk,Declining
89907,SGYBUE,MAX NOW PTE. LTD.,Aspire FT Pte Ltd,AspireOS,Key,SG AM-Rachel,2026-Q3,2026-Q4,19553.39658263441,16395.13919584755,0.8384803697178759,-0.07120204669244755,-0.08759015690150584,20295.233409303084,13697.967952857944,0.6749352262477043,0.8419624790412333,-0.16702725279352904,Risk,Declining
105492,SGML5E,MAGICBLOCK LABS PTE. LTD.,Aspire FT Pte Ltd,AspireOS,Key,SG AM-Rachel,2026-Q3,2026-Q4,19407.690603639243,17699.21824554921,0.9119693119092868,-0.07120204669244755,-0.08759015690150584,20143.99948734273,13595.894851523306,0.6749352262477043,0.9270008777800544,-0.25206565153235005,Risk,Declining
152838,SGSTKW,SUPERLINEAR TECHNOLOGY PTE LTD,Aspire FT Pte Ltd,AspireBA,Key,SG AM-Rachel,2026-Q3,2026-Q4,18812.138781862523,15920.985495317309,0.8463144823632345,-0.07120204669244755,-0.08759015690150584,19525.853009352883,13178.686018547005,0.6749352262477043,0.8668989148969858,-0.19196368864928148,Risk,Declining
80381,SGZUSS,ZUSPRESSO M SDN BHD,Aspire FT Pte Ltd,AspireBA,Key,SG AM-Rachel,2026-Q3,2026-Q4,18789.59472575956,10349.152256329624,0.5507916699310961,-0.07120204669244755,-0.08759015690150584,19502.45365371314,13162.892969154245,0.6749352262477043,0.5743657874860725,0.10056943876163182,Safe,Growing
102316,SGDGLZ,PT Digital Laskar Pelangi,Aspire FT Pte Ltd,AspireBA,Key,Eureka,2026-Q3,2026-Q4,18775.056084789197,2440.187417535883,0.1299696473084214,-0.07120204669244755,-0.08759015690150584,19487.36343086103,13152.708046179428,0.6749352262477043,0.16120052285437864,0.5137347033933257,Safe,Growing
58863,SGSKHZ,OSOME LTD.,Aspire FT Pte Ltd,AspireOS,Key,SG AM-Rachel,2026-Q3,2026-Q4,18699.17339835305,12857.617826697551,0.6876035401559515,-0.07120204669244755,-0.08759015690150584,19408.601829190542,13099.549066736326,0.6749352262477043,0.7201386958471083,-0.04520346959940402,Risk,Growing
120791,SGFLP4,FLYWHEEL AI PTE. LTD,Aspire FT Pte Ltd,AspireBA,Key,SG AM-Rachel,2026-Q3,2026-Q4,18526.095820435996,17554.481619921637,0.9475542926080206,-0.07120204669244755,-0.08759015690150584,19228.95785649768,12978.301021382833,0.6749352262477043,0.9631904529254234,-0.2882552266777191,Risk,Declining
115719,SGAPYF,AIRGSM PTE. LTD.,Aspire FT Pte Ltd,AspireOS,Key,SG AM-Rachel,2026-Q3,2026-Q4,17954.437239129405,7425.593625077827,0.4135798591834832,-0.07120204669244755,-0.08759015690150584,18635.611105255895,12577.830397590118,0.6749352262477043,0.43232945161180825,0.24260577463589605,Safe,Growing
72111,SGANN3,ANTLER INNOVATION PTE. LTD.,Aspire FT Pte Ltd,AspireOS,Key,SG AM-Rachel,2026-Q3,2026-Q4,17357.33069058127,6707.597907902179,0.38644178805338825,-0.07120204669244755,-0.08759015690150584,18015.850915674808,12159.532413815887,0.6749352262477043,0.41574246628380374,0.25919275996390057,Safe,Growing
92684,SGEDGT,EDGE TUTOR INTERNATIONAL PTE. LTD.,Aspire FT Pte Ltd,AspireOS,Key,SG AM-Rachel,2026-Q3,2026-Q4,16899.129175023685,14083.807238848021,0.8334043188251019,-0.07120204669244755,-0.08759015690150584,17540.2656807803,11838.543185702294,0.6749352262477043,0.8469913627484581,-0.1720561365007538,Risk,Declining
70084,SGTSD5,ATTIX APAC PTE. LTD.,Aspire FT Pte Ltd,AspireOS,Key,SG AM-Rachel,2026-Q3,2026-Q4,16892.75149069169,12299.450588938764,0.728090423618441,-0.07120204669244755,-0.08759015690150584,17533.646033314875,11834.075352442538,0.6749352262477043,0.7435523640708226,-0.06861713782311829,Risk,Declining
91424,SGAMGD,AMITY GLOBAL INSTITUTE PTE. LTD.,Aspire FT Pte Ltd,AspireBA,Key,SG AM - Caroline,2026-Q3,2026-Q4,16816.503099250094,12441.32915870887,0.7398285532539564,-0.07120204669244755,-0.08759015690150584,17454.504852147125,11780.660181425572,0.6749352262477043,0.7680858034198619,-0.09315057717215758,Risk,Declining
120054,SGCDHK,CODE HOUSE PTE. LTD.,Aspire FT Pte Ltd,AspireBA,Key,SG AM - Caroline,2026-Q3,2026-Q4,16489.07727068073,15974.055533964345,0.9687658849393503,-0.07120204669244755,-0.08759015690150584,17114.656806465315,11551.28476382348,0.6749352262477043,0.9842770637834475,-0.3093418375357432,Risk,Declining
68165,SGTP78,SF TREASURY SG PTE. LTD.,Aspire FT Pte Ltd,AspireBA,Key,SG AM - Caroline,2026-Q3,2026-Q4,16393.76416878593,15760.327138568338,0.9613610990315654,-0.07120204669244755,-0.08759015690150584,17015.727618293597,11484.5139698223,0.6749352262477043,0.9777500751414911,-0.30281484889378685,Risk,Declining
124255,SGMAA3,Hendra Permana,Aspire FT Pte Ltd,AspireBA,Key,SG AM-Rachel,2026-Q3,2026-Q4,16193.630128093702,8213.137791857156,0.507183239760954,-0.07120204669244755,-0.08759015690150584,16808.00068697349,11344.311746434021,0.6749352262477043,0.5256055454922903,0.14932968075541397,Safe,Growing
124255,SGMAA3,Hendra Permana,Aspire FT Pte Ltd,AspireBA,Key,SG AM-Rachel,2026-Q3,2026-Q4,16193.630128093702,8213.137791857156,0.507183239760954,-0.07120204669244755,-0.08759015690150584,16808.00068697349,11344.311746434021,0.6749352262477043,0.5256055454922903,0.14932968075541397,Safe,Growing
124255,SGMAA3,Hendra Permana,Aspire FT Pte Ltd,AspireBA,Key,Eureka,2026-Q3,2026-Q4,16193.630128093702,8213.137791857156,0.507183239760954,-0.07120204669244755,-0.08759015690150584,16808.00068697349,11344.311746434021,0.6749352262477043,0.5256055454922903,0.14932968075541397,Safe,Growing
124255,SGMAA3,Hendra Permana,Aspire FT Pte Ltd,AspireBA,Key,Eureka,2026-Q3,2026-Q4,16193.630128093702,8213.137791857156,0.507183239760954,-0.07120204669244755,-0.08759015690150584,16808.00068697349,11344.311746434021,0.6749352262477043,0.5256055454922903,0.14932968075541397,Safe,Growing
76492,SGMAGL,MAGIK LABS PTE. LTD.,Aspire FT Pte Ltd,AspireBA,Key,SG AM-Rachel,2026-Q3,2026-Q4,16169.449562578095,15069.944625254784,0.9320010905091068,-0.07120204669244755,-0.08759015690150584,16782.9027343475,11327.372254100044,0.6749352262477043,0.9514016156128439,-0.27646638936513956,Risk,Declining
77441,SGGZ7B,COBO SINGAPORE PTE. LTD.,Aspire FT Pte Ltd,AspireOS,Key,SG AM-Rachel,2026-Q3,2026-Q4,15961.42001164301,970.4617936704232,0.06080046718666151,-0.07120204669244755,-0.08759015690150584,16566.98074481399,11181.638897242392,0.6749352262477043,0.06657657416520286,0.6083586520825014,Safe,Growing
129875,SGJSP7,Clarus Technology Limited,Aspire FT Pte Ltd,AspireBA,Key,SG AM - Caroline,2026-Q3,2026-Q4,15637.709118911707,14328.28250471225,0.9162648055260293,-0.07120204669244755,-0.08759015690150584,16230.988576018604,10954.86594677902,0.6749352262477043,0.9355659092375466,-0.26063068298984227,Risk,Declining
101907,SG4VPC,STARTCAREFULLY PTE. LTD.,Aspire FT Pte Ltd,AspireBA,Key,SG AM-Rachel,2026-Q3,2026-Q4,15501.557260260488,14880.798946892113,0.9599550998040862,-0.07120204669244755,-0.08759015690150584,16089.671248424942,10859.485904306872,0.6749352262477043,0.9786461371715823,-0.30371091092387803,Risk,Declining
146972,SGBHLQ,BHINDI LABS PTE. LTD.,Aspire FT Pte Ltd,AspireBA,Key,SG AM - Caroline,2026-Q3,2026-Q4,15120.648126626058,10825.929928035328,0.7159699661929088,-0.07120204669244755,-0.08759015690150584,15694.310793162053,10592.643205984617,0.6749352262477043,0.747853239489887,-0.07291801324218272,Risk,Declining
116073,SGFYDF,"Intrepid Ecommerce Services (Thailand) Co., Ltd.",Aspire FT Pte Ltd,AspireOS,Key,SG AM-Rachel,2026-Q3,2026-Q4,15036.871276537002,4320.373729045519,0.2873186615480892,-0.07120204669244755,-0.08759015690150584,15607.355530956427,10533.954036414436,0.6749352262477043,0.29469844322982225,0.38023678301788205,Safe,Growing
80086,SGMSME,MISTER MOBILE TRADING PTE. LTD.,Aspire FT Pte Ltd,AspireX,Key,SG AM - Caroline,2026-Q3,2026-Q4,15026.025972994878,6718.225167079164,0.44710592003190425,-0.07120204669244755,-0.08759015690150584,15596.098767158282,10526.356449993518,0.6749352262477043,0.4636539313441414,0.2112812949035629,Safe,Growing
83438,SGBRHP,BRIOHR PTE. LTD.,Aspire FT Pte Ltd,AspireBA,Key,SG AM-Rachel,2026-Q3,2026-Q4,14810.370497573438,14339.115900129926,0.9681807691765224,-0.07120204669244755,-0.08759015690150584,15372.261532988981,10375.2808157068,0.6749352262477043,0.9837250999662636,-0.30878987371855926,Risk,Declining
55419,SGVPUA,PX Ventures PTE LTD,Aspire FT Pte Ltd,AspireBA,Key,SG AM - Caroline,2026-Q3,2026-Q4,14588.637063542,9875.799478088877,0.6769514818330201,-0.07120204669244755,-0.08759015690150584,15142.115748378295,10219.947318500632,0.6749352262477043,0.670600745540115,0.00433448070758935,Safe,Growing
103624,SGPCZC,PRIMROSE CAPITAL MANAGEMENT PTE. LTD. (AP),Aspire FT Pte Ltd,AspireBA,Key,SG AM - Caroline,2026-Q3,2026-Q4,14186.463256808183,13202.187819035082,0.93061868769154,-0.07120204669244755,-0.08759015690150584,14724.683859024619,9938.2078318167,0.6749352262477043,0.9421984544654383,-0.26726322821773396,Risk,Declining
123896,SGCLMS,COFFEE MEETS BAGEL PTE. LTD.,Aspire FT Pte Ltd,AspireOS,Key,SG AM-Rachel,2026-Q3,2026-Q4,14051.289705976125,11580.964370304757,0.8241922707905794,-0.07120204669244755,-0.08759015690150584,14584.381955296174,9843.51313468076,0.6749352262477043,0.8637847691459476,-0.1888495428982433,Risk,Declining
86460,SGPPGY,PREFER PTE. LTD.,Aspire FT Pte Ltd,AspireBA,Key,SG AM-Rachel,2026-Q3,2026-Q4,14020.978429503975,13281.177726796983,0.947236157132212,-0.07120204669244755,-0.08759015690150584,14552.920698509588,9822.278824213468,0.6749352262477043,0.9648607908735892,-0.2899255646258849,Risk,Declining
90493,SGKRMQ,KRIS MANAGEMENT & SERVICES PTE. LTD.,Aspire FT Pte Ltd,AspireBA,Key,SG AM - Caroline,2026-Q3,2026-Q4,13978.288278895192,13270.535961304658,0.9493677406368047,-0.07120204669244755,-0.08759015690150584,14508.610925155273,9792.37259730959,0.6749352262477043,0.9696030414756455,-0.29466781522794117,Risk,Declining
110959,SGLYNM,LYNCHPIN MANAGEMENT SERVICES PTE. LTD.,Aspire FT Pte Ltd,AspireBA,Key,SG AM - Caroline,2026-Q3,2026-Q4,13941.676166716717,5084.489754714623,0.3646971636633579,-0.07120204669244755,-0.08759015690150584,14470.609785090961,9766.724289242611,0.6749352262477043,0.38017053281596425,0.29476469343174005,Safe,Growing
72538,SGABHT,ABHIBHA TECHNOLOGIES PTE. LTD.,Aspire FT Pte Ltd,AspireBA,Key,SG AM-Rachel,2026-Q3,2026-Q4,13878.640694363956,13352.660328789483,0.9621014494749424,-0.07120204669244755,-0.08759015690150584,14405.182808296497,9722.565317857136,0.6749352262477043,0.9747152620722762,-0.2997800358245719,Risk,Declining
69274,SGTRT9,TRIPLO TECHNOLOGY SERVICES PTE. LTD.,Aspire FT Pte Ltd,AspireBA,Key,SG AM-Rachel,2026-Q3,2026-Q4,13705.377577521336,8237.647114645508,0.6010521832070032,-0.07120204669244755,-0.08759015690150584,14225.3462575119,9601.187294765727,0.6749352262477043,0.6169626688503236,0.05797255739738072,Safe,Growing
145670,SGELSG,ELSER GLOBAL PTE. LTD.,Aspire FT Pte Ltd,AspireBA,Key,SG AM-Rachel,2026-Q3,2026-Q4,13703.305094605477,12433.725880287731,0.9073523353999076,-0.07120204669244755,-0.08759015690150584,14223.195146612246,9599.735434243987,0.6749352262477043,0.9316142560985465,-0.25667902985084223,Risk,Declining
118501,SGMMWC,MMW CAPITAL INVESTMENT PTE LTD,Aspire FT Pte Ltd,AspireBA,Key,SG AM - Caroline,2026-Q3,2026-Q4,13664.091311622582,13244.18054029359,0.9692690306473714,-0.07120204669244755,-0.08759015690150584,14182.49363088651,9572.264547519013,0.6749352262477043,0.9859234773486449,-0.31098825110094064,Risk,Declining
90121,SGTERJ,TERRAVERDE JOURNEYS PTE. LTD.,Aspire FT Pte Ltd,AspireBA,Key,SG AM - Caroline,2026-Q3,2026-Q4,13377.09621938326,12381.496726938503,0.9255743192605475,-0.07120204669244755,-0.08759015690150584,13884.610224302593,9371.212543100859,0.6749352262477043,0.9348794802924274,-0.2599442540447231,Risk,Declining
60315,SGBAZT,BAZAAR TECHNOLOGIES PTE LTD,Aspire FT Pte Ltd,AspireOS,Key,SG AM-Rachel,2026-Q3,2026-Q4,13288.617153056957,8512.247028610567,0.6405668046996434,-0.07120204669244755,-0.08759015690150584,13792.774348354355,9309.229275390078,0.6749352262477043,0.6598739526145748,0.01506127363312948,Safe,Growing
131028,SGSMMQ,SMK IMPORT AND EXPORT PTE. LTD.,Aspire FT Pte Ltd,AspireBA,Key,SG AM-Rachel,2026-Q3,2026-Q4,13281.312963604127,11866.476872641919,0.8934716699441237,-0.07120204669244755,-0.08759015690150584,13785.193045065971,9304.11238673988,0.6749352262477043,0.9185757976933028,-0.24364057144559848,Risk,Declining
114025,SGWXHM,DIGIMENTAL GLOBAL NETWORK SOLUTION PTE. LTD.,Aspire FT Pte Ltd,AspireBA,Key,SG AM-Rachel,2026-Q3,2026-Q4,12858.65473162867,9647.868096407516,0.7503015126984066,-0.07120204669244755,-0.08759015690150584,13346.499571323237,9008.022707785936,0.6749352262477043,0.7684429948415705,-0.09350776859386623,Risk,Declining
136203,SGGTG8,IDA GLOBAL TRANSLATION PTE. LTD.,Aspire FT Pte Ltd,AspireBA,Key,SG AM-Rachel,2026-Q3,2026-Q4,12825.23010948631,4474.291962868659,0.34886640821822007,-0.07120204669244755,-0.08759015690150584,13311.80685156326,8984.60736912559,0.6749352262477043,0.3570574306567744,0.3178777955909299,Safe,Growing
55188,SGPRLF,Oxixo Private Ltd.,Aspire FT Pte Ltd,AspireBA,Key,SG AM-Rachel,2026-Q3,2026-Q4,12815.10803308755,8280.917754899518,0.6461839988799839,-0.07120204669244755,-0.08759015690150584,13301.300753442074,8977.516433413186,0.6749352262477043,0.6776637796427841,-0.0027285533950798246,Risk,Growing
81634,SGSUG2,SUNGIL GARMENT PTE. LTD.,Aspire FT Pte Ltd,AspireBA,Key,SG AM-Rachel,2026-Q3,2026-Q4,12805.07564125622,12373.154119991319,0.9662695064546664,-0.07120204669244755,-0.08759015690150584,13290.887742433477,8970.488325472179,0.6749352262477043,0.9832307092706569,-0.3082954830229526,Risk,Declining
133221,SGMBS6,MAZON INTERNATIONAL PTE. LTD.,Aspire FT Pte Ltd,AspireBA,Key,SG AM-Rachel,2026-Q3,2026-Q4,12629.67300107333,12045.467727769495,0.9537434363301263,-0.07120204669244755,-0.08759015690150584,13108.83049687639,8847.611477252072,0.6749352262477043,0.973778980587701,-0.29884375433999666,Risk,Declining
116405,SG48H5,PENGYUAN PHARMA LIMITED,AFT HK Limited,AspireBA,Key,SG AM - Caroline,2026-Q3,2026-Q4,12214.927422350393,11798.301678216536,0.9658920818987814,-0.07120204669244755,-0.08759015690150584,12678.349874745807,8557.064941159115,0.6749352262477043,0.9817832709609995,-0.3068480447132952,Risk,Declining
173232,SGPL4F,PANGO LABS PTE LTD,Aspire FT Pte Ltd,AspireBA,Key,SG AM-Rachel,2026-Q3,2026-Q4,12169.50903653603,10824.656784850045,0.8894900157723382,-0.07120204669244755,-0.08759015690150584,12631.208359598771,8525.24747196769,0.6749352262477043,0.908334916412546,-0.23339969016484174,Risk,Declining
84818,SGTRS9,EXO TRAVEL (SINGAPORE) CO. PTE. LTD. (USD),Aspire FT Pte Ltd,AspireBA,Key,SG AM - Caroline,2026-Q3,2026-Q4,12041.356736422273,4314.112238539966,0.35827459753690305,-0.07120204669244755,-0.08759015690150584,12498.194086004094,8435.471453124894,0.6749352262477043,0.44294395197397873,0.23199127427372557,Safe,Growing
174591,SGZYLU,ZYNK LABS PTE LTD,AFT HK Limited,AspireBA,Key,SG AM-Rachel,2026-Q3,2026-Q4,11976.45440614291,11490.78564103151,0.9594480345650302,-0.07120204669244755,-0.08759015690150584,12430.829424511103,8390.00467007902,0.6749352262477043,0.9740234785454237,-0.2990882522977194,Risk,Declining
139091,SGLMFD,LMF DIGITAL PTE. LTD.,Aspire FT Pte Ltd,AspireBA,Key,SG AM-Rachel,2026-Q3,2026-Q4,11888.77722805196,11251.202186113182,0.9463716890552546,-0.07120204669244755,-0.08759015690150584,12339.825859657049,8328.583158444902,0.6749352262477043,0.9645499298396575,-0.2896147035919532,Risk,Declining
68432,SGARP6,ARMADA-GROUP PTE. LTD.,Aspire FT Pte Ltd,AspireBA,Key,SG AM - Caroline,2026-Q3,2026-Q4,11830.426239165887,7462.1207701019075,0.6307567131772278,-0.07120204669244755,-0.08759015690150584,12279.26109107059,8287.705862656361,0.6749352262477043,0.6517555285461623,0.023179697701542046,Safe,Growing
120816,SGARL4,AROHA LABS PTE. LTD.,Aspire FT Pte Ltd,AspireBA,Key,SG AM - Caroline,2026-Q3,2026-Q4,11713.523891390048,8875.10299218164,0.7576800179410765,-0.07120204669244755,-0.08759015690150584,12157.923582051146,8205.81090355399,0.6749352262477043,0.7727438938168155,-0.09780866756911122,Risk,Declining
67575,SGSTNE,STELLAR NATION TRADING PTE.LTD.,Aspire FT Pte Ltd,AspireBA,Key,SG AM - Caroline,2026-Q3,2026-Q4,11686.336114304822,11299.404429127739,0.9668902484583295,-0.07120204669244755,-0.08759015690150584,12129.704327176787,8186.764734380823,0.6749352262477043,0.9816857399461312,-0.3067505136984269,Risk,Declining
150792,SGEZRZ,LENDTECH INVESTMENT HOLDINGS PTE LTD,Aspire FT Pte Ltd,AspireOS,Key,SG AM-Rachel,2026-Q3,2026-Q4,11580.593138135453,5411.858173392463,0.46732132878159344,-0.07120204669244755,-0.08759015690150584,12019.949565456378,8112.687379447296,0.6749352262477043,0.5070750514065426,0.16786017484116167,Safe,Growing
80606,SGHRZQ,HORIZON QUANTUM COMPUTING PTE. LTD.,Aspire FT Pte Ltd,AspireBA,Key,SG AM-Rachel,2026-Q3,2026-Q4,11530.541143962444,6051.942031566357,0.5248619259066813,-0.07120204669244755,-0.08759015690150584,11967.998647361437,8077.62387478911,0.6749352262477043,0.5391934154334613,0.13574181081424297,Safe,Growing
108293,SGLP5D,LETSVIBE PTE. LTD.,Aspire FT Pte Ltd,AspireOS,Key,SG AM-Rachel,2026-Q3,2026-Q4,11427.64553970737,4529.858264213404,0.3963947121455258,-0.07120204669244755,-0.08759015690150584,11861.199284073187,8005.541222365045,0.6749352262477043,0.48385957339762903,0.19107565285007527,Safe,Growing
123082,SGGDFQ,GODSOURCE FURNITURE PTE. LTD.,Aspire FT Pte Ltd,AspireBA,Key,SG AM-Rachel,2026-Q3,2026-Q4,11407.91228749318,10927.27487941314,0.957868065955681,-0.07120204669244755,-0.08759015690150584,11840.717371484798,7991.717258058215,0.6749352262477043,0.9771192269771897,-0.30218400072948537,Risk,Declining
67457,SGRARH,RARIUM INTERNATIONAL PTE. LTD.,Aspire FT Pte Ltd,AspireBA,Key,SG AM - Caroline,2026-Q3,2026-Q4,11382.989818891325,11001.597868451065,0.9664945715924916,-0.07120204669244755,-0.08759015690150584,11814.849368691877,7974.258031740598,0.6749352262477043,0.9832264463736894,-0.3082912201259851,Risk,Declining
60213,SGNPQM,UPSURGE LABS PTE LTD,Aspire FT Pte Ltd,AspireBA,Key,SG AM - Caroline,2026-Q3,2026-Q4,11269.863438750861,8242.110216079356,0.731340735482142,-0.07120204669244755,-0.08759015690150584,11697.43108384313,7895.008295090592,0.6749352262477043,0.7559413719855649,-0.08100614573786058,Risk,Declining
56856,SGTNKF,Tonik Financial Pte Ltd,Aspire FT Pte Ltd,AspireBA,Key,SG AM - Caroline,2026-Q3,2026-Q4,11200.066590105536,5284.661982660654,0.4718420145224206,-0.07120204669244755,-0.08759015690150584,11624.9862107233,7846.112698260973,0.6749352262477043,0.48594889059739077,0.18898633565031353,Safe,Growing
70216,SGSTWN,SUNERA TECH PTE. LTD.,Aspire FT Pte Ltd,AspireBA,Key,SG AM-Rachel,2026-Q3,2026-Q4,11113.380828919851,10767.5986981829,0.9688859640410109,-0.07120204669244755,-0.08759015690150584,11535.011676166527,7785.385715423366,0.6749352262477043,0.9832871340742898,-0.3083519078265855,Risk,Declining
69417,SGZAUT,ZAURAC TECHNOLOGIES PTE. LTD.,Aspire FT Pte Ltd,AspireBA,Key,SG AM-Rachel,2026-Q3,2026-Q4,11021.643430545428,4445.143306969567,0.40331038968746513,-0.07120204669244755,-0.08759015690150584,11439.793850224987,7721.119850528698,0.6749352262477043,0.4325767758558326,0.2423584503918717,Safe,Growing
126651,SGKSFP,KALEI SG PTE. LTD.,Aspire FT Pte Ltd,AspireBA,Key,SG AM-Rachel,2026-Q3,2026-Q4,10985.293766725725,7811.574079223051,0.7110937809313922,-0.07120204669244755,-0.08759015690150584,11402.065115554626,7695.655398457918,0.6749352262477043,0.7233404680212987,-0.0484052417735944,Risk,Declining
111587,SGGTYF,GOTYME FINANCIAL PTE. LTD.,Aspire FT Pte Ltd,AspireBA,Key,SG AM - Caroline,2026-Q3,2026-Q4,10944.486407468481,10599.260316677079,0.9684566202617035,-0.07120204669244755,-0.08759015690150584,11359.709564822402,7667.068145241618,0.6749352262477043,0.9476603652846236,-0.2727251390369193,Risk,Declining
83575,SGPP8Y,POURQUOI PAS PTE. LTD.,Aspire FT Pte Ltd,AspireBA,Key,SG AM-Rachel,2026-Q3,2026-Q4,10878.114801628299,10310.025823760416,0.9477768907363574,-0.07120204669244755,-0.08759015690150584,11290.81988488449,7620.572073526591,0.6749352262477043,0.9654425583454342,-0.29050733209772994,Risk,Declining
129420,SGRCCB,RACKSYS CREATION PTE. LTD.,Aspire FT Pte Ltd,AspireBA,Key,SG AM - Caroline,2026-Q3,2026-Q4,10806.896916018297,10437.283086831438,0.9657983385925513,-0.07120204669244755,-0.08759015690150584,11216.900062041244,7570.680981171696,0.6749352262477043,0.979352473546267,-0.3044172472985627,Risk,Declining
112237,SGDPUP,DPUNION PTE. LTD.,Aspire FT Pte Ltd,AspireBA,Scaled,SG AM - Caroline,2026-Q3,2026-Q4,10794.892703958414,10411.510260111067,0.964484830524831,-0.07120204669244755,-0.08759015690150584,11204.44042186464,7562.271531110134,0.6749352262477043,0.9799727052498872,-0.3050374790021829,Risk,Declining
130625,SGTAZP,TAZAPAY PTE. LTD.,Aspire FT Pte Ltd,AspireOS,Key,SG AM-Rachel,2026-Q3,2026-Q4,10781.982125686125,4502.737028072115,0.4176168143838003,-0.07120204669244755,-0.08759015690150584,11191.040028824083,7553.227133801498,0.6749352262477043,0.4541154092398011,0.2208198170079032,Safe,Growing
81753,SGBANS,BANDLAB SINGAPORE PTE. LTD.,Aspire FT Pte Ltd,AspireOS,Key,SG AM-Rachel,2026-Q3,2026-Q4,10770.531533968242,5650.000053199549,0.5245795005920094,-0.07120204669244755,-0.08759015690150584,11179.155012806177,7545.2055178264945,0.6749352262477043,0.5603423296488835,0.11459289659882077,Safe,Growing
66817,SGKRRT,KRRAVE TECHNOLOGIES PTE. LTD.,Aspire FT Pte Ltd,AspireBA,Key,SG AM - Caroline,2026-Q3,2026-Q4,10729.65005371813,7888.205808670492,0.7351782927847683,-0.07120204669244755,-0.08759015690150584,11136.72252900279,7516.566339770405,0.6749352262477043,0.8054700384640274,-0.13053481221632313,Risk,Declining
94208,SGVADF,VIAS DEVELOPMENT PTE. LTD.,Aspire FT Pte Ltd,AspireBA,Key,SG AM - Caroline,2026-Q3,2026-Q4,10599.777851528142,10246.619049973782,0.9666824336791694,-0.07120204669244755,-0.08759015690150584,11001.923101921826,7425.5854579554525,0.6749352262477043,0.9798401678805887,-0.3049049416328844,Risk,Declining
81235,SGDEDX,DECUBE DATA PTE. LTD.,Aspire FT Pte Ltd,AspireBA,Key,SG AM-Rachel,2026-Q3,2026-Q4,10348.519507506797,9178.122611867202,0.8869019964845608,-0.07120204669244755,-0.08759015690150584,10741.132260985423,7249.568532724712,0.6749352262477043,0.9093732460263055,-0.23443801977860124,Risk,Declining
127034,SGMC4R,MUST COMPANY SG PTE. LTD.,Aspire FT Pte Ltd,AspireBA,Key,SG AM-Rachel,2026-Q3,2026-Q4,10268.938727581097,3623.3914135504065,0.3528496478237256,-0.07120204669244755,-0.08759015690150584,10658.532263759324,7193.818884908855,0.6749352262477043,0.38334828222094014,0.29158694402676416,Safe,Growing
66036,SGSCNR,SCALE INSIGHTS PTE. LTD.,Aspire FT Pte Ltd,AspireBA,Key,SG AM-Rachel,2026-Q3,2026-Q4,10268.222358963198,8664.96507569669,0.8438622356218246,-0.07120204669244755,-0.08759015690150584,10657.788716813608,7193.317038882822,0.6749352262477043,0.8595900475011337,-0.18465482125342936,Risk,Declining
150189,SGENMN,MEDIATROPY PTE LTD (USD),Aspire FT Pte Ltd,AspireBA,Key,SG AM-Rachel,2026-Q3,2026-Q4,10213.826940066594,6198.512743049421,0.6068746591675663,-0.07120204669244755,-0.08759015690150584,10601.329588690374,7155.21078446922,0.6749352262477043,0.6326451199124936,0.042290106335210687,Safe,Growing
144668,SGHMGC,KIM HENG MARINE & OILFIELD PTE LTD,Aspire FT Pte Ltd,AspireBA,Key,SG AM - Caroline,2026-Q3,2026-Q4,10141.620844010373,6666.650526941432,0.6573555282219752,-0.07120204669244755,-0.08759015690150584,10526.384063658828,7104.6274095758,0.6749352262477043,0.7304494249137276,-0.05551419866602325,Risk,Growing
137316,SGPVPB,PIVENE PTE. LTD.,Aspire FT Pte Ltd,AspireBA,Key,SG AM-Rachel,2026-Q3,2026-Q4,9936.906025701068,9610.46516877704,0.9671486420340786,-0.07120204669244755,-0.08759015690150584,10313.90256447928,6961.216160853601,0.6749352262477043,0.984487353606661,-0.30955212735895665,Risk,Declining
102393,SGHYJD,TELEPORT EVERYWHERE PTE. LTD.,Aspire FT Pte Ltd,AspireOS,Key,SG AM-Rachel,2026-Q3,2026-Q4,9891.330272377438,5108.418922837369,0.5164541858543695,-0.07120204669244755,-0.08759015690150584,10266.597711452907,6929.288449173631,0.6749352262477043,0.5326121453981854,0.14232308084951895,Safe,Growing
137806,SGEQTJ,LEARTBAR PARTNERS PTE. LTD.,Aspire FT Pte Ltd,AspireBA,Key,SG AM - Caroline,2026-Q3,2026-Q4,9882.102423820377,8222.354879536233,0.832045097986093,-0.07120204669244755,-0.08759015690150584,10257.019767307,6922.823957274525,0.6749352262477043,0.8611679145014707,-0.18623268825376638,Risk,Declining
117503,SGKASE,KAIN SUITE PTE. LTD.,Aspire FT Pte Ltd,AspireBA,Key,SG AM-Rachel,2026-Q3,2026-Q4,9735.379106380184,5258.234596005555,0.5401160590201891,-0.07120204669244755,-0.08759015690150584,10104.729910071628,6820.038168026139,0.6749352262477043,0.5506843531541364,0.12425087309356786,Safe,Growing
84773,SGBRP3,JOIN BRANDS PTE. LTD.,Aspire FT Pte Ltd,AspireBA,Key,SG AM-Rachel,2026-Q3,2026-Q4,9652.302089735807,6559.086387909512,0.6795359621912788,-0.07120204669244755,-0.08759015690150584,10018.501032310125,6761.839260905093,0.6749352262477043,0.6937911306001325,-0.018855904352428232,Risk,Growing
134433,SGYDNT,YDNE TIME PTE LTD,Aspire FT Pte Ltd,AspireBA,Key,SG AM - Caroline,2026-Q3,2026-Q4,9624.010759831275,9203.029373219448,0.956257178309804,-0.07120204669244755,-0.08759015690150584,9989.136356897057,6742.020007061484,0.6749352262477043,0.9705292296248929,-0.29559400337718855,Risk,Declining
115418,SGFYWD,"Intrepid Philippines, Inc.",Aspire FT Pte Ltd,AspireOS,Key,SG AM-Rachel,2026-Q3,2026-Q4,9606.711807930118,3529.096148164527,0.3673573454396061,-0.07120204669244755,-0.08759015690150584,9971.181099605232,6729.90137141889,0.6749352262477043,0.3662231110113343,0.30871211523637,Safe,Growing
85644,SGGRVW,GREAT VISION SHIPPING PTE. LTD.,Aspire FT Pte Ltd,AspireBA,Key,SG AM - Caroline,2026-Q3,2026-Q4,9583.540653984695,9284.720863366703,0.9688194789997842,-0.07120204669244755,-0.08759015690150584,9947.130854641506,6713.669013892985,0.6749352262477043,0.9844535465480709,-0.30951832030036663,Risk,Declining
125582,SGKNSG,KINGMIDAS CAPITAL PTE. LTD,Aspire FT Pte Ltd,AspireBA,Key,SG AM-Rachel,2026-Q3,2026-Q4,9559.844300328501,9265.542033148095,0.9692147426323362,-0.07120204669244755,-0.08759015690150584,9922.535484401382,6697.068732115321,0.6749352262477043,0.9825156741254368,-0.30758044787773253,Risk,Declining
85191,SGMP9G,MONETRACK PTE. LTD.,Aspire FT Pte Ltd,AspireBA,Key,SG AM - Caroline,2026-Q3,2026-Q4,9500.44623685628,8526.237801645584,0.8974565603633095,-0.07120204669244755,-0.08759015690150584,9860.883916238543,6655.457917008809,0.6749352262477043,0.9115229877483947,-0.23658776150069039,Risk,Declining
65951,SGATAG,Atlasv Global Pte. Ltd.,Aspire FT Pte Ltd,AspireBA,Key,SG AM - Caroline,2026-Q3,2026-Q4,9494.31375552517,3840.449999671723,0.4045000090118985,-0.07120204669244755,-0.08759015690150584,9854.518774537093,6651.161858654443,0.6749352262477043,0.41973395201265623,0.25520127423504807,Safe,Growing
105066,SGHNPB,HONGTEX PTE. LTD.,Aspire FT Pte Ltd,AspireBA,Key,SG AM-Rachel,2026-Q3,2026-Q4,9453.91934688103,9024.849083800782,0.9546145627715976,-0.07120204669244755,-0.08759015690150584,9812.591841362135,6622.86389452613,0.6749352262477043,0.973793843323736,-0.2988586170760317,Risk,Declining
114313,SGEXLP,CILLIA EXPRESS LIMITED,AFT HK Limited,AspireBA,Key,SG AM - Caroline,2026-Q3,2026-Q4,9430.482603473787,6127.317346707738,0.6497352897348748,-0.07120204669244755,-0.08759015690150584,9788.265930731019,6606.445480530636,0.6749352262477043,0.6546928665975823,0.020242359650122,Safe,Growing
109572,SGSPLU,SUNA OPTOELECTRONICS (SINGAPORE) PTE LTD,Aspire FT Pte Ltd,AspireBA,Key,SG AM-Rachel,2026-Q3,2026-Q4,9323.670006998476,9023.152188142381,0.9677682909594052,-0.07120204669244755,-0.08759015690150584,9677.400968351778,6531.61881206426,0.6749352262477043,0.9822250436074472,-0.3072898173597429,Risk,Declining
77903,SGMUTW,MULTIPLIER TECHNOLOGIES PTE. LTD. (USD Advance/SGD Debit),Aspire FT Pte Ltd,AspireOS,Key,SG AM-Rachel,2026-Q3,2026-Q4,9311.256688595597,3244.4483620247547,0.34844366024175305,-0.07120204669244755,-0.08759015690150584,9664.51670073588,6522.922765985888,0.6749352262477043,0.3385216785596477,0.3364135476880566,Safe,Growing
65252,SGBYAW,DC Byte Asia Pte. Ltd.,Aspire FT Pte Ltd,AspireBA,Key,SG AM-Rachel,2026-Q3,2026-Q4,9217.510663989318,7983.454660616147,0.8661182993588125,-0.07120204669244755,-0.08759015690150584,9567.214043239104,6457.249774833798,0.6749352262477043,0.8974231363379082,-0.22248791009020386,Risk,Declining
80992,SGNVDN,INVIDEO INNOVATION PTE. LTD.,Aspire FT Pte Ltd,AspireOS,Key,SG AM-Rachel,2026-Q3,2026-Q4,9148.41274628503,4538.2122856852,0.49606553743741705,-0.07120204669244755,-0.08759015690150584,9495.494617819646,6408.843808211961,0.6749352262477043,0.5130377801493851,0.16189744609831924,Safe,Growing
82427,SGTPBD,TERRA PAYMENT SERVICES (SINGAPORE) PTE LTD,Aspire FT Pte Ltd,AspireBA,Key,SG AM - Caroline,2026-Q3,2026-Q4,9090.390858603536,8460.115822190757,0.9306657935597721,-0.07120204669244755,-0.08759015690150584,9435.271436217014,6368.197061511632,0.6749352262477043,0.9400588316381173,-0.265123605390413,Risk,Declining
134548,SGGVDN,GREENBOY VENTURES LIMITED,AFT HK Limited,AspireBA,Key,SG AM - Caroline,2026-Q3,2026-Q4,8977.29992050605,8693.365771887225,0.9683719881107838,-0.07120204669244755,-0.08759015690150584,9317.889938047845,6288.97215348753,0.6749352262477043,0.9885838085795932,-0.31364858233188886,Risk,Declining
119967,SGGTTH,GLORY TOP TRADING PTE. LTD.,Aspire FT Pte Ltd,AspireBA,Key,SG AM - Caroline,2026-Q3,2026-Q4,8907.056960438476,8517.077916870154,0.9562168463387569,-0.07120204669244755,-0.08759015690150584,9244.982028472796,6239.764037043246,0.6749352262477043,0.9701089067137244,-0.2951736804660201,Risk,Declining
142151,SGAEP5,CHRONOAI PTE. LTD.,Aspire FT Pte Ltd,AspireBA,Key,SG AM - Caroline,2026-Q3,2026-Q4,8823.340491997837,8474.428814620887,0.9604558298874005,-0.07120204669244755,-0.08759015690150584,9158.089438736532,6181.1171673303525,0.6749352262477043,0.9775485627706147,-0.30261333652291045,Risk,Declining
123816,SGJNMR,Jingkaida Microelectronics Technology Pte Ltd,Aspire FT Pte Ltd,AspireBA,Key,SG AM - Caroline,2026-Q3,2026-Q4,8780.172602397573,8461.930896285357,0.9637545045497949,-0.07120204669244755,-0.08759015690150584,9113.283801438587,6150.876264383492,0.6749352262477043,0.9808667340883884,-0.3059315078406841,Risk,Declining
80816,SGSSHW,"(USD) SPROUT SOLUTIONS PHIL., INC",Aspire FT Pte Ltd,AspireBA,Key,SG AM-Rachel,2026-Q3,2026-Q4,8756.850885233454,1751.218439325368,0.19998267211314757,-0.07120204669244755,-0.08759015690150584,9089.077281034255,6134.538431057724,0.6749352262477043,0.21496403065875005,0.4599711955889543,Safe,Growing
147380,SGDYMA,Dyment labs PTE LTD,Aspire FT Pte Ltd,AspireBA,Key,SG AM-Rachel,2026-Q3,2026-Q4,8752.545710516551,8282.216865638195,0.9462637659448911,-0.07120204669244755,-0.08759015690150584,9084.60877218066,6131.522477023633,0.6749352262477043,0.9675346312816148,-0.29259940503391046,Risk,Declining
135388,SGHECK,HELMSMAN CAPITAL PTE. LTD.,Aspire FT Pte Ltd,AspireBA,Key,SG AM - Caroline,2026-Q3,2026-Q4,8727.344383445485,8445.343078702877,0.9676876158024057,-0.07120204669244755,-0.08759015690150584,9058.451331299739,6113.867898744607,0.6749352262477043,0.979894510288153,-0.3049592840404487,Risk,Declining
125931,SGESH9,ESSENCE SHIPPING PTE. LTD.,Aspire FT Pte Ltd,AspireBA,Key,SG AM - Caroline,2026-Q3,2026-Q4,8652.510644572865,8201.611746754363,0.9478880851650473,-0.07120204669244755,-0.08759015690150584,8980.778473241946,6061.4437507180655,0.6749352262477043,0.95150223591648,-0.2765670096687757,Risk,Declining
107087,SGFGZX,OSOME LTD.,Aspire FT Pte Ltd,AspireOS,Key,SG AM-Rachel,2026-Q3,2026-Q4,8612.532395319713,5416.921511642964,0.6289580419560068,-0.07120204669244755,-0.08759015690150584,8939.283488140045,6033.437323560169,0.6749352262477043,0.647581191866027,0.027354034381677272,Safe,Growing
58755,SGASLS,Ascenda Loyalty Pte Ltd,Aspire FT Pte Ltd,AspireOS,Key,SG AM-Rachel,2026-Q3,2026-Q4,8540.328743898572,3588.7443815034667,0.4202115034585006,-0.07120204669244755,-0.08759015690150584,8864.340500490653,5982.855661235347,0.6749352262477043,0.4111980944280716,0.2637371318196327,Safe,Growing
143847,SGMPR3,MOBIVERSA PTE. LTD.,Aspire FT Pte Ltd,AspireBA,Key,SG AM-Rachel,2026-Q3,2026-Q4,8389.820382625408,4720.060835483235,0.5625937886892158,-0.07120204669244755,-0.08759015690150584,8708.12199854489,5877.418291280506,0.6749352262477043,0.5805594150203929,0.09437581122731142,Safe,Growing
95603,SGRNCW,PT. RINAIYANTI CAHAYA INTERMA,Aspire FT Pte Ltd,AspireBA,Key,Eureka,2026-Q3,2026-Q4,8389.671494275846,1250.290714138385,0.14902737431274166,-0.07120204669244755,-0.08759015690150584,8707.967461516322,5877.313988796166,0.6749352262477043,0.17868405490972022,0.4962511713379841,Safe,Growing
78038,SGZUZG,MATHRIX SINGAPORE PTE. LTD.,Aspire FT Pte Ltd,AspireBA,Key,SG AM-Rachel,2026-Q3,2026-Q4,8154.254441758128,7766.642138427613,0.9524650222654883,-0.07120204669244755,-0.08759015690150584,8463.618915258097,5712.394547444073,0.6749352262477043,0.969191727170745,-0.2942565009230407,Risk,Declining
83894,SGYUTW,YUKICHI TRADING PTE. LTD.,Aspire FT Pte Ltd,AspireBA,Key,SG AM-Rachel,2026-Q3,2026-Q4,8138.520887596222,7685.056746612515,0.9442817500567181,-0.07120204669244755,-0.08759015690150584,8447.288445371478,5701.3725380564165,0.6749352262477043,0.9605612534322172,-0.2856260271845129,Risk,Declining
120222,SGUPWW,UNITE PROPERTIES PTE. LTD.,Aspire FT Pte Ltd,AspireBA,Key,SG AM - Caroline,2026-Q3,2026-Q4,8109.502516505059,7856.162829568706,0.9687601444822617,-0.07120204669244755,-0.08759015690150584,8417.169145537098,5681.043961608278,0.6749352262477043,0.9848987612657081,-0.3099635350180038,Risk,Declining
74188,SGERAA,ERA AGRO TECHNOLOGY PTE. LTD.,Aspire FT Pte Ltd,AspireBA,Key,SG AM-Rachel,2026-Q3,2026-Q4,8081.398651417625,2305.211234095848,0.2852490433313139,-0.07120204669244755,-0.08759015690150584,8387.999047173747,5661.356034669741,0.6749352262477043,0.29987915131838994,0.37505607492931436,Safe,Growing
65171,SGLETF,SD LEGOS TECHNOLOGIES PTE LTD,Aspire FT Pte Ltd,AspireBA,Key,SG AM - Caroline,2026-Q3,2026-Q4,8066.232780310918,5727.357863693215,0.7100412323424729,-0.07120204669244755,-0.08759015690150584,8372.257797684677,5650.731710884414,0.6749352262477043,0.7087239739251052,-0.03378874767740092,Risk,Declining
91438,SGECME,ECOMMERCE ENABLERS PTE. LTD. (SGD),Aspire FT Pte Ltd,AspireOS,Key,SG AM-Rachel,2026-Q3,2026-Q4,8038.310282415314,3138.788504348945,0.3904786446494096,-0.07120204669244755,-0.08759015690150584,8343.275947407812,5631.170839210721,0.6749352262477043,0.4246340230234096,0.2503012032242947,Safe,Growing
90181,SGWULN,WULOOK INVESTMENT MANAGEMENT PTE. LTD.,Aspire FT Pte Ltd,AspireBA,Key,SG AM-Rachel,2026-Q3,2026-Q4,7938.086070086996,7691.892879545209,0.9689858250001201,-0.07120204669244755,-0.08759015690150584,8239.249326054813,5560.95960799205,0.6749352262477043,0.984941360062359,-0.3100061338146547,Risk,Declining
125477,SGKBLP,OKBL PTE. LTD.,Aspire FT Pte Ltd,AspireBA,Key,SG AM - Caroline,2026-Q3,2026-Q4,7841.2643869764415,5724.909075592046,0.7301002482585014,-0.07120204669244755,-0.08759015690150584,8138.75432256496,5493.131990074862,0.6749352262477043,0.7317772023257105,-0.05684197607800623,Risk,Declining
176595,SGDP67,DIGITAL PATHOLOGY PTE LTD,Aspire FT Pte Ltd,AspireBA,Scaled,SG AM - Caroline,2026-Q3,2026-Q4,7807.6083574814475,7558.587003314846,0.9681052964281971,-0.07120204669244755,-0.08759015690150584,8103.821416082722,5469.554540934783,0.6749352262477043,0.9790580958876297,-0.3041228696399254,Risk,Declining
58127,SGWDHP,WOODHOO PTE. LTD.,Aspire FT Pte Ltd,AspireBA,Key,SG AM - Caroline,2026-Q3,2026-Q4,7785.206210879734,7543.0831309889445,0.9688995932371804,-0.07120204669244755,-0.08759015690150584,8080.569353852521,5453.8609050527175,0.6749352262477043,0.9842090122862029,-0.30927378603849864,Risk,Declining
134985,SGUUDK,HAPPY SUPPLIER PTE. LTD.,Aspire FT Pte Ltd,AspireBA,Key,SG AM-Rachel,2026-Q3,2026-Q4,7755.8431892810595,5748.515265452194,0.7411850813844345,-0.07120204669244755,-0.08759015690150584,8050.092327805969,5433.29088658263,0.6749352262477043,0.7418105274591983,-0.06687530121149399,Risk,Declining
56632,SGPRPH,PRIVYR PTE. LTD.,Aspire FT Pte Ltd,AspireBA,Key,SG AM-Rachel,2026-Q3,2026-Q4,7725.027892351438,2590.4429779785455,0.3353312135666652,-0.07120204669244755,-0.08759015690150584,8018.107928516534,5411.703488811819,0.6749352262477043,0.36990365334660014,0.30503157290110416,Safe,Growing
76663,SGMEPR,MEDIQ PTE. LTD.,Aspire FT Pte Ltd,AspireBA,Key,SG AM-Rachel,2026-Q3,2026-Q4,7613.39545760739,7212.356098037697,0.9473245069426979,-0.07120204669244755,-0.08759015690150584,7902.240267897849,5333.500323077354,0.6749352262477043,0.9648246782088968,-0.28988945196119253,Risk,Declining
123806,SGKPTZ,SHOPUP PTE. LTD.,Aspire FT Pte Ltd,AspireBA,Key,SG AM - Caroline,2026-Q3,2026-Q4,7605.654355665489,3681.137650599361,0.48400012391534253,-0.07120204669244755,-0.08759015690150584,7894.205476085995,5328.077359047967,0.6749352262477043,0.4913555859786737,0.18357964026903062,Safe,Growing
116072,SGFYDR,INTREPID DIGITAL COMMERCE PTE. LTD.,Aspire FT Pte Ltd,AspireOS,Key,SG AM-Rachel,2026-Q3,2026-Q4,7521.0459652635645,2631.2970491067695,0.34985786036404837,-0.07120204669244755,-0.08759015690150584,7806.387125737723,5268.8056608869565,0.6749352262477043,0.3411137117603701,0.3338215144873342,Safe,Growing
159924,SGFLJY,One Funnel Limited,AFT HK Limited,AspireBA,Key,SG AM-Rachel,2026-Q3,2026-Q4,7413.778549058129,4086.4603209725287,0.5511980556111548,-0.07120204669244755,-0.08759015690150584,7695.050088210667,5193.660372273884,0.6749352262477043,0.5574341146305736,0.11750111161713073,Safe,Growing
98527,SGWALH,WALKER HOLDINGS PTE. LTD.,Aspire FT Pte Ltd,AspireBA,Key,SG AM-Rachel,2026-Q3,2026-Q4,7377.213965432361,4887.224764278307,0.6624756699722316,-0.07120204669244755,-0.08759015690150584,7657.098279886071,5168.045359935813,0.6749352262477043,0.682000465313239,-0.00706523906553469,Risk,Growing
110521,SGTTKK,TRY-V Technologies Pte. Ltd.,Aspire FT Pte Ltd,AspireBA,Key,SG AM-Rachel,2026-Q3,2026-Q4,7279.9580623829725,7025.141003682269,0.9649974551340625,-0.07120204669244755,-0.08759015690150584,7556.152582575719,5099.913552882918,0.6749352262477043,0.9791190881796162,-0.30418386193191194,Risk,Declining
125793,SGNSG8,NINE SMART PTE. LTD.,Aspire FT Pte Ltd,AspireBA,Key,SG AM-Rachel,2026-Q3,2026-Q4,7250.735606929545,6993.286328738523,0.964493357343636,-0.07120204669244755,-0.08759015690150584,7525.8214556170915,5079.442006846749,0.6749352262477043,0.9750849507459025,-0.3001497244981982,Risk,Declining
124956,SGKH5E,KAYNES HOLDING PTE. LTD.,Aspire FT Pte Ltd,AspireBA,Scaled,SG AM - Caroline,2026-Q3,2026-Q4,7231.311616340054,6972.036398307107,0.9641454784707271,-0.07120204669244755,-0.08759015690150584,7505.660537738305,5065.834693176868,0.6749352262477043,0.9767713722290975,-0.3018361459813932,Risk,Declining
92525,SGVBPX,VIBEFAM PTE. LTD.,Aspire FT Pte Ltd,AspireBA,Key,SG AM-Rachel,2026-Q3,2026-Q4,7217.2870427712705,6313.338426439857,0.8747522980623592,-0.07120204669244755,-0.08759015690150584,7491.1038855044335,5056.009895807992,0.6749352262477043,0.8637943371032133,-0.188859110855509,Risk,Declining
72736,SGKNEN,KINETIC INNOVATION PTE. LTD.,Aspire FT Pte Ltd,AspireBA,Key,SG AM-Rachel,2026-Q3,2026-Q4,7150.3771787302985,5788.796218663963,0.809579141626748,-0.07120204669244755,-0.08759015690150584,7421.65552637371,5009.136751825565,0.6749352262477043,0.7996724552472909,-0.12473722899958661,Risk,Declining
104921,SGTTMS,TTMFS SINGAPORE PTE LTD,Aspire FT Pte Ltd,AspireOS,Key,SG AM-Rachel,2026-Q3,2026-Q4,7149.123992759404,2452.4737925013087,0.3430453570234845,-0.07120204669244755,-0.08759015690150584,7420.354795747341,5008.25884290597,0.6749352262477043,0.37193083901847523,0.30300438722922907,Safe,Growing
147173,SGSGG4,Stadioo Global Limited,AFT HK Limited,AspireBA,Key,SG AM - Caroline,2026-Q3,2026-Q4,7048.908951394268,6792.782699829909,0.9636644119919158,-0.07120204669244755,-0.08759015690150584,7316.337693294935,4938.054036328624,0.6749352262477043,0.9757630085768491,-0.30082778232914476,Risk,Declining
121003,SGCTYN,LION CITY INNOVATIONS PTE. LTD.,Aspire FT Pte Ltd,AspireBA,Key,SG AM - Caroline,2026-Q3,2026-Q4,6967.42026171139,6603.374352952589,0.9477502583331494,-0.07120204669244755,-0.08759015690150584,7231.757402073252,4880.9678183368205,0.6749352262477043,0.9436798456530778,-0.26874461940537353,Risk,Declining
115951,SGSKPL,SKINSEOUL PTE. LTD.,Aspire FT Pte Ltd,AspireBA,Key,SG AM-Rachel,2026-Q3,2026-Q4,6957.548834540186,3086.4021715592444,0.44360481614402064,-0.07120204669244755,-0.08759015690150584,7221.511462567252,4874.052472838219,0.6749352262477043,0.4750195416957636,0.1999156845519407,Safe,Growing
146268,SGGDL7,Goodsol HK Limited,AFT HK Limited,AspireBA,Key,SG AM - Caroline,2026-Q3,2026-Q4,6825.257483724747,1674.5519899228898,0.2453463468471283,-0.07120204669244755,-0.08759015690150584,7084.201106717576,4781.3768767466645,0.6749352262477043,0.3216847670978464,0.3532504591498579,Safe,Growing
104000,SGRPBE,RADIAROSE PTE. LTD.,Aspire FT Pte Ltd,AspireBA,Key,SG AM-Rachel,2026-Q3,2026-Q4,6807.36479032311,5367.382777687537,0.7884670416542751,-0.07120204669244755,-0.08759015690150584,7065.629581950887,4768.8423004764945,0.6749352262477043,0.8072914676339271,-0.13235624138622282,Risk,Declining
108170,SGYNCA,YING CONSERVATION RESEARCH PTE. LTD.,Aspire FT Pte Ltd,AspireBA,Key,SG AM - Caroline,2026-Q3,2026-Q4,6785.976964681939,6554.103522829971,0.9658304997115716,-0.07120204669244755,-0.08759015690150584,7043.430323030799,4753.859238634733,0.6749352262477043,0.9826764793914532,-0.3077412531437489,Risk,Declining
74054,SGPL5G,Primal Co Ltd,Aspire FT Pte Ltd,AspireBA,Key,SG AM-Rachel,2026-Q3,2026-Q4,6781.3125004803705,3802.1356769048534,0.5606784345413252,-0.07120204669244755,-0.08759015690150584,7038.58889359934,4750.591587366049,0.6749352262477043,0.5701841671776622,0.10475105907004212,Safe,Growing
121299,SGHGFS,HIGH FIVE SOLUTIONS PTE. LTD.,Aspire FT Pte Ltd,AspireBA,Key,SG AM-Rachel,2026-Q3,2026-Q4,6627.133251879148,5357.912601088326,0.8084811935189428,-0.07120204669244755,-0.08759015690150584,6878.560234434733,4642.582608086668,0.6749352262477043,0.8213910396466293,-0.146455813398925,Risk,Declining
87141,SGTCZF,THE CARE SVC PTE. LTD.,Aspire FT Pte Ltd,AspireBA,Key,SG AM - Caroline,2026-Q3,2026-Q4,6622.8092035723,6336.917119316861,0.9568322028511359,-0.07120204669244755,-0.08759015690150584,6874.072135945568,4639.5534323174625,0.6749352262477043,0.9733301104250841,-0.2983948841773798,Risk,Declining
62907,SGAMEN,AMENLI INSURANCE PTE. LTD.,Aspire FT Pte Ltd,AspireBA,Key,SG AM - Caroline,2026-Q3,2026-Q4,6569.5745630587235,4328.096348567478,0.6588092283638475,-0.07120204669244755,-0.08759015690150584,6818.8178250069295,4602.260351462931,0.6749352262477043,0.7052040684350478,-0.030268842187343492,Risk,Growing
54182,SGFEXR,PROPERTY SCOUT HOLDING PTE. LTD.,Aspire FT Pte Ltd,AspireOS,Key,SG AM-Rachel,2026-Q3,2026-Q4,6494.836389362907,5704.39589885268,0.8782970896996279,-0.07120204669244755,-0.08759015690150584,6741.2441577756945,4549.903150819353,0.6749352262477043,0.8800254989466775,-0.20509027269897318,Risk,Declining
80725,SGSPSV,SPROUT SOLUTIONS PHIL INC,Aspire FT Pte Ltd,AspireBA,Key,SG AM-Rachel,2026-Q3,2026-Q4,6476.209866357811,4117.2367852126945,0.6357478942429963,-0.07120204669244755,-0.08759015690150584,6721.910962624941,4536.854496376189,0.6749352262477043,0.653731524272082,0.02120370197562227,Safe,Growing
146925,SGLT93,LUSTRON TECHNOLOGY PTE. LTD.,Aspire FT Pte Ltd,AspireBA,Key,SG AM-Rachel,2026-Q3,2026-Q4,6429.587598727286,6222.957824683658,0.9678626706813157,-0.07120204669244755,-0.08759015690150584,6673.519891557889,4504.193657877179,0.6749352262477043,0.9836075360890983,-0.30867230984139404,Risk,Declining
144644,SGMGHM,MADINA GLOBAL SOLUTION PTE. LTD.,Aspire FT Pte Ltd,AspireBA,Key,SG AM-Rachel,2026-Q3,2026-Q4,6410.600632895538,3563.8111653245287,0.555924689339886,-0.07120204669244755,-0.08759015690150584,6653.812578730613,4490.8924982353665,0.6749352262477043,0.5619414787186152,0.11299374752908908,Safe,Growing
79689,SGPSGR,PURPLE STONE CONSULTING PTE. LTD.,Aspire FT Pte Ltd,AspireBA,Key,SG AM-Rachel,2026-Q3,2026-Q4,6384.0284115764725,5869.491584946423,0.9194024848484361,-0.07120204669244755,-0.08759015690150584,6626.2322332088,4472.2775514906125,0.6749352262477043,0.9486909302601906,-0.2737557040124863,Risk,Declining
55758,SGMMUS,IMMUNI SOFTWARE PTE. LTD.,Aspire FT Pte Ltd,AspireOS,Key,SG AM-Rachel,2026-Q3,2026-Q4,6370.248557203832,3889.5797727477043,0.6105852444876976,-0.07120204669244755,-0.08759015690150584,6611.929584579081,4462.624190101772,0.6749352262477043,0.6314490201880606,0.043486206059643706,Safe,Growing
92699,SGWATH,WAFFO TECHNOLOGIES PTE. LTD.,Aspire FT Pte Ltd,AspireBA,Key,SG AM-Rachel,2026-Q3,2026-Q4,6345.789703735124,5129.791942529996,0.8083772362501402,-0.07120204669244755,-0.08759015690150584,6586.542786026024,4445.48974547666,0.6749352262477043,0.8331816027506226,-0.15824637650291828,Risk,Declining
124505,SGBWXZ,Benjamin Warwick Limited,AFT HK Limited,AspireBA,Key,SG AM - Caroline,2026-Q3,2026-Q4,6290.478078531506,5646.1858581802235,0.8975765892023122,-0.07120204669244755,-0.08759015690150584,6529.132691620622,4406.7416504202465,0.6749352262477043,0.910695010624382,-0.23575978437667766,Risk,Declining
70699,SGNTCD,INTELLECT COMPANY PTE. LTD.,Aspire FT Pte Ltd,AspireOS,Key,SG AM-Rachel,2026-Q3,2026-Q4,6277.7906865714685,2982.21592888913,0.4750422684955473,-0.07120204669244755,-0.08759015690150584,6515.9639523636815,4397.853604410467,0.6749352262477043,0.5066747617504069,0.16826046449729737,Safe,Growing
72147,SGCP9H,CARGOAI PTE. LTD.,Aspire FT Pte Ltd,AspireBA,Key,SG AM-Rachel,2026-Q3,2026-Q4,6273.310480819034,4080.549409355687,0.650461892780881,-0.07120204669244755,-0.08759015690150584,6511.313771967498,4394.715033852676,0.6749352262477043,0.648277178367055,0.026658047880649294,Safe,Growing
133261,SGJVHF,CAVAS C A PTE LTD,Aspire FT Pte Ltd,AspireBA,Key,SG AM - Caroline,2026-Q3,2026-Q4,6265.543860537259,6054.692617929664,0.9663474955565127,-0.07120204669244755,-0.08759015690150584,6503.252493674803,4389.27419316435,0.6749352262477043,0.9821353851077025,-0.3072001588599982,Risk,Declining
99918,SGJTY5,DIGITAL ASSET NETWORK SECURITY PTE LTD,Aspire FT Pte Ltd,AspireBA,Key,SG AM-Rachel,2026-Q3,2026-Q4,6259.370563656295,6020.260323792887,0.9617996350540817,-0.07120204669244755,-0.08759015690150584,6496.844987921283,4384.949541818915,0.6749352262477043,0.9761592273773954,-0.30122400112969105,Risk,Declining
108958,SGMBBP,MOBBIN PTE. LTD.,Aspire FT Pte Ltd,AspireOS,Key,SG AM-Rachel,2026-Q3,2026-Q4,6247.578094746227,2741.6494204096175,0.43883395754831,-0.07120204669244755,-0.08759015690150584,6484.605124223416,4376.688426644754,0.6749352262477043,0.45366751827863694,0.22126770796906736,Safe,Growing
138436,SGYNQE,YAQITE INTERNATIONAL PTE. LTD.,Aspire FT Pte Ltd,AspireBA,Key,SG AM-Rachel,2026-Q3,2026-Q4,6205.450322312684,5774.691573292665,0.9305838050993404,-0.07120204669244755,-0.08759015690150584,6440.879065124707,4347.176169054046,0.6749352262477043,0.9520434486360451,-0.27710822238834076,Risk,Declining
96850,SGGP5G,GOROCKY PTE. LTD.,Aspire FT Pte Ltd,AspireBA,Key,SG AM-Rachel,2026-Q3,2026-Q4,6198.788917115225,4039.704633756495,0.6516925624943657,-0.07120204669244755,-0.08759015690150584,6433.964932700448,4342.5095775219725,0.6749352262477043,0.7063945384493927,-0.031459312201688405,Risk,Growing
122962,SGEP8R,ERANOVA PTE. LTD.,Aspire FT Pte Ltd,AspireBA,Key,SG AM - Caroline,2026-Q3,2026-Q4,6186.130398822612,5974.015522521747,0.9657112180594777,-0.07120204669244755,-0.08759015690150584,6420.82616254976,4333.641758717701,0.6749352262477043,0.978694858958095,-0.30375963271039075,Risk,Declining
69527,SGTAPG,TABLEVIBE PTE. LTD.,Aspire FT Pte Ltd,AspireOS,Key,SG AM-Rachel,2026-Q3,2026-Q4,6177.016869512727,4345.5161913346665,0.70349754309113,-0.07120204669244755,-0.08759015690150584,6411.366874811949,4327.257352208239,0.6749352262477043,0.7227622511742999,-0.04782702492659563,Risk,Declining
80746,SGDGP4,DIGITIBLE PTE. LTD.,Aspire FT Pte Ltd,AspireBA,Key,SG AM-Rachel,2026-Q3,2026-Q4,6166.97839617892,5463.349896795392,0.8859038488249775,-0.07120204669244755,-0.08759015690150584,6400.9475515745935,4320.224983921687,0.6749352262477043,0.9506600397178557,-0.27572481347015143,Risk,Declining
83147,SGGEKD,META 1 NETWORK PTE. LTD.,Aspire FT Pte Ltd,AspireBA,Key,SG AM - Caroline,2026-Q3,2026-Q4,6155.074960520959,4421.96985496274,0.7184266452196821,-0.07120204669244755,-0.08759015690150584,6388.59251115847,4311.886131923132,0.6749352262477043,0.7282275195317622,-0.053292293284057934,Risk,Declining
122858,SGNUPR,NUTRIMOTION PTE. LTD.,Aspire FT Pte Ltd,AspireBA,Key,SG AM - Caroline,2026-Q3,2026-Q4,6149.5467014406395,5782.511308328965,0.9403150490709031,-0.07120204669244755,-0.08759015690150584,6382.85451531166,4308.013356398056,0.6749352262477043,0.9509364864941819,-0.27600126024647764,Risk,Declining
107154,SGAPMP,APPLABS MEDIA PTE. LTD.,Aspire FT Pte Ltd,AspireBA,Key,SG AM-Rachel,2026-Q3,2026-Q4,6131.5293019639485,5775.787848580739,0.9419816108080468,-0.07120204669244755,-0.08759015690150584,6364.153553242857,4295.391418333099,0.6749352262477043,0.9422641917906898,-0.26732896554298546,Risk,Declining
104726,SGBLTH,BLUE TECHNOLOGY COMPANY LIMITED,Aspire FT Pte Ltd,AspireBA,Scaled,SG AM-Rachel,2026-Q3,2026-Q4,6130.80534203165,1162.3081747142828,0.1895849093015099,-0.07120204669244755,-0.08759015690150584,6363.402126975668,4294.884254275445,0.6749352262477043,0.15437830487098433,0.5205569213767199,Safe,Growing
93539,SGNTAL,INITIA LABS PTE. LTD.,Aspire FT Pte Ltd,AspireBA,Key,SG AM - Caroline,2026-Q3,2026-Q4,6125.344163601637,2333.1617092286633,0.3809029577624238,-0.07120204669244755,-0.08759015690150584,6357.733756753719,4291.058471537238,0.6749352262477043,0.4087969003375965,0.2661383259101078,Safe,Growing
102761,SGAYK4,SHARDLAB PTE. LTD.,Aspire FT Pte Ltd,AspireBA,Key,SG AM - Caroline,2026-Q3,2026-Q4,6097.362856693539,4237.227979860115,0.6949279679506998,-0.07120204669244755,-0.08759015690150584,6328.690866307689,4271.45640170316,0.6749352262477043,0.7069404126245411,-0.0320051863768368,Risk,Growing
133106,SGGCAC,GRAND CORNERSTONE PTE. LTD.,Aspire FT Pte Ltd,AspireBA,Key,SG AM-Rachel,2026-Q3,2026-Q4,6047.433120981328,5671.390766495771,0.937817856442117,-0.07120204669244755,-0.08759015690150584,6276.866845040507,4236.478544184129,0.6749352262477043,0.9655668772946865,-0.2906316510469822,Risk,Declining
77290,SGGLDA,GOLDIE AGENCY PTE. LTD.,Aspire FT Pte Ltd,AspireBA,Key,SG AM-Rachel,2026-Q3,2026-Q4,6025.786839208614,2081.1471291785633,0.34537350635056435,-0.07120204669244755,-0.08759015690150584,6254.399324414911,4221.314423067467,0.6749352262477043,0.3758269869935485,0.2991082392541558,Safe,Growing
86540,SGEMBA,Embassy Alliance Travel Pte Ltd,Aspire FT Pte Ltd,AspireBA,Key,SG AM - Caroline,2026-Q3,2026-Q4,6024.828467358714,4415.592711290744,0.7328993240576923,-0.07120204669244755,-0.08759015690150584,6253.404592870218,4220.643043707294,0.6749352262477043,0.741141404360419,-0.06620617811271468,Risk,Declining
113081,SGLPRM,YOBO LABS PTE. LTD.,Aspire FT Pte Ltd,AspireBA,Key,SG AM - Caroline,2026-Q3,2026-Q4,6021.538088204357,5491.741000633457,0.9120163187859387,-0.07120204669244755,-0.08759015690150584,6249.989379934677,4218.337996191961,0.6749352262477043,0.9285704604655186,-0.2536352342178143,Risk,Declining
146485,SGSYPB,SYNGENTIX PTE. LTD.,Aspire FT Pte Ltd,AspireBA,Key,SG AM-Rachel,2026-Q3,2026-Q4,5909.147322691633,5624.133850670692,0.9517674113612864,-0.07120204669244755,-0.08759015690150584,6133.33461821636,4139.603588198735,0.6749352262477043,0.9681481034618249,-0.2932128772141206,Risk,Declining
147638,SGBMM2,BEFITTING MOTION PTE. LTD.,Aspire FT Pte Ltd,AspireBA,Key,SG AM-Rachel,2026-Q3,2026-Q4,5865.135323421401,5675.832849423976,0.9677241080454736,-0.07120204669244755,-0.08759015690150584,6087.652846549501,4108.771351303369,0.6749352262477043,0.985639787684102,-0.3107045614363977,Risk,Declining
107103,SGQUFM,QUANTUM FRONTIER PTE LTD,Aspire FT Pte Ltd,AspireBA,Key,SG AM - Caroline,2026-Q3,2026-Q4,5857.167839853535,5665.546822399422,0.967284356075597,-0.07120204669244755,-0.08759015690150584,6079.383084413226,4103.189797524908,0.6749352262477043,0.983459101633305,-0.30852387538560067,Risk,Declining
84886,SGPATN,PATEN INTERNATIONAL PTE. LTD.,Aspire FT Pte Ltd,AspireBA,Key,SG AM - Caroline,2026-Q3,2026-Q4,5850.646214799164,4922.8643262851065,0.8414223225175981,-0.07120204669244755,-0.08759015690150584,6072.614035254577,4098.621127799533,0.6749352262477043,0.8495886181705696,-0.17465339192286533,Risk,Declining
87493,SGGTZ7,GETGO TECHNOLOGIES PTE. LTD.,Aspire FT Pte Ltd,AspireOS,Key,SG AM-Rachel,2026-Q3,2026-Q4,5846.741554024815,1191.370967791123,0.20376665477388853,-0.07120204669244755,-0.08759015690150584,6068.561235452525,4095.8857504481975,0.6749352262477043,0.24837933046262306,0.42655589578508124,Safe,Growing
95083,SGGP5E,GLINTS PTE. LTD.,Aspire FT Pte Ltd,AspireOS,Key,SG AM-Rachel,2026-Q3,2026-Q4,5821.981904650718,2842.081512991439,0.48816392072966186,-0.07120204669244755,-0.08759015690150584,6042.862229090322,4078.5405857747833,0.6749352262477043,0.5094586007152226,0.16547662553248166,Safe,Growing
137290,SGDRDU,SPRING STAR FINANCIAL CONSULTING PTE. LTD.,Aspire FT Pte Ltd,AspireBA,Key,SG AM-Rachel,2026-Q3,2026-Q4,5800.722183851255,5617.770352802503,0.9684605079763904,-0.07120204669244755,-0.08759015690150584,6020.795935184899,4063.647266705278,0.6749352262477043,0.9852410448565191,-0.3103058186088148,Risk,Declining
105103,SGTML4,TIME LOGISTICS & TECHNOLOGY PTE. LTD.,Aspire FT Pte Ltd,AspireBA,Key,SG AM - Caroline,2026-Q3,2026-Q4,5785.751535047027,5520.3551108917545,0.9541293084316461,-0.07120204669244755,-0.08759015690150584,6005.257314542367,4053.1597042663334,0.6749352262477043,0.9719897709194218,-0.29705454467171755,Risk,Declining
137265,SGS2GT,OMNISHELF PTE. LTD.,Aspire FT Pte Ltd,AspireBA,Key,SG AM - Caroline,2026-Q3,2026-Q4,5745.963110780685,3385.1340596229275,0.5891325778391571,-0.07120204669244755,-0.08759015690150584,5963.9593562024365,4025.2862574106043,0.6749352262477043,0.6140751985100608,0.06086002773764354,Safe,Growing
77244,SGPPYK,PROPFUNNELS PTE. LIMITED,Aspire FT Pte Ltd,AspireBA,Scaled,SG AM-Rachel,2026-Q3,2026-Q4,5745.858934943896,551.4142248545947,0.09596724025038719,-0.07120204669244755,-0.08759015690150584,5963.851228035838,4025.2132779020176,0.6749352262477043,0.09113295134187437,0.5838022749058299,Safe,Growing
50195,SGDEPK,Deliveree Private Limited,Aspire FT Pte Ltd,AspireBA,Key,SG AM-Rachel,2026-Q3,2026-Q4,5745.482379814069,3481.3756414728355,0.6059326983064384,-0.07120204669244755,-0.08759015690150584,5963.460386771047,4024.9494853645388,0.6749352262477043,0.619370861877844,0.05556436436986034,Safe,Growing
91832,SGFRPA,FIRST PAGE DIGITAL PTE. LTD.,Aspire FT Pte Ltd,AspireOS,Key,SG AM-Rachel,2026-Q3,2026-Q4,5745.35390526491,-232.44506861839068,-0.040457919990861374,-0.07120204669244755,-0.08759015690150584,5963.327038022592,4024.8594835968306,0.6749352262477043,-0.11985563565847378,0.7947908619061781,Safe,Growing
115420,SG7BGM,PT INTREPID DIGITAL INDONESIA,Aspire FT Pte Ltd,AspireOS,Key,SG AM-Rachel,2026-Q3,2026-Q4,5737.386429347068,7.592882546787845,0.0013234044177240364,-0.07120204669244755,-0.08759015690150584,5955.057283826577,4019.2779351775303,0.6749352262477043,0.011833999153109485,0.6631012270945948,Safe,Growing
63053,SGTNAP,Tinai Private Limited,Aspire FT Pte Ltd,AspireBA,Key,SG AM - Caroline,2026-Q3,2026-Q4,5692.262575582326,5322.274474082879,0.9350015751053796,-0.07120204669244755,-0.08759015690150584,5908.221474988329,3987.666797942793,0.6749352262477043,0.9512183009835316,-0.27628307473582725,Risk,Declining
111928,SGTPVY,TPA VENTURES PTE. LTD. (PHP),Aspire FT Pte Ltd,AspireOS,Key,SG AM-Rachel,2026-Q3,2026-Q4,5674.338919116115,2671.364817255576,0.47077991909437994,-0.07120204669244755,-0.08759015690150584,5889.617812448544,3975.1105307574676,0.6749352262477043,0.4283017215489177,0.2466335046987866,Safe,Growing
74424,SGMVST,MVS TECHNOLOGY PTE. LTD.,Aspire FT Pte Ltd,AspireBA,Key,SG AM-Rachel,2026-Q3,2026-Q4,5673.1150157264365,5339.368663802923,0.9411705295947049,-0.07120204669244755,-0.08759015690150584,5888.347475356009,3974.2531355045066,0.6749352262477043,0.9492246021916384,-0.2742893759439341,Risk,Declining
78894,SGDAGC,Dagaz Company Limited,Aspire FT Pte Ltd,AspireBA,Key,SG AM - Caroline,2026-Q3,2026-Q4,5670.112108973562,5241.9011164230715,0.9244792723105422,-0.07120204669244755,-0.08759015690150584,5885.230641244943,3972.1494743685776,0.6749352262477043,0.9326951474723331,-0.25775992122462876,Risk,Declining
103959,SGSQPY,SQUAREX PTE. LTD.,Aspire FT Pte Ltd,AspireOS,Key,SG AM-Rachel,2026-Q3,2026-Q4,5634.858190032291,3750.8486496886403,0.6656509397740755,-0.07120204669244755,-0.08759015690150584,5848.639222946745,3947.4526371807588,0.6749352262477043,0.7114173863662281,-0.03648216011852379,Risk,Growing
70664,SGHRCH,HRC SG HOLDINGS PTE. LTD.,Aspire FT Pte Ltd,AspireBA,Key,SG AM - Caroline,2026-Q3,2026-Q4,5634.626866418983,3165.0005168167445,0.5617054317614861,-0.07120204669244755,-0.08759015690150584,5848.399123140794,3947.2905853639068,0.6749352262477043,0.5837687099235812,0.09116651632412309,Safe,Growing
122552,SGCPS7,CYBROG PTE. LTD.,Aspire FT Pte Ltd,AspireBA,Key,SG AM - Caroline,2026-Q3,2026-Q4,5633.12152144531,2165.812914518616,0.3844782872645939,-0.07120204669244755,-0.08759015690150584,5846.836666844615,3946.2360285701434,0.6749352262477043,0.3934166520717989,0.2815185741759054,Safe,Growing
89596,SGSACE,Sasi Capital Limited,AFT HK Limited,AspireBA,Key,SG AM - Caroline,2026-Q3,2026-Q4,5625.126718833109,5445.295831274892,0.9680307846299467,-0.07120204669244755,-0.08759015690150584,5838.538549206066,3940.6353366643393,0.6749352262477043,0.9810950339674674,-0.30615980771976314,Risk,Declining
102400,SGCLBN,COVE LIVING PTE. LTD.,Aspire FT Pte Ltd,AspireOS,Key,SG AM-Rachel,2026-Q3,2026-Q4,5616.943351043826,3298.8710511591344,0.5873071606723768,-0.07120204669244755,-0.08759015690150584,5830.044712411226,3934.902547005503,0.6749352262477043,0.6112362614402882,0.0636989648074161,Safe,Growing
99490,SGBRLG,X HOLDINGS LABO PTE. LTD.,Aspire FT Pte Ltd,AspireBA,Key,SG AM-Rachel,2026-Q3,2026-Q4,5573.056983970863,5397.349202854582,0.9684719209543973,-0.07120204669244755,-0.08759015690150584,5784.49333930487,3904.158320692071,0.6749352262477043,0.9853935328125615,-0.3104583065648572,Risk,Declining
122276,SGGPDD,GRAAS PTE. LTD.,Aspire FT Pte Ltd,AspireOS,Key,SG AM-Rachel,2026-Q3,2026-Q4,5543.286270621828,2887.82671328005,0.5209593321176434,-0.07120204669244755,-0.08759015690150584,5753.593154079928,3883.302697186179,0.6749352262477043,0.5574812292543773,0.11745399699332704,Safe,Growing
105159,SGRPKP,RENTLY PTE. LTD.,Aspire FT Pte Ltd,AspireBA,Key,SG AM - Caroline,2026-Q3,2026-Q4,5539.505226452177,2747.1129785646594,0.495913058344395,-0.07120204669244755,-0.08759015690150584,5749.668660776188,3880.6539184103112,0.6749352262477043,0.5189550140506788,0.15598021219702551,Safe,Growing
110383,SGPSEC,POSEIDON CONSULTANCY LIMITED,AFT HK Limited,AspireBA,Key,SG AM-Rachel,2026-Q3,2026-Q4,5532.528888354149,2730.208065938771,0.49348283959001077,-0.07120204669244755,-0.08759015690150584,5742.427647203771,3875.7667032765494,0.6749352262477043,0.4837667527382871,0.19116847350941718,Safe,Growing
71355,SGUANN,UANGCERMAT INTERNATIONAL PTE. LTD.,Aspire FT Pte Ltd,AspireOS,Key,SG AM-Rachel,2026-Q3,2026-Q4,5434.078967867263,4953.779913799951,0.9116135306631702,-0.07120204669244755,-0.08759015690150584,5640.24263259699,3806.798437323797,0.6749352262477043,0.9195243733322374,-0.24458914708453305,Risk,Declining
93695,SGSGLK,SERVI GROUP PTE. LTD.,Aspire FT Pte Ltd,AspireBA,Key,SG AM-Rachel,2026-Q3,2026-Q4,5429.216633297838,3674.7535801404138,0.6768478453415994,-0.07120204669244755,-0.08759015690150584,5635.195825788588,3803.39216962874,0.6749352262477043,0.6873982697808425,-0.012463043533138207,Risk,Growing
77008,SGPXLT,PIXELATION LABS PTE. LTD.,Aspire FT Pte Ltd,AspireBA,Key,SG AM - Caroline,2026-Q3,2026-Q4,5416.8527031006615,3581.7037202786482,0.6612149003476585,-0.07120204669244755,-0.08759015690150584,5622.362820118828,3794.730722043582,0.6749352262477043,0.6699264102457472,0.005008816001957128,Safe,Growing
116549,SGCSUV,OCEAN STAR GLOBAL PTE. LTD.,Aspire FT Pte Ltd,AspireBA,Key,SG AM-Rachel,2026-Q3,2026-Q4,5380.384231640325,4948.330886381876,0.9196984217748462,-0.07120204669244755,-0.08759015690150584,5584.510770361634,3769.183040276771,0.6749352262477043,0.9232637987418644,-0.24832857249416007,Risk,Declining
52843,SGTNYA,TINY ASSETS PTE. LTD.,Aspire FT Pte Ltd,AspireBA,Key,SG AM - Caroline,2026-Q3,2026-Q4,5373.228755348832,216.24372710543804,0.04024465306640372,-0.07120204669244755,-0.08759015690150584,5577.083822267124,3764.1703313842727,0.6749352262477043,0.03979942750848286,0.6351357987392214,Safe,Growing
128220,SGNEV8,NEW VISION MEDICAL SUPPLIES PTE. LTD.,Aspire FT Pte Ltd,AspireBA,Key,SG AM - Caroline,2026-Q3,2026-Q4,5345.880235491115,5144.745992169267,0.9623758418704323,-0.07120204669244755,-0.08759015690150584,5548.6977261960055,3745.0115552102234,0.6749352262477043,0.9765990590521746,-0.3016638328044703,Risk,Declining
116044,SGQUHN,PO QUAN HOLDINGS PTE. LTD.,Aspire FT Pte Ltd,AspireBA,Key,SG AM - Caroline,2026-Q3,2026-Q4,5324.315310358984,4813.255191326658,0.9040139268164664,-0.07120204669244755,-0.08759015690150584,5526.314648802719,3729.9044278056654,0.6749352262477043,0.9054423381686441,-0.23050711192093976,Risk,Declining
101000,SGAVRE,AVIRAL ELECTRONICS PTE. LTD.,Aspire FT Pte Ltd,AspireBA,Key,SG AM-Rachel,2026-Q3,2026-Q4,5319.332829426402,4950.99306295321,0.9307545178531513,-0.07120204669244755,-0.08759015690150584,5521.143137395133,3726.413992583744,0.6749352262477043,0.9365019913714,-0.2615667651236957,Risk,Declining
116075,SGFYDC,INTREPID MALAYSIA SDN. BHD.,Aspire FT Pte Ltd,AspireOS,Key,SG AM-Rachel,2026-Q3,2026-Q4,5307.027780535747,1009.5074701118139,0.19022087538609106,-0.07120204669244755,-0.08759015690150584,5508.371246931329,3717.7937938039454,0.6749352262477043,0.19377447608183468,0.4811607501658696,Safe,Growing
91687,SGECEF,ECOMMERCE ENABLERS PTE. LTD. (USD),Aspire FT Pte Ltd,AspireOS,Key,SG AM-Rachel,2026-Q3,2026-Q4,5291.317172094469,-99.36787798524327,-0.018779421976307338,-0.07120204669244755,-0.08759015690150584,5492.064593303637,3706.7878588483964,0.6749352262477043,-0.014939836679545154,0.6898750629272494,Safe,Growing
114625,SGPSPB,POSEIDON PHAROS PTE. LTD.,Aspire FT Pte Ltd,AspireBA,Key,SG AM - Caroline,2026-Q3,2026-Q4,5285.743168521422,4788.780330051111,0.9059805172847007,-0.07120204669244755,-0.08759015690150584,5486.279117462588,3702.8830374026675,0.6749352262477043,0.9258597185843938,-0.25092449233668945,Risk,Declining
84486,SGTT7X,TANGE TECHNOLOGY (SINGAPORE) PTE. LTD.,Aspire FT Pte Ltd,AspireBA,Key,SG AM - Caroline,2026-Q3,2026-Q4,5278.19044803198,5116.073820221231,0.9692855668231531,-0.07120204669244755,-0.08759015690150584,5478.439854112067,3697.5920424195683,0.6749352262477043,0.9876284367545942,-0.3126932105068899,Risk,Declining
145961,SGGSTQ,GRAPESEED SERVICES PTE. LTD.,Aspire FT Pte Ltd,AspireBA,Key,SG AM-Rachel,2026-Q3,2026-Q4,5227.514297533927,3713.446163245094,0.710365568009428,-0.07120204669244755,-0.08759015690150584,5425.84109980887,3662.0912902835926,0.6749352262477043,0.7233099997405315,-0.04837477349282715,Risk,Declining
116971,SGMPN4,MANGOSTAR PTE. LTD.,Aspire FT Pte Ltd,AspireBA,Key,SG AM - Caroline,2026-Q3,2026-Q4,5223.268173080048,4993.786705617863,0.9560655398386592,-0.07120204669244755,-0.08759015690150584,5421.433881527779,3659.116703415921,0.6749352262477043,0.966481563569719,-0.29154633732201474,Risk,Declining
85545,SGNCRG,INCRED GLOBAL WEALTH PTE. LTD.,Aspire FT Pte Ltd,AspireBA,Key,SG AM - Caroline,2026-Q3,2026-Q4,5215.757096916238,4083.0630080529036,0.7828322776892682,-0.07120204669244755,-0.08759015690150584,5413.637842448054,3653.8548820158107,0.6749352262477043,0.7695936963771758,-0.09465847012947148,Risk,Declining
83461,SGTEEJ,TEECOM JOINT STOCK COMPANY,Aspire FT Pte Ltd,AspireBA,Key,SG AM-Rachel,2026-Q3,2026-Q4,5200.00633742133,1380.1756519059045,0.2654180711230306,-0.07120204669244755,-0.08759015690150584,5397.289514474854,3642.8208195764473,0.6749352262477043,0.213185363881281,0.4617498623664233,Safe,Growing
133410,SGNNTX,Nonce Technology Pte. Ltd.,Aspire FT Pte Ltd,AspireBA,Key,SG AM-Rachel,2026-Q3,2026-Q4,5181.176696961298,5021.499563221088,0.969181299330351,-0.07120204669244755,-0.08759015690150584,5377.745495790704,3629.6298729040714,0.6749352262477043,0.9832985121118132,-0.3083632858641089,Risk,Declining
70402,SGGLPQ,RAON WORLD SOLUTION PTE. LTD,Aspire FT Pte Ltd,AspireBA,Key,SG AM-Rachel,2026-Q3,2026-Q4,5174.358710938029,3007.5782352312035,0.5812465666273797,-0.07120204669244755,-0.08759015690150584,5370.66884201657,3624.85358998795,0.6749352262477043,0.5970804009486389,0.0778548252990654,Safe,Growing
72657,SGANSG,ANSOVA GLOBAL TRAVEL PTE. LTD.,Aspire FT Pte Ltd,AspireBA,Key,SG AM - Caroline,2026-Q3,2026-Q4,5163.17321494373,2698.2816368209105,0.5226014167046141,-0.07120204669244755,-0.08759015690150584,5359.058979195871,3617.0176845983565,0.6749352262477043,0.5697028143929821,0.10523241185472221,Safe,Growing
139243,SGQVYK,CKNIGHT PTE LTD,Aspire FT Pte Ltd,AspireBA,Scaled,SG AM - Caroline,2026-Q3,2026-Q4,5125.133823937765,758.7509460060023,0.1480450993225062,-0.07120204669244755,-0.08759015690150584,5319.576410735134,3590.3695083214684,0.6749352262477043,0.17322858379538245,0.5017066424523219,Safe,Growing
121341,SGPAV3,PANACEA VENTURES PTE. LTD.,Aspire FT Pte Ltd,AspireBA,Key,SG AM - Caroline,2026-Q3,2026-Q4,5066.5814304756595,4906.90000626597,0.9684833992306527,-0.07120204669244755,-0.08759015690150584,5258.802596479141,3549.3511202466643,0.6749352262477043,0.9846944055235501,-0.30975917927584584,Risk,Declining
70049,SGTAPB,TANKARD PTE. LTD.,Aspire FT Pte Ltd,AspireBA,Key,SG AM-Rachel,2026-Q3,2026-Q4,5054.641764585474,4855.934791335343,0.9606882183733891,-0.07120204669244755,-0.08759015690150584,5246.409951291062,3540.98688746284,0.6749352262477043,0.9780146720195626,-0.3030794457718583,Risk,Declining
146263,SGTFSU,GALAXY MINES AND MINERALS EXPORTS LIMITED,AFT HK Limited,AspireBA,Key,SG AM - Caroline,2026-Q3,2026-Q4,5034.739425605131,4844.8395706908295,0.9622820887316373,-0.07120204669244755,-0.08759015690150584,5225.752536949255,3527.04447084036,0.6749352262477043,0.977945288178779,-0.3030100619310747,Risk,Declining
63024,SGCAG5,CAPX GLOBAL PTE. LTD.,Aspire FT Pte Ltd,AspireBA,Key,SG AM - Caroline,2026-Q3,2026-Q4,5030.43758102948,3485.481833507943,0.6928784578606457,-0.07120204669244755,-0.08759015690150584,5221.287484579227,3524.030849708787,0.6749352262477043,0.710332650856967,-0.03539742460926265,Risk,Growing
103445,SGCNM8,KG CONNECT LIMITED,AFT HK Limited,AspireBA,Key,SG AM - Caroline,2026-Q3,2026-Q4,5007.110970356927,1841.7689160462928,0.3678306566301254,-0.07120204669244755,-0.08759015690150584,5197.075885011517,3507.6895882767362,0.6749352262477043,0.37616540211029037,0.29876982413741393,Safe,Growing
79892,SGFCGY,FOCUS GLOBAL INC,Aspire FT Pte Ltd,AspireOS,Key,SG AM-Rachel,2026-Q3,2026-Q4,4982.603296247933,1602.6680942519447,0.32165275840017354,-0.07120204669244755,-0.08759015690150584,5171.638413610618,3490.520942761601,0.6749352262477043,0.3148151468901836,0.3601200793575207,Safe,Growing
86188,SGTSAK,HR TECH SOLUTIONS PTE. LTD.,Aspire FT Pte Ltd,AspireBA,Key,SG AM-Rachel,2026-Q3,2026-Q4,4953.035671421533,4704.0680288306785,0.9497343328198966,-0.07120204669244755,-0.08759015690150584,5140.94902188911,3469.8075912166405,0.6749352262477043,0.959263740776219,-0.2843285145285147,Risk,Declining
107790,SGSP3G,SHOPTASTIC PTE LTD,Aspire FT Pte Ltd,AspireBA,Key,SG AM-Rachel,2026-Q3,2026-Q4,4910.289173960453,3002.5332704541584,0.6114778914400328,-0.07120204669244755,-0.08759015690150584,5096.580763937788,3439.8618909980487,0.6749352262477043,0.6328285524537436,0.042106673793960714,Safe,Growing
107250,SGQELS,QUANTUM EMPIRE PTE. LTD.,Aspire FT Pte Ltd,AspireBA,Key,SG AM - Caroline,2026-Q3,2026-Q4,4853.141245305516,4579.53222428065,0.9436222835489219,-0.07120204669244755,-0.08759015690150584,5037.264698516183,3399.827388962594,0.6749352262477043,0.9601848543331798,-0.2852496280854755,Risk,Declining
91494,SGJGCC,JGC CONSTRUCTION INTERNATIONAL PTE. LTD.,Aspire FT Pte Ltd,AspireOS,Key,SG AM-Rachel,2026-Q3,2026-Q4,4851.22188462462,3223.021361396573,0.6643731080640863,-0.07120204669244755,-0.08759015690150584,5035.272519159987,3398.4827969380935,0.6749352262477043,0.684514557486889,-0.009579331239184752,Risk,Growing
70215,SGFACT,Factail Technologies Pte. Ltd.,Aspire FT Pte Ltd,AspireBA,Key,SG AM-Rachel,2026-Q3,2026-Q4,4848.114938043754,4699.2897036261365,0.9693024533618692,-0.07120204669244755,-0.08759015690150584,5032.047698051161,3396.3062515734,0.6749352262477043,0.9818023652483389,-0.30686713900063456,Risk,Declining
134854,SGQPUW,QUAK PTE. LTD,Aspire FT Pte Ltd,AspireBA,Key,SG AM-Rachel,2026-Q3,2026-Q4,4824.60593903721,4287.141287368515,0.8885992641761845,-0.07120204669244755,-0.08759015690150584,5007.646790513664,3379.8372195239303,0.6749352262477043,0.7882396044466501,-0.11330437819894579,Risk,Declining
105386,SGNTFZ,ONELOT TECHNOLOGIES INCORPORATED PTE. LTD.,Aspire FT Pte Ltd,AspireBA,Key,SG AM - Caroline,2026-Q3,2026-Q4,4819.899086360515,4120.775037420624,0.8549504799969171,-0.07120204669244755,-0.08759015690150584,5002.761364429606,3376.53987336457,0.6749352262477043,0.8995638110175094,-0.22462858476980507,Risk,Declining
105899,SGPP3P,PROCREDIT PTE. LTD.,Aspire FT Pte Ltd,AspireBA,Key,SG AM - Caroline,2026-Q3,2026-Q4,4815.188435101713,4621.343595435072,0.9597430417772327,-0.07120204669244755,-0.08759015690150584,4997.871995648936,3373.23986614038,0.6749352262477043,0.9772192533717678,-0.30228402712406355,Risk,Declining
138643,SGPWNU,POWER INNOVATION (SINGAPORE) PTE. LTD.,Aspire FT Pte Ltd,AspireBA,Key,SG AM - Caroline,2026-Q3,2026-Q4,4813.363726576933,4263.000732534375,0.8856593797381788,-0.07120204669244755,-0.08759015690150584,4995.978059459493,3371.9615818898596,0.6749352262477043,0.9095135816502924,-0.2345783554025881,Risk,Declining
150613,SGRYNL,orynda Limited,AFT HK Limited,AspireBA,Key,SG AM - Caroline,2026-Q3,2026-Q4,4789.224830590902,4345.060396309007,0.9072575521105588,-0.07120204669244755,-0.08759015690150584,4970.923357264455,3355.0512807952828,0.6749352262477043,0.9199106972472741,-0.24497547099956984,Risk,Declining
179972,SGTNAD,TINY AWAY ESCAPE TALBINGO PTE LTD,Aspire FT Pte Ltd,AspireBA,Key,SG AM - Caroline,2026-Q3,2026-Q4,4787.52889194315,4639.4737526326035,0.9690748311598274,-0.07120204669244755,-0.08759015690150584,4969.163076355789,3353.8632052019325,0.6749352262477043,0.9800385995908418,-0.30510337334313753,Risk,Declining
70484,SGCLGS,COLABS GLOBAL PTE. LTD.,Aspire FT Pte Ltd,AspireOS,Key,SG AM-Rachel,2026-Q3,2026-Q4,4778.189532590572,2531.3955991612356,0.5297813286591834,-0.07120204669244755,-0.08759015690150584,4959.469390803363,3347.320595350432,0.6749352262477043,0.6191733552208016,0.055761871026902665,Safe,Growing
74194,SGBEDH,BEAM DATA PTE LTD,Aspire FT Pte Ltd,AspireBA,Key,SG AM - Caroline,2026-Q3,2026-Q4,4770.655484201703,4624.208064980967,0.9693024533618692,-0.07120204669244755,-0.08759015690150584,4951.64950795473,3342.0426809507594,0.6749352262477043,0.9872869424536029,-0.31235171620589863,Risk,Declining
77547,SGRUGC,RUGGABLE CORPORATION PTE. LTD.,Aspire FT Pte Ltd,AspireBA,Key,SG AM-Rachel,2026-Q3,2026-Q4,4761.838546554197,4601.7759723864765,0.9663863920200432,-0.07120204669244755,-0.08759015690150584,4942.498064278171,3335.866049242428,0.6749352262477043,0.9799638693318279,-0.3050286430841236,Risk,Declining
98978,SGTL7P,RENTLY SERVICE PTE. LTD.,Aspire FT Pte Ltd,AspireBA,Key,SG AM - Caroline,2026-Q3,2026-Q4,4749.539560346423,3909.601649065819,0.8231538235215077,-0.07120204669244755,-0.08759015690150584,4929.732466509533,3327.250097624265,0.6749352262477043,0.8461130698188976,-0.17117784357119326,Risk,Declining
60553,SGQAAT,QOALA TECHNOLOGY PTE. LTD.,Aspire FT Pte Ltd,AspireBA,Key,SG AM-Rachel,2026-Q3,2026-Q4,4739.4818162324145,2714.7891907262097,0.57280295525731,-0.07120204669244755,-0.08759015690150584,4919.2931413773385,3320.204229354294,0.6749352262477043,0.5624033305260265,0.11253189572167777,Safe,Growing
87629,SGFTXV,FUNPOWER TECHNOLOGY PTE. LTD.,Aspire FT Pte Ltd,AspireBA,Key,SG AM-Rachel,2026-Q3,2026-Q4,4726.111077793519,3994.93668894563,0.8452904773475505,-0.07120204669244755,-0.08759015690150584,4905.415130141525,3310.837470700982,0.6749352262477043,0.8788382216226015,-0.2039029953748972,Risk,Declining
80159,SGGP7R,GEONODE PTE. LTD.,Aspire FT Pte Ltd,AspireBA,Key,SG AM-Rachel,2026-Q3,2026-Q4,4714.995255439628,3920.981311576375,0.8315981457357334,-0.07120204669244755,-0.08759015690150584,4893.877584311307,3303.0503745957208,0.6749352262477043,0.8579148858562593,-0.182979659608555,Risk,Declining
58971,SGACPM,ACHERON PTE. LTD.,Aspire FT Pte Ltd,AspireBA,Key,SG AM - Caroline,2026-Q3,2026-Q4,4700.052037392845,3056.3194805317867,0.6502735408493797,-0.07120204669244755,-0.08759015690150584,4878.367435122448,3292.5820285438026,0.6749352262477043,0.6441058516895051,0.03082937455819923,Safe,Growing
128829,SGLNDN,LINDER INTERNATION PTE. LTD.,Aspire FT Pte Ltd,AspireBA,Key,SG AM-Rachel,2026-Q3,2026-Q4,4699.69122455724,4550.744816965874,0.968307192861293,-0.07120204669244755,-0.08759015690150584,4877.992933399195,3292.3292641384883,0.6749352262477043,0.9838918403630835,-0.3089566141153792,Risk,Declining
123885,SGCA87,CLOUD AMBASSADORS TECHNOLOGY PTE. LTD.,Aspire FT Pte Ltd,AspireBA,Key,SG AM-Rachel,2026-Q3,2026-Q4,4698.17128151029,2431.5319608662408,0.5175485982036381,-0.07120204669244755,-0.08759015690150584,4876.415325193054,3291.2644807869465,0.6749352262477043,0.5333053812658112,0.14162984498189313,Safe,Growing
94677,SGSPCQ,SYNKRONOUS PTE. LTD.,Aspire FT Pte Ltd,AspireBA,Key,SG AM-Rachel,2026-Q3,2026-Q4,4696.589251407915,4125.67415627757,0.8784404884972217,-0.07120204669244755,-0.08759015690150584,4874.77327440906,3290.156202869541,0.6749352262477043,0.891105169353811,-0.2161699431061067,Risk,Declining
103207,SGQHJA,AJ HACKETT INTERNATIONAL PTE. LTD.,Aspire FT Pte Ltd,AspireBA,Key,SG AM - Caroline,2026-Q3,2026-Q4,4684.9546347763735,3086.8533390370544,0.6588864951057096,-0.07120204669244755,-0.08759015690150584,4862.697251751462,3282.005669784963,0.6749352262477043,0.6867787016072215,-0.011843475359517242,Risk,Growing
86112,SGANPH,ANPRI HOLDINGS PTE. LTD.,Aspire FT Pte Ltd,AspireBA,Key,SG AM - Caroline,2026-Q3,2026-Q4,4680.927823768692,4410.115437310148,0.9421455752674887,-0.07120204669244755,-0.08759015690150584,4858.517667455165,3279.1847211123204,0.6749352262477043,0.9609589591733344,-0.2860237329256301,Risk,Declining
59273,SGCEAB,Ocean Bay Energy Pte Ltd,Aspire FT Pte Ltd,AspireBA,Key,SG AM - Caroline,2026-Q3,2026-Q4,4678.286349095874,4513.970562382013,0.9648769283338936,-0.07120204669244755,-0.08759015690150584,4855.775977805337,3277.3342581882125,0.6749352262477043,0.9775392321908134,-0.3026040059431091,Risk,Declining
107711,SGHAHM,HATI HEALTH PTE. LTD.,Aspire FT Pte Ltd,AspireBA,Scaled,SG AM - Caroline,2026-Q3,2026-Q4,4636.003123207217,3894.3661963493123,0.8400266550414152,-0.07120204669244755,-0.08759015690150584,4811.888567498797,3247.7130989835423,0.6749352262477043,0.8336839814829681,-0.15874875523526377,Risk,Declining
79727,SGAMES,AMERICAN STUDY EDUCATION JOINT STOCK COMPANY,Aspire FT Pte Ltd,AspireBA,Key,SG AM - Caroline,2026-Q3,2026-Q4,4633.037964048863,3812.8860757723787,0.8229775161264286,-0.07120204669244755,-0.08759015690150584,4808.810913089231,3245.6358816083093,0.6749352262477043,0.7899433333731415,-0.11500810712543719,Risk,Declining
67502,SGQAPF,Qapita Fintech Pte Ltd,Aspire FT Pte Ltd,AspireOS,Key,SG AM-Rachel,2026-Q3,2026-Q4,4606.1571468564325,2352.505759200902,0.5107306772645432,-0.07120204669244755,-0.08759015690150584,4780.910263867106,3226.8047506131165,0.6749352262477043,0.5437626480700066,0.13117257817769767,Safe,Growing
151523,SGALJZ,ACP LUCENTE VENTURES SPV PTE LTD,Aspire FT Pte Ltd,AspireBA,Key,SG AM - Caroline,2026-Q3,2026-Q4,4561.442901360833,4051.1294404491655,0.8881245535794334,-0.07120204669244755,-0.08759015690150584,4734.499603436885,3195.4805610153403,0.6749352262477043,0.9039632260326221,-0.22902799978491784,Risk,Declining
87708,SGRDPE,RIDMIK PTE. LTD.,Aspire FT Pte Ltd,AspireBA,Key,SG AM-Rachel,2026-Q3,2026-Q4,4556.966942153429,4241.012330648838,0.9306655906186397,-0.07120204669244755,-0.08759015690150584,4729.853830695516,3192.344965339049,0.6749352262477043,0.9491070604912907,-0.2741718342435864,Risk,Declining
141727,SGWCYA,Concision Technology Limited,Aspire FT Pte Ltd,AspireBA,Key,SG AM - Caroline,2026-Q3,2026-Q4,4550.914739488247,3223.361442694757,0.7082886907824659,-0.07120204669244755,-0.08759015690150584,4723.572013354412,3188.1051455306842,0.6749352262477043,0.7164645664499728,-0.041529340202268505,Risk,Declining
96109,SGMEHX,MASTER ENTERPRISE PTE. LTD.,Aspire FT Pte Ltd,AspireBA,Key,SG AM - Caroline,2026-Q3,2026-Q4,4520.704054496913,2348.4882249468455,0.5194961219836358,-0.07120204669244755,-0.08759015690150584,4692.215164391476,3166.9413035814696,0.6749352262477043,0.5191361707711795,0.15579905547652484,Safe,Growing
123356,SGAPG5,APPFACTORY GLOBAL PTE. LTD.,Aspire FT Pte Ltd,AspireBA,Key,SG AM-Rachel,2026-Q3,2026-Q4,4513.653434246881,3267.076244563287,0.7238208010776109,-0.07120204669244755,-0.08759015690150584,4684.89705047454,3162.0020507092363,0.6749352262477043,0.7090059116964764,-0.03407068544877212,Risk,Declining
97373,SGPPJD,AP PREMIER PTE. LTD.,Aspire FT Pte Ltd,AspireBA,Key,SG AM-Rachel,2026-Q3,2026-Q4,4508.99339121736,4260.333414328972,0.9448524414844499,-0.07120204669244755,-0.08759015690150584,4680.06020995009,3158.7374966555426,0.6749352262477043,0.9451467805260605,-0.2702115542783562,Risk,Declining
3363,SGPRPP,Propseller Pte. Ltd.,Aspire FT Pte Ltd,AspireOS,Key,SG AM-Rachel,2026-Q3,2026-Q4,4483.991514444604,2545.075125282612,0.5675914231960473,-0.07120204669244755,-0.08759015690150584,4654.109786317586,3141.2226416099147,0.6749352262477043,0.5842045878299835,0.09073063841772078,Safe,Growing
102906,SGWS5A,WOOSA SLEEP PTE. LTD.,Aspire FT Pte Ltd,AspireOS,Key,SG AM-Rachel,2026-Q3,2026-Q4,4469.5662249566085,1679.8125041050514,0.37583345218726666,-0.07120204669244755,-0.08759015690150584,4639.137215392715,3131.1171260652272,0.6749352262477043,0.3785328076913204,0.2964024185563839,Safe,Growing
142855,SGZWER,ECOMWARTS GROUP PRIVATE LIMITED,Aspire FT Pte Ltd,AspireBA,Key,SG AM-Rachel,2026-Q3,2026-Q4,4465.49375193972,2458.6747588043004,0.550594154954601,-0.07120204669244755,-0.08759015690150584,4634.9102367150435,3128.2641892550687,0.6749352262477043,0.5699998656214762,0.1049353606262281,Safe,Growing
76600,SGDCXM,DF CAPITAL MANAGEMENT PTE. LTD.,Aspire FT Pte Ltd,AspireBA,Key,SG AM - Caroline,2026-Q3,2026-Q4,4458.914355975888,4055.1932763271307,0.9094575388944878,-0.07120204669244755,-0.08759015690150584,4628.081224874881,3123.65504860368,0.6749352262477043,0.9250827618147498,-0.2501475355670455,Risk,Declining
118593,SGSP45,SGAPH PTE. LTD.,Aspire FT Pte Ltd,AspireBA,Key,SG AM-Rachel,2026-Q3,2026-Q4,4454.147683339505,3649.5066433021807,0.8193501659033354,-0.07120204669244755,-0.08759015690150584,4623.133709320114,3120.3157960733593,0.6749352262477043,0.8026266618062394,-0.12769143555853513,Risk,Declining
111507,SGXAPM,XAPADS MEDIA PTE. LTD.,Aspire FT Pte Ltd,AspireBA,Key,SG AM-Rachel,2026-Q3,2026-Q4,4448.104230635626,2711.62135067634,0.6096128170739503,-0.07120204669244755,-0.08759015690150584,4616.860973905324,3116.082105976986,0.6749352262477043,0.6396386165286136,0.035296609719090655,Safe,Growing
70361,SGATN2,ATAB INTERNATIONAL PTE. LTD.,Aspire FT Pte Ltd,AspireBA,Key,SG AM - Caroline,2026-Q3,2026-Q4,4436.345146459341,4297.854876787798,0.9687828009094216,-0.07120204669244755,-0.08759015690150584,4604.655761525532,3107.8443781980304,0.6749352262477043,0.9841451834707793,-0.309209957223075,Risk,Declining
150091,SGBN5B,Beynor International Limited,AFT HK Limited,AspireBA,Key,SG AM - Caroline,2026-Q3,2026-Q4,4430.283307896774,2611.026246477162,0.5893587531576433,-0.07120204669244755,-0.08759015690150584,4598.363942710479,3103.5978080425825,0.6749352262477043,0.5640347485556234,0.11090047769208089,Safe,Growing
110911,SGAMWC,AMW CYBERTECH PTE. LTD.,Aspire FT Pte Ltd,AspireBA,Key,SG AM-Rachel,2026-Q3,2026-Q4,4424.872579270563,4238.023899157232,0.9577730936279001,-0.07120204669244755,-0.08759015690150584,4592.747936308764,3099.8073674912325,0.6749352262477043,0.9780771255855856,-0.30314189933788127,Risk,Declining
79131,SGWSAF,WHITE STORM CONSULTING PTE. LTD.,Aspire FT Pte Ltd,AspireBA,Key,SG AM-Rachel,2026-Q3,2026-Q4,4412.640402634725,4277.183168077546,0.9693024533618693,-0.07120204669244755,-0.08759015690150584,4580.051682802167,3091.23821875826,0.6749352262477043,0.9855469063563675,-0.31061168010866325,Risk,Declining
76401,SGEMPQ,EMURGO GROUP PTE. LTD.,Aspire FT Pte Ltd,AspireBA,Key,SG AM - Caroline,2026-Q3,2026-Q4,4386.060870771874,3067.4007993658433,0.6993520814557304,-0.07120204669244755,-0.08759015690150584,4552.463749381656,3072.6181506733806,0.6749352262477043,0.7082683187302227,-0.03333309248251837,Risk,Growing
68092,SGZGNP,ZIGNIFY PTE. LTD.,Aspire FT Pte Ltd,AspireBA,Scaled,SG AM-Rachel,2026-Q3,2026-Q4,4383.440766178524,1431.4562976043562,0.3265599728526267,-0.07120204669244755,-0.08759015690150584,4549.744240571302,3070.782658379181,0.6749352262477043,0.334867903538424,0.3400673227092803,Safe,Growing
68726,SGKNPS,SYLNDR PTE LTD,Aspire FT Pte Ltd,AspireBA,Key,SG AM-Rachel,2026-Q3,2026-Q4,4366.88005734106,2031.1772114572043,0.46513235646182677,-0.07120204669244755,-0.08759015690150584,4532.555234566159,3059.181192722127,0.6749352262477043,0.49399355323254723,0.18094167301515707,Safe,Growing
74389,SGZERB,ZERO BYTE LABS PTE. LTD.,Aspire FT Pte Ltd,AspireBA,Key,SG AM-Rachel,2026-Q3,2026-Q4,4349.673747371469,3999.3205959317565,0.9194530045727147,-0.07120204669244755,-0.08759015690150584,4514.696133950576,3047.127456607568,0.6749352262477043,0.9364279933928326,-0.26149276714512826,Risk,Declining
123617,SGKYLE,OKYA LIMITED,AFT HK Limited,AspireBA,Key,SG AM - Caroline,2026-Q3,2026-Q4,4328.197866589634,3690.702865567011,0.8527112159211585,-0.07120204669244755,-0.08759015690150584,4492.40547916353,3032.0827084756634,0.6749352262477043,0.8531581246971512,-0.17822289844944694,Risk,Declining
112673,SGMZVJ,STAPLE AI PTE. LTD.,Aspire FT Pte Ltd,AspireBA,Key,SG AM-Rachel,2026-Q3,2026-Q4,4318.496121661023,2140.9499472581465,0.49576285052553737,-0.07120204669244755,-0.08759015690150584,4482.335659479181,3025.286232448734,0.6749352262477043,0.5116469220678923,0.163288304179812,Safe,Growing
89633,SGEMTV,Emerging Travel Asia PTE. LTD.,Aspire FT Pte Ltd,AspireBA,Key,SG AM - Caroline,2026-Q3,2026-Q4,4296.752197507447,3673.383955189071,0.8549210627785347,-0.07120204669244755,-0.08759015690150584,4459.766792015872,3010.053708781231,0.6749352262477043,0.8790741917876413,-0.20413896553993705,Risk,Declining
119185,SGYWPT,YOWA PTE. LTD.,Aspire FT Pte Ltd,AspireBA,Key,SG AM-Rachel,2026-Q3,2026-Q4,4290.153496660126,3782.192847359777,0.8815984906610462,-0.07120204669244755,-0.08759015690150584,4452.917742883738,3005.4310442556525,0.6749352262477043,0.9157838683607576,-0.24084864211305335,Risk,Declining
63847,SGACM4,ACE MANAGEMENT SERVICES PTE. LTD.,Aspire FT Pte Ltd,AspireBA,Key,SG AM-Rachel,2026-Q3,2026-Q4,4272.759821267966,2824.040673054654,0.6609406545619041,-0.07120204669244755,-0.08759015690150584,4434.864168383897,2993.2460508660224,0.6749352262477043,0.6722525369458392,0.0026826893018651043,Safe,Growing
98042,SGFUEH,FUTAO ELECTRONICS PTE. LTD.,Aspire FT Pte Ltd,AspireBA,Key,SG AM - Caroline,2026-Q3,2026-Q4,4271.843087126501,4089.1200844020177,0.9572261904293414,-0.07120204669244755,-0.08759015690150584,4433.912654241754,2992.6038404532173,0.6749352262477043,0.9772705979655831,-0.30233537171787883,Risk,Declining
110948,SGRML3,RUYI MANAGEMENT PTE LTD,Aspire FT Pte Ltd,AspireBA,Key,SG AM-Rachel,2026-Q3,2026-Q4,4271.049009506248,4139.523422936919,0.9692053202207264,-0.07120204669244755,-0.08759015690150584,4433.088450089803,2992.0475560374457,0.6749352262477043,0.9854983720982363,-0.310563145850532,Risk,Declining
83001,SGANU7,ACCTIVA INTERNATIONAL PTE. LTD.,Aspire FT Pte Ltd,AspireBA,Key,SG AM - Caroline,2026-Q3,2026-Q4,4261.662024472173,3728.783332230449,0.8749598890804291,-0.07120204669244755,-0.08759015690150584,4423.345331983899,2985.4715824142795,0.6749352262477043,0.8855908364846571,-0.21065561023695278,Risk,Declining
143080,SGFPSF,SOLO FORTIS PTE. LTD.,Aspire FT Pte Ltd,AspireBA,Key,SG AM-Rachel,2026-Q3,2026-Q4,4230.895222406538,4028.7368688221954,0.952218539349846,-0.07120204669244755,-0.08759015690150584,4391.41126740637,2963.918157313636,0.6749352262477043,0.9665733364650408,-0.29163811021733654,Risk,Declining
134956,SGCP2N,CHOVA CR PTE. LTD.,Aspire FT Pte Ltd,AspireBA,Key,SG AM - Caroline,2026-Q3,2026-Q4,4220.651722196886,4026.739379960118,0.9540563033862849,-0.07120204669244755,-0.08759015690150584,4380.77913877314,2956.7421591690727,0.6749352262477043,0.9614058286106245,-0.2864706023629202,Risk,Declining
142469,SGCCHR,CROSSPOINT CAPITAL ASIA PTE. LTD.,Aspire FT Pte Ltd,AspireBA,Key,SG AM - Caroline,2026-Q3,2026-Q4,4206.864687255971,4063.057774733154,0.9658161307259401,-0.07120204669244755,-0.08759015690150584,4366.46903715138,2947.083767493362,0.6749352262477043,0.9799098966624982,-0.30497467041479387,Risk,Declining
116786,SGGHYA,GREAT PRO HOLDING PTE. LTD.,Aspire FT Pte Ltd,AspireBA,Key,SG AM - Caroline,2026-Q3,2026-Q4,4183.32525069945,4054.907428713634,0.9693024533618693,-0.07120204669244755,-0.08759015690150584,4342.036537292897,2930.59341267358,0.6749352262477043,0.9834031470026721,-0.30846792075496776,Risk,Declining
86698,SGMEUN,MILIEU INSIGHT PTE. LTD.,Aspire FT Pte Ltd,AspireOS,Key,SG AM-Rachel,2026-Q3,2026-Q4,4180.883647438807,1742.5456245761522,0.4167888349735896,-0.07120204669244755,-0.08759015690150584,4339.502301982001,2928.8829679906553,0.6749352262477043,0.4507134084015829,0.22422181784612139,Safe,Growing
114867,SGE6W2,KAEDE PTE. LTD.,Aspire FT Pte Ltd,AspireBA,Key,SG AM-Rachel,2026-Q3,2026-Q4,4179.655153149638,2686.9943929270507,0.6428746617773546,-0.07120204669244755,-0.08759015690150584,4338.227199815718,2928.022356621567,0.6749352262477043,0.6542632222235223,0.02067200402418201,Safe,Growing
68139,SGDEKB,DEKANG BIOTECH PTE. LTD.,Aspire FT Pte Ltd,AspireBA,Key,SG AM - Caroline,2026-Q3,2026-Q4,4173.3611660833085,3907.841876242058,0.9363775912808332,-0.07120204669244755,-0.08759015690150584,4331.69442500872,2923.61315677918,0.6749352262477043,0.9521640425682296,-0.2772288163205253,Risk,Declining
114067,SGWP8H,WAVESHORE PTE LTD,Aspire FT Pte Ltd,AspireBA,Key,SG AM-Rachel,2026-Q3,2026-Q4,4160.577882370557,4030.134780473574,0.9686478403758036,-0.07120204669244755,-0.08759015690150584,4318.42615595934,2914.657934606421,0.6749352262477043,0.9846722071772002,-0.30973698092949586,Risk,Declining
67484,SGHDPB,BO HOLDINGS PTE. LTD.,Aspire FT Pte Ltd,AspireBA,Key,SG AM - Caroline,2026-Q3,2026-Q4,4158.8769379153655,3799.1119208338428,0.9134946711691222,-0.07120204669244755,-0.08759015690150584,4316.660679327773,2913.4663522366595,0.6749352262477043,0.917555923009241,-0.24262069676153675,Risk,Declining
96714,SGATD6,Atas Digital Pte Ltd,Aspire FT Pte Ltd,AspireBA,Key,SG AM-Rachel,2026-Q3,2026-Q4,4151.216602998234,3906.1337286580438,0.9409611933611998,-0.07120204669244755,-0.08759015690150584,4308.709718762963,2908.099968868963,0.6749352262477043,0.9515363917643834,-0.2766011655166791,Risk,Declining
139287,SGSWRL,SWRM LABS PTE. LTD.,Aspire FT Pte Ltd,AspireBA,Key,SG AM-Rachel,2026-Q3,2026-Q4,4141.7268591038155,3763.8561949762,0.9087649482975855,-0.07120204669244755,-0.08759015690150584,4298.859943225614,2901.452008388173,0.6749352262477043,0.9331061563959496,-0.2581709301482453,Risk,Declining
82348,SGTGMR,TGM RESEARCH PTE. LTD.,Aspire FT Pte Ltd,AspireOS,Key,SG AM-Rachel,2026-Q3,2026-Q4,4128.020616398844,1998.4648965051915,0.4841218303431318,-0.07120204669244755,-0.08759015690150584,4284.633699018559,2891.8502150356294,0.6749352262477043,0.4682107440455285,0.20672448220217582,Safe,Growing
53431,SGMGBZ,Mighty Bear Games Pte. Ltd.,Aspire FT Pte Ltd,AspireOS,Key,SG AM-Rachel,2026-Q3,2026-Q4,4120.037361924278,2082.031247687329,0.505342807550393,-0.07120204669244755,-0.08759015690150584,4276.347567642741,2886.257613080773,0.6749352262477043,0.5179275235899837,0.15700770265772057,Safe,Growing
76632,SGLKAP,LKA PACIFIC PTE. LTD.,Aspire FT Pte Ltd,AspireBA,Key,SG AM - Caroline,2026-Q3,2026-Q4,4106.218465724603,3979.9602026635334,0.9692519372471358,-0.07120204669244755,-0.08759015690150584,4262.004395977087,2876.576901267506,0.6749352262477043,0.9834799146431756,-0.30854468839547133,Risk,Declining
128853,SGNDDX,YD INDUSTRIAL DEVELOPMENT PTE. LTD.,Aspire FT Pte Ltd,AspireBA,Key,SG AM-Rachel,2026-Q3,2026-Q4,4102.187165270132,2676.061538149505,0.6523499368350455,-0.07120204669244755,-0.08759015690150584,4257.820151908761,2873.752807550574,0.6749352262477043,0.6574337132690188,0.01750151297868552,Safe,Growing
66401,SGNP8F,NEXTBILLION.AI PTE. LTD.,Aspire FT Pte Ltd,AspireBA,Key,SG AM-Rachel,2026-Q3,2026-Q4,4091.514693936226,2158.72788634649,0.5276109333166524,-0.07120204669244755,-0.08759015690150584,4246.742777404524,2866.276297283326,0.6749352262477043,0.5432316365515142,0.13170358969619012,Safe,Growing
120483,SGWTUE,WSPN TECHNOLOGY SG PTE. LTD.,Aspire FT Pte Ltd,AspireBA,Key,SG AM - Caroline,2026-Q3,2026-Q4,4091.063007972901,3392.683688481891,0.82929147800218,-0.07120204669244755,-0.08759015690150584,4246.2739549155685,2865.9598724706734,0.6749352262477043,0.8393599167576521,-0.1644246905099478,Risk,Declining
