Gagan-D-Aspire/High-Value-Data-Projects/csm_targets_2026_Q2.csv
business_id,business_ref_code,company_name,business_group,business_unit,account_motion,account_manager,base_quarter,target_quarter,base_revenue,base_gp,base_take_rate,avg_rev_g,avg_gp_g,target_revenue,target_gp,target_take_rate,hist_avg_tr,tr_delta,guardrail,gp_trend
84093,SGGPGP,GERO PTE. LTD.,Aspire FT Pte Ltd,AspireBA,Key,SG AM - Caroline,2026-Q1,2026-Q2,122828.43437224036,119322.99794204997,0.9714607090116698,-0.04954983560045385,-0.07872632384932805,136379.44017259346,93931.35358969691,0.6887501039073276,0.9615524016517905,-0.27280229774446285,Risk,Declining
86951,SGEVMG,EVERY MOMENT LOGISTICS PTE. LTD.,Aspire FT Pte Ltd,AspireBA,Key,SG AM - Caroline,2026-Q1,2026-Q2,104993.77767162846,104975.5312759181,0.9998262145041831,-0.04954983560045385,-0.07872632384932805,116577.18095687602,80292.5454972717,0.6887501039073276,0.9998314695409506,-0.311081365633623,Risk,Declining
134453,SGBLVG,BERIKLAN LANCAR SEJAHTERA LIMITED,AFT HK Limited,AspireBA,Key,Eureka,2026-Q1,2026-Q2,75660.65574376252,24799.083666910545,0.32776723150400383,-0.04954983560045385,-0.07872632384932805,84007.89219664336,57860.444479473685,0.6887501039073276,0.32913870709359755,0.35961139681373006,Safe,Growing
89483,SGFBPZ,FIBONEX PTE. LTD.,Aspire FT Pte Ltd,AspireBA,Key,SG AM - Caroline,2026-Q1,2026-Q2,70364.89136641289,70364.39517705068,0.9999929483389717,-0.04954983560045385,-0.07872632384932805,78127.87439164452,53810.58160530381,0.6887501039073276,0.9999973932521845,-0.3112472893448569,Risk,Declining
99873,SGSUCM,SUCCESS MCMOORE PTE LIMITED,Aspire FT Pte Ltd,AspireX,Key,Eureka,2026-Q1,2026-Q2,64854.30992679711,28734.593329313982,0.44306374336181403,-0.04954983560045385,-0.07872632384932805,72009.33990407856,49596.44034123218,0.6887501039073276,0.37275170154280807,0.31599840236451954,Safe,Growing
147170,SGAVNH,AVNM HOLDINGS PTE LTD,Aspire FT Pte Ltd,AspireBA,Key,SG AM - Caroline,2026-Q1,2026-Q2,51325.143404999995,51296.89382360493,0.9994495956655756,-0.04954983560045385,-0.07872632384932805,56987.572626212124,39250.19656772998,0.6887501039073276,0.9993424361067271,-0.3105923321993995,Risk,Declining
151475,SGSM5V,SUCCESS MCMOORE PTE LIMITED,AFT HK Limited,AspireBA,Key,Eureka,2026-Q1,2026-Q2,50143.297108426275,14355.760933730158,0.2862947145794639,-0.04954983560045385,-0.07872632384932805,55675.33953360174,38346.395888843945,0.6887501039073276,0.24127631326861348,0.4474737906387141,Safe,Growing
125930,SGRAT5,Rasewa,Aspire FT Pte Ltd,AspireBA,Key,Eureka,2026-Q1,2026-Q2,46106.24566712347,6956.941944791644,0.15088936095597918,-0.04954983560045385,-0.07872632384932805,51192.901746889474,35259.11639748774,0.6887501039073276,0.19369265021935464,0.49505745368797294,Safe,Growing
91639,SGFT9T,PT REPUBLIK AZERO MANAGEMEN,Aspire FT Pte Ltd,AspireX,Key,Eureka,2026-Q1,2026-Q2,44614.30566739177,7591.880872444477,0.17016696234260395,-0.04954983560045385,-0.07872632384932805,49536.363967389014,34118.17582973038,0.6887501039073276,0.24310833295099157,0.44564177095633606,Safe,Growing
99150,SGHLWJ,HERITAGE LINE PTE. LTD.,Aspire FT Pte Ltd,AspireBA,Key,SG AM - Caroline,2026-Q1,2026-Q2,44327.20992833333,43958.474145820015,0.99168150255544,-0.04954983560045385,-0.07872632384932805,49217.594487269555,33898.62331717562,0.6887501039073276,0.9837256345998473,-0.2949755306925197,Risk,Declining
75513,SGDEUP,DELUGS PTE. LTD.,Aspire FT Pte Ltd,AspireBA,Key,SG AM - Caroline,2026-Q1,2026-Q2,40287.45026646663,22597.498236425585,0.5609066368549681,-0.04954983560045385,-0.07872632384932805,44732.149696468565,30809.272751440858,0.6887501039073276,0.613654706885467,0.07509539702186063,Safe,Growing
104231,SGDGZG,PT Digizie Global Learning,Aspire FT Pte Ltd,AspireBA,Key,Eureka,2026-Q1,2026-Q2,39147.63630134866,4990.219202096812,0.12747178817345087,-0.04954983560045385,-0.07872632384932805,43466.58613817555,29937.615719165216,0.6887501039073276,0.19119152123491,0.4975585826724176,Safe,Growing
71455,SGCP3W,SF CAPITAL SG PTE. LTD.,Aspire FT Pte Ltd,AspireBA,Key,SG AM - Caroline,2026-Q1,2026-Q2,33257.82985486032,32524.831088558145,0.9779601143700285,-0.04954983560045385,-0.07872632384932805,36926.988772123404,25433.467353784716,0.6887501039073276,0.9678152742706729,-0.2790651703633453,Risk,Declining
135284,SGLC7B,LARES CAPITAL PTE. LTD.,Aspire FT Pte Ltd,AspireBA,Key,SG AM - Caroline,2026-Q1,2026-Q2,32871.58076333333,32813.08076333333,0.9982203472226912,-0.04954983560045385,-0.07872632384932805,36498.1268792006,25138.08868047224,0.6887501039073276,0.9960956550791439,-0.3073455511718163,Risk,Declining
122887,SGBLPB,BLAZETEC PTE. LTD.,Aspire FT Pte Ltd,AspireBA,Key,SG AM - Caroline,2026-Q1,2026-Q2,32634.657904359326,32456.667138384186,0.9945459588852817,-0.04954983560045385,-0.07872632384932805,36235.06558532264,24956.9051869798,0.6887501039073276,0.9429406174012789,-0.2541905134939513,Risk,Declining
105489,SGRDVT,PT Ordivo Teknologi Indonesia,Aspire FT Pte Ltd,AspireBA,Key,Eureka,2026-Q1,2026-Q2,30557.109477810525,4968.099385546129,0.1625840752101826,-0.04954983560045385,-0.07872632384932805,33928.31232584926,23368.128639828945,0.6887501039073276,0.21531180094503571,0.4734383029622919,Safe,Growing
28763,SGPRST,Prism Tech Private Limited,Aspire FT Pte Ltd,AspireOS,Key,SG AM-Rachel,2026-Q1,2026-Q2,30257.182315516224,14743.311781993603,0.48726651504601826,-0.04954983560045385,-0.07872632384932805,33595.29580003173,23138.763473069263,0.6887501039073276,0.15720444917606433,0.5315456547312633,Safe,Growing
117955,SGNAMD,NAM HO DMC PTE. LTD.,Aspire FT Pte Ltd,AspireBA,Key,SG AM - Caroline,2026-Q1,2026-Q2,29782.212866065256,422.05209682216747,0.014171280647284146,-0.04954983560045385,-0.07872632384932805,33067.92550547192,22775.537127893553,0.6887501039073276,0.12340218855190918,0.5653479153554184,Safe,Growing
138876,SGDBJV,V MEDICAL AESTHETICS PTE. LTD.,Aspire FT Pte Ltd,AspireBA,Key,SG AM-Rachel,2026-Q1,2026-Q2,29498.462570172305,2138.8847779335747,0.0725083476077947,-0.04954983560045385,-0.07872632384932805,32752.87055341243,22558.542996926062,0.6887501039073276,0.04396960576009166,0.6447804981472359,Safe,Growing
138008,SGDSFP,DOSFARM PTE. LTD.,Aspire FT Pte Ltd,AspireOS,Key,SG AM-Rachel,2026-Q1,2026-Q2,27110.158368448243,27076.657443118445,0.9987642667049563,-0.04954983560045385,-0.07872632384932805,30101.077492158583,20732.120250446744,0.6887501039073276,0.997421032770213,-0.3086709288628854,Risk,Declining
88136,SGPAVT,PAVING THE WAY PTE. LTD.,Aspire FT Pte Ltd,AspireBA,Key,SG AM - Caroline,2026-Q1,2026-Q2,25784.84737058766,25478.31759003805,0.9881120188091839,-0.04954983560045385,-0.07872632384932805,28629.552003239245,19718.60691705127,0.6887501039073276,0.99060289654427,-0.3018527926369424,Risk,Declining
118203,SGSRC7,SORA CLOUD PTE. LTD.,Aspire FT Pte Ltd,AspireBA,Key,SG AM-Rachel,2026-Q1,2026-Q2,25573.901366255617,25347.795562876978,0.9911587285748672,-0.04954983560045385,-0.07872632384932805,28395.333451773684,19557.28886539234,0.6887501039073276,0.9860116835076735,-0.29726157960034594,Risk,Declining
176080,SGPPY2,PERSISTENCE AI PTE LTD,Aspire FT Pte Ltd,AspireBA,Key,SG AM-Rachel,2026-Q1,2026-Q2,25551.935430973554,25474.485892081102,0.9969689364979152,-0.04954983560045385,-0.07872632384932805,28370.94413205349,19540.490718900826,0.6887501039073276,0.9967809131339112,-0.30803080922658355,Risk,Declining
73338,SGBLCA,BLOCKTECH APAC PTE. LTD.,Aspire FT Pte Ltd,AspireX,Key,SG AM - Caroline,2026-Q1,2026-Q2,25030.373435046156,24567.132544292603,0.9814928493993242,-0.04954983560045385,-0.07872632384932805,27791.840983963903,19141.633365481062,0.6887501039073276,0.9710064348860526,-0.28225633097872505,Risk,Declining
141988,SGATFM,ASIA TRAVELS INTERNATIONAL LIMITED,AFT HK Limited,AspireBA,Key,SG AM - Caroline,2026-Q1,2026-Q2,24656.724371884284,23848.344371884283,0.9672146231669854,-0.04954983560045385,-0.07872632384932805,27376.969213306973,18855.890390332886,0.6887501039073276,0.9508314351902306,-0.262081331282903,Risk,Declining
65061,SGPP5T,POSTEX PTE. LTD.,Aspire FT Pte Ltd,AspireOS,Key,SG AM-Rachel,2026-Q1,2026-Q2,24412.999499139638,22613.96812745265,0.9263084664483612,-0.04954983560045385,-0.07872632384932805,27106.355475771918,18669.505150486868,0.6887501039073276,0.9530339407768877,-0.26428383686956014,Risk,Declining
129328,SGWPEZ,WEGO PTE. LTD.,Aspire FT Pte Ltd,AspireOS,Key,SG AM-Rachel,2026-Q1,2026-Q2,23953.98239428797,7900.7396809773745,0.3298299026412148,-0.04954983560045385,-0.07872632384932805,26596.697462875658,18318.478141147367,0.6887501039073276,0.381562982838999,0.30718712106832863,Safe,Growing
67398,SGMAPC,MAVINA PTE. LTD.,Aspire FT Pte Ltd,AspireBA,Key,SG AM - Caroline,2026-Q1,2026-Q2,23827.112050892054,23827.112050892054,1.0,-0.04954983560045385,-0.07872632384932805,26455.83019142283,18221.45579329709,0.6887501039073276,1.0,-0.3112498960926724,Risk,Declining
92687,SGSG9S,SURGE GLOBAL PTE. LTD.,Aspire FT Pte Ltd,AspireOS,Key,SG AM-Rachel,2026-Q1,2026-Q2,23443.714005887407,13850.488540881634,0.5907975390504836,-0.04954983560045385,-0.07872632384932805,26030.133885773124,17928.257418547888,0.6887501039073276,0.6040992724813085,0.08465083142601915,Safe,Growing
90404,SGPUNK,PUREST NEST PTE. LTD.,Aspire FT Pte Ltd,AspireBA,Key,SG AM - Caroline,2026-Q1,2026-Q2,23313.447302731638,5344.043726674829,0.22922580505924006,-0.04954983560045385,-0.07872632384932805,25885.49555230977,17828.63775134602,0.6887501039073276,0.16166576944181427,0.5270843344655134,Safe,Growing
90656,SGDAZP,DAZZ PTE LTD,Aspire FT Pte Ltd,AspireBA,Key,SG AM-Rachel,2026-Q1,2026-Q2,22976.312157256736,22830.68047313026,0.9936616597507151,-0.04954983560045385,-0.07872632384932805,25511.166085054396,17570.818291878306,0.6887501039073276,0.9952365096019059,-0.3064864056945783,Risk,Declining
84694,SGLVTX,LOVE IN THE HAIR PTE. LTD.,Aspire FT Pte Ltd,AspireBA,Key,SG AM-Rachel,2026-Q1,2026-Q2,22794.38303638414,22313.226874096446,0.9788914592897874,-0.04954983560045385,-0.07872632384932805,25309.165694977746,17431.690502223693,0.6887501039073276,0.9837517456227709,-0.2950016417154433,Risk,Declining
108372,SGEVSA,EVENTUS SECURITY PTE. LTD.,Aspire FT Pte Ltd,AspireBA,Key,SG AM-Rachel,2026-Q1,2026-Q2,22625.726814098205,21404.87614023717,0.9460414826055304,-0.04954983560045385,-0.07872632384932805,25121.902531569885,17302.712978968513,0.6887501039073276,0.925146166961701,-0.23639606305437344,Risk,Declining
89907,SGYBUE,MAX NOW PTE. LTD.,Aspire FT Pte Ltd,AspireOS,Key,SG AM-Rachel,2026-Q1,2026-Q2,22521.33564756053,19481.73944552794,0.8650348163359559,-0.04954983560045385,-0.07872632384932805,25005.994444618078,17222.881272036757,0.6887501039073276,0.7964898023728836,-0.10773969846555598,Risk,Declining
105492,SGML5E,MAGICBLOCK LABS PTE. LTD.,Aspire FT Pte Ltd,AspireOS,Key,SG AM-Rachel,2026-Q1,2026-Q2,22353.51348710167,21031.328501111802,0.9408511334581569,-0.04954983560045385,-0.07872632384932805,24819.65736062845,17094.541586077114,0.6887501039073276,0.9430774278593764,-0.2543273239520488,Risk,Declining
152838,SGSTKW,SUPERLINEAR TECHNOLOGY PTE LTD,Aspire FT Pte Ltd,AspireBA,Key,SG AM-Rachel,2026-Q1,2026-Q2,21667.56501686701,18918.32008442836,0.8731170332107685,-0.04954983560045385,-0.07872632384932805,24058.031855622485,16569.971940365784,0.6887501039073276,0.8951931563128647,-0.20644305240553706,Risk,Declining
80381,SGZUSS,ZUSPRESSO M SDN BHD,Aspire FT Pte Ltd,AspireBA,Key,SG AM-Rachel,2026-Q1,2026-Q2,21641.599080350225,12297.51607055438,0.5682350932062166,-0.04954983560045385,-0.07872632384932805,24029.201235873767,16550.11484801814,0.6887501039073276,0.6166233167985313,0.07212678710879628,Safe,Growing
102316,SGDGLZ,PT Digital Laskar Pelangi,Aspire FT Pte Ltd,AspireBA,Key,Eureka,2026-Q1,2026-Q2,21624.85367185973,2899.584742698015,0.1340857509001887,-0.04954983560045385,-0.07872632384932805,24010.60839581139,16537.309027493247,0.6887501039073276,0.20406099694099344,0.48468910696633416,Safe,Growing
58863,SGSKHZ,OSOME LTD.,Aspire FT Pte Ltd,AspireOS,Key,SG AM-Rachel,2026-Q1,2026-Q2,21537.45302799487,15278.233224963345,0.7093797583727449,-0.04954983560045385,-0.07872632384932805,23913.565305244185,16470.470588781598,0.6887501039073276,0.7804401478780124,-0.09169004397068481,Risk,Growing
120791,SGFLP4,FLYWHEEL AI PTE. LTD,Aspire FT Pte Ltd,AspireBA,Key,SG AM-Rachel,2026-Q1,2026-Q2,21338.104633005605,20859.343305071776,0.9775630808748924,-0.04954983560045385,-0.07872632384932805,23692.223865479926,16318.021649144966,0.6887501039073276,0.9708473169826596,-0.282097213075332,Risk,Declining
115719,SGAPYF,AIRGSM PTE. LTD.,Aspire FT Pte Ltd,AspireOS,Key,SG AM-Rachel,2026-Q1,2026-Q2,20679.676071450835,8823.559135672289,0.42667782150870265,-0.04954983560045385,-0.07872632384932805,22961.154393843157,15814.497474591666,0.6887501039073276,0.5382475225343718,0.1505025813729558,Safe,Growing
72111,SGANN3,ANTLER INNOVATION PTE. LTD.,Aspire FT Pte Ltd,AspireOS,Key,SG AM-Rachel,2026-Q1,2026-Q2,19991.936888113654,7970.39129623341,0.398680295002945,-0.04954983560045385,-0.07872632384932805,22197.540615912607,15288.558405696933,0.6887501039073276,0.4965212930589397,0.1922288108483879,Safe,Growing
92684,SGEDGT,EDGE TUTOR INTERNATIONAL PTE. LTD.,Aspire FT Pte Ltd,AspireOS,Key,SG AM-Rachel,2026-Q1,2026-Q2,19464.186628332292,16735.268895903595,0.859798008283765,-0.04954983560045385,-0.07872632384932805,21611.56648583618,14884.96866271979,0.6887501039073276,0.8738573239447349,-0.18510722003740732,Risk,Declining
70084,SGTSD5,ATTIX APAC PTE. LTD.,Aspire FT Pte Ltd,AspireOS,Key,SG AM-Rachel,2026-Q1,2026-Q2,19456.84089845421,14614.983675011317,0.7511488504884899,-0.04954983560045385,-0.07872632384932805,21603.410340774557,14879.351116961112,0.6887501039073276,0.744481740164467,-0.055731636257139394,Risk,Growing
91424,SGAMGD,AMITY GLOBAL INSTITUTE PTE. LTD.,Aspire FT Pte Ltd,AspireBA,Key,SG AM - Caroline,2026-Q1,2026-Q2,19369.01904054908,14783.572748647568,0.7632587235160505,-0.04954983560045385,-0.07872632384932805,21505.89956586944,14812.19056061313,0.6887501039073276,0.7924615618676024,-0.10371145796027481,Risk,Growing
120054,SGCDHK,CODE HOUSE PTE. LTD.,Aspire FT Pte Ltd,AspireBA,Key,SG AM - Caroline,2026-Q1,2026-Q2,18991.894434410817,18981.381254750566,0.9994464386006062,-0.04954983560045385,-0.07872632384932805,21087.168814123655,14523.789711839026,0.6887501039073276,0.998753696514168,-0.3100035926068404,Risk,Declining
68165,SGTP78,SF TREASURY SG PTE. LTD.,Aspire FT Pte Ltd,AspireBA,Key,SG AM - Caroline,2026-Q1,2026-Q2,18882.114102880623,18727.415682303927,0.9918071451250738,-0.04954983560045385,-0.07872632384932805,20965.27700436016,14439.836715198966,0.6887501039073276,0.991336326504754,-0.3025862225974264,Risk,Declining
76492,SGMAGL,MAGIK LABS PTE. LTD.,Aspire FT Pte Ltd,AspireBA,Key,SG AM-Rachel,2026-Q1,2026-Q2,18623.751597128372,17907.05959496251,0.9615173130704573,-0.04954983560045385,-0.07872632384932805,20678.41074186839,14242.257547100253,0.6887501039073276,0.9697541611292342,-0.2810040572219066,Risk,Declining
77441,SGGZ7B,COBO SINGAPORE PTE. LTD.,Aspire FT Pte Ltd,AspireOS,Key,SG AM-Rachel,2026-Q1,2026-Q2,18384.145996054376,1153.1639701427682,0.06272600154449717,-0.04954983560045385,-0.07872632384932805,20412.3707332686,14059.02246353364,0.6887501039073276,0.13780770852584068,0.5509423953814869,Safe,Growing
129875,SGJSP7,Clarus Technology Limited,Aspire FT Pte Ltd,AspireBA,Key,SG AM - Caroline,2026-Q1,2026-Q2,18011.30020237535,17025.7698409428,0.945282664196415,-0.04954983560045385,-0.07872632384932805,19998.390852530625,13773.893777659818,0.6887501039073276,0.9412867052312816,-0.25253660132395395,Risk,Declining
101907,SG4VPC,STARTCAREFULLY PTE. LTD.,Aspire FT Pte Ltd,AspireBA,Key,SG AM-Rachel,2026-Q1,2026-Q2,17854.482347494493,17682.304758843617,0.9903566182821851,-0.04954983560045385,-0.07872632384932805,19824.272120438804,13653.969482839364,0.6887501039073276,0.9949740865327035,-0.30622398262537587,Risk,Declining
146972,SGBHLQ,BHINDI LABS PTE. LTD.,Aspire FT Pte Ltd,AspireBA,Key,SG AM - Caroline,2026-Q1,2026-Q2,17415.756399624075,12864.053399860404,0.7386445414531682,-0.04954983560045385,-0.07872632384932805,19337.143879607942,13318.459856350913,0.6887501039073276,0.7816331523109561,-0.09288304840362849,Risk,Growing
116073,SGFYDF,"Intrepid Ecommerce Services (Thailand) Co., Ltd.",Aspire FT Pte Ltd,AspireOS,Key,SG AM-Rachel,2026-Q1,2026-Q2,17319.263365670748,5133.740817393384,0.29641796588007263,-0.04954983560045385,-0.07872632384932805,19230.005284067207,13244.668137539747,0.6887501039073276,0.31819259907713404,0.37055750483019356,Safe,Growing
80086,SGMSME,MISTER MOBILE TRADING PTE. LTD.,Aspire FT Pte Ltd,AspireX,Key,SG AM - Caroline,2026-Q1,2026-Q2,17306.771892885463,7983.019276504449,0.46126564364011413,-0.04954983560045385,-0.07872632384932805,19216.135693739074,13235.115455760093,0.6887501039073276,0.39717232406760855,0.29157777983971905,Safe,Growing
83438,SGBRHP,BRIOHR PTE. LTD.,Aspire FT Pte Ltd,AspireBA,Key,SG AM-Rachel,2026-Q1,2026-Q2,17058.38285593861,17038.642765308763,0.998842792379761,-0.04954983560045385,-0.07872632384932805,18940.34321965152,13045.163360575432,0.6887501039073276,0.9961961289812212,-0.3074460250738936,Risk,Declining
55419,SGVPUA,PX Ventures PTE LTD,Aspire FT Pte Ltd,AspireBA,Key,SG AM - Caroline,2026-Q1,2026-Q2,16802.99330911465,11735.04841588277,0.6983903522426083,-0.04954983560045385,-0.07872632384932805,18656.777906784057,12849.857721873454,0.6887501039073276,0.6655943401218226,0.02315576378550499,Safe,Growing
103624,SGPCZC,PRIMROSE CAPITAL MANAGEMENT PTE. LTD. (AP),Aspire FT Pte Ltd,AspireBA,Key,SG AM - Caroline,2026-Q1,2026-Q2,16339.77500063143,15687.67304314845,0.9600911299294035,-0.04954983560045385,-0.07872632384932805,18142.45519387554,12495.617899915813,0.6887501039073276,0.9451634189881839,-0.2564133150808563,Risk,Declining
123896,SGCLMS,COFFEE MEETS BAGEL PTE. LTD.,Aspire FT Pte Ltd,AspireOS,Key,SG AM-Rachel,2026-Q1,2026-Q2,16184.083947361174,13761.232990773422,0.8502942171785509,-0.04954983560045385,-0.07872632384932805,17969.58757740385,12376.555311108725,0.6887501039073276,0.8965667938246021,-0.20781668991727453,Risk,Declining
86460,SGPPGY,PREFER PTE. LTD.,Aspire FT Pte Ltd,AspireBA,Key,SG AM-Rachel,2026-Q1,2026-Q2,16149.171832299713,15781.533838318363,0.977234870134576,-0.04954983560045385,-0.07872632384932805,17930.82379496489,12349.85675192605,0.6887501039073276,0.8611384326967754,-0.17238832878944776,Risk,Declining
90493,SGKRMQ,KRIS MANAGEMENT & SERVICES PTE. LTD.,Aspire FT Pte Ltd,AspireBA,Key,SG AM - Caroline,2026-Q1,2026-Q2,16100.001898746626,15768.888620727628,0.9794339603124659,-0.04954983560045385,-0.07872632384932805,17876.229204994204,12312.254722410962,0.6887501039073276,0.9865145537763647,-0.29776444986903705,Risk,Declining
110959,SGLYNM,LYNCHPIN MANAGEMENT SERVICES PTE. LTD.,Aspire FT Pte Ltd,AspireBA,Key,SG AM - Caroline,2026-Q1,2026-Q2,16057.832567006593,6041.711719037703,0.3762470242373416,-0.04954983560045385,-0.07872632384932805,17829.407555882164,12280.006306719932,0.6887501039073276,0.446535390115192,0.2422147137921356,Safe,Growing
72538,SGABHT,ABHIBHA TECHNOLOGIES PTE. LTD.,Aspire FT Pte Ltd,AspireBA,Key,SG AM-Rachel,2026-Q1,2026-Q2,15985.2291692,15866.473978824091,0.992570942266832,-0.04954983560045385,-0.07872632384932805,17748.79421257858,12224.483858143272,0.6887501039073276,0.9826139015958678,-0.2938637976885402,Risk,Declining
69274,SGTRT9,TRIPLO TECHNOLOGY SERVICES PTE. LTD.,Aspire FT Pte Ltd,AspireBA,Key,SG AM-Rachel,2026-Q1,2026-Q2,15785.667073005385,9788.492358294523,0.6200873433491793,-0.04954983560045385,-0.07872632384932805,17527.215495095217,12071.871493452953,0.6887501039073276,0.5893771065615367,0.09937299734579086,Safe,Growing
145670,SGELSG,ELSER GLOBAL PTE. LTD.,Aspire FT Pte Ltd,AspireBA,Key,SG AM-Rachel,2026-Q1,2026-Q2,15783.280015433333,14774.538053219676,0.9360879385509678,-0.04954983560045385,-0.07872632384932805,17524.565086197636,12070.046024049347,0.6887501039073276,0.9563189875228908,-0.2675688836155632,Risk,Declining
118501,SGMMWC,MMW CAPITAL INVESTMENT PTE LTD,Aspire FT Pte Ltd,AspireBA,Key,SG AM - Caroline,2026-Q1,2026-Q2,15738.11411472467,15737.571445619724,0.9999655187971703,-0.04954983560045385,-0.07872632384932805,17474.41627265116,12035.506023508384,0.6887501039073276,0.9999929028930811,-0.31124279898575347,Risk,Declining
90121,SGTERJ,TERRAVERDE JOURNEYS PTE. LTD.,Aspire FT Pte Ltd,AspireBA,Key,SG AM - Caroline,2026-Q1,2026-Q2,15407.557079571778,14712.476075894841,0.9548870077139928,-0.04954983560045385,-0.07872632384932805,17107.390643531424,11782.717083315512,0.6887501039073276,0.940137244173436,-0.2513871402661084,Risk,Declining
60315,SGBAZT,BAZAAR TECHNOLOGIES PTE LTD,Aspire FT Pte Ltd,AspireOS,Key,SG AM-Rachel,2026-Q1,2026-Q2,15305.648097053254,10114.78931202741,0.6608533822213498,-0.04954983560045385,-0.07872632384932805,16994.238586717653,11704.783592427699,0.6887501039073276,0.6840797633306204,0.004670340576707233,Safe,Growing
131028,SGSMMQ,SMK IMPORT AND EXPORT PTE. LTD.,Aspire FT Pte Ltd,AspireBA,Key,SG AM-Rachel,2026-Q1,2026-Q2,15297.235231206374,14100.496970940305,0.9217676761729647,-0.04954983560045385,-0.07872632384932805,16984.89757426961,11698.34996913351,0.6887501039073276,0.9631360855166038,-0.2743859816092762,Risk,Declining
114025,SGWXHM,DIGIMENTAL GLOBAL NETWORK SOLUTION PTE. LTD.,Aspire FT Pte Ltd,AspireBA,Key,SG AM-Rachel,2026-Q1,2026-Q2,14810.423240957192,11464.205958473189,0.7740633587546456,-0.04954983560045385,-0.07872632384932805,16444.378214572436,11326.06720397816,0.6887501039073276,0.8033693549640466,-0.114619251056719,Risk,Declining
136203,SGGTG8,IDA GLOBAL TRANSLATION PTE. LTD.,Aspire FT Pte Ltd,AspireBA,Key,SG AM-Rachel,2026-Q1,2026-Q2,14771.925216791433,5316.63617994192,0.35991491304724677,-0.04954983560045385,-0.07872632384932805,16401.632908810698,11296.626370193211,0.6887501039073276,0.405606312084803,0.2831437918225246,Safe,Growing
55188,SGPRLF,Oxixo Private Ltd.,Aspire FT Pte Ltd,AspireBA,Key,SG AM-Rachel,2026-Q1,2026-Q2,14760.266747171416,9839.909264793452,0.6666484714227217,-0.04954983560045385,-0.07872632384932805,16388.688222442488,11287.71071611206,0.6887501039073276,0.750640672086052,-0.0618905681787244,Risk,Growing
81634,SGSUG2,SUNGIL GARMENT PTE. LTD.,Aspire FT Pte Ltd,AspireBA,Key,SG AM-Rachel,2026-Q1,2026-Q2,14748.711575013662,14702.562863637233,0.9968710004842314,-0.04954983560045385,-0.07872632384932805,16375.858229794396,11278.874057342557,0.6887501039073276,0.9958128325922985,-0.30706272868497086,Risk,Declining
133221,SGMBS6,MAZON INTERNATIONAL PTE. LTD.,Aspire FT Pte Ltd,AspireBA,Key,SG AM-Rachel,2026-Q1,2026-Q2,14546.685205,14313.185205,0.9839482331053854,-0.04954983560045385,-0.07872632384932805,16151.543368309916,11124.377173187164,0.6887501039073276,0.9895415086854783,-0.3007914047781507,Risk,Declining
116405,SG48H5,PENGYUAN PHARMA LIMITED,AFT HK Limited,AspireBA,Key,SG AM - Caroline,2026-Q1,2026-Q2,14068.986900908089,14019.486900908089,0.9964816229947016,-0.04954983560045385,-0.07872632384932805,15621.143159136718,10759.063974006654,0.6887501039073276,0.9939063898401296,-0.305156285932802,Risk,Declining
173232,SGPL4F,PANGO LABS PTE LTD,Aspire FT Pte Ltd,AspireBA,Key,SG AM-Rachel,2026-Q1,2026-Q2,14016.674623234343,12862.540570751959,0.9176599240900358,-0.04954983560045385,-0.07872632384932805,15563.059546984852,10719.058880101744,0.6887501039073276,0.9284504605830853,-0.23970035667575773,Risk,Declining
84818,SGTRS9,EXO TRAVEL (SINGAPORE) CO. PTE. LTD. (USD),Aspire FT Pte Ltd,AspireBA,Key,SG AM - Caroline,2026-Q1,2026-Q2,13869.070550833332,5126.30051907614,0.36962105717806176,-0.04954983560045385,-0.07872632384932805,15399.171104832774,10606.18069854029,0.6887501039073276,0.5125824745080774,0.17616762939925024,Safe,Growing
174591,SGZYLU,ZYNK LABS PTE LTD,AFT HK Limited,AspireBA,Key,SG AM-Rachel,2026-Q1,2026-Q2,13794.3169315144,13654.0769315144,0.9898334944240981,-0.04954983560045385,-0.07872632384932805,15316.170317550128,10549.013897674977,0.6887501039073276,0.9927430503640953,-0.30399294645676767,Risk,Declining
139091,SGLMFD,LMF DIGITAL PTE. LTD.,Aspire FT Pte Ltd,AspireBA,Key,SG AM-Rachel,2026-Q1,2026-Q2,13693.331552934656,13369.388745069456,0.9763430245873382,-0.04954983560045385,-0.07872632384932805,15204.043760969715,10471.786720179447,0.6887501039073276,0.9819734058219822,-0.2932233019146546,Risk,Declining
68432,SGARP6,ARMADA-GROUP PTE. LTD.,Aspire FT Pte Ltd,AspireBA,Key,SG AM - Caroline,2026-Q1,2026-Q2,13626.123679329852,8866.962995410691,0.6507326077526678,-0.04954983560045385,-0.07872632384932805,15129.421201264715,10420.390424428797,0.6887501039073276,0.7052395626980069,-0.016489458790679312,Risk,Growing
120816,SGARL4,AROHA LABS PTE. LTD.,Aspire FT Pte Ltd,AspireBA,Key,SG AM - Caroline,2026-Q1,2026-Q2,13491.47714868127,10545.957675656675,0.7816755392635042,-0.04954983560045385,-0.07872632384932805,14979.919837310297,10317.421344470906,0.6887501039073276,0.7770019734504944,-0.08825186954316677,Risk,Declining
67575,SGSTNE,STELLAR NATION TRADING PTE.LTD.,Aspire FT Pte Ltd,AspireBA,Key,SG AM - Caroline,2026-Q1,2026-Q2,13460.162637636617,13426.665693308933,0.9975114012193269,-0.04954983560045385,-0.07872632384932805,14945.150563343932,10293.474003413789,0.6887501039073276,0.9973856368063488,-0.30863553289902124,Risk,Declining
150792,SGEZRZ,LENDTECH INVESTMENT HOLDINGS PTE LTD,Aspire FT Pte Ltd,AspireOS,Key,SG AM-Rachel,2026-Q1,2026-Q2,13338.369319088708,6430.711541435764,0.4821212689194842,-0.04954983560045385,-0.07872632384932805,14809.9204378016,10200.334240395106,0.6887501039073276,0.5467034238653006,0.14204668004202703,Safe,Growing
80606,SGHRZQ,HORIZON QUANTUM COMPUTING PTE. LTD.,Aspire FT Pte Ltd,AspireBA,Key,SG AM-Rachel,2026-Q1,2026-Q2,13280.72011446913,7191.299591300591,0.5414841611988935,-0.04954983560045385,-0.07872632384932805,14745.911104029694,10156.247805108667,0.6887501039073276,0.5919831761012693,0.09676692780605833,Safe,Growing
108293,SGLP5D,LETSVIBE PTE. LTD.,Aspire FT Pte Ltd,AspireOS,Key,SG AM-Rachel,2026-Q1,2026-Q2,13162.206360079,5382.663567194856,0.4089484255102158,-0.04954983560045385,-0.07872632384932805,14614.322359460213,10065.616043613403,0.6887501039073276,0.7316644837686305,-0.042914379861302865,Risk,Growing
123082,SGGDFQ,GODSOURCE FURNITURE PTE. LTD.,Aspire FT Pte Ltd,AspireBA,Key,SG AM-Rachel,2026-Q1,2026-Q2,13139.477869166667,12984.477869166667,0.9882034886360496,-0.04954983560045385,-0.07872632384932805,14589.08635541576,10048.234743205581,0.6887501039073276,0.9906347302433983,-0.3018846263360707,Risk,Declining
67457,SGRARH,RARIUM INTERNATIONAL PTE. LTD.,Aspire FT Pte Ltd,AspireBA,Key,SG AM - Caroline,2026-Q1,2026-Q2,13110.772509554276,13072.793136878232,0.9971031933741229,-0.04954983560045385,-0.07872632384932805,14557.214086637774,10026.28271477298,0.6887501039073276,0.9957271723563436,-0.30697706844901596,Risk,Declining
60213,SGNPQM,UPSURGE LABS PTE LTD,Aspire FT Pte Ltd,AspireBA,Key,SG AM - Caroline,2026-Q1,2026-Q2,12980.475086957142,9793.795697181406,0.7545020988501623,-0.04954983560045385,-0.07872632384932805,14412.541644621,9926.6395553014,0.6887501039073276,0.8156276568109143,-0.1268775529035867,Risk,Growing
56856,SGTNKF,Tonik Financial Pte Ltd,Aspire FT Pte Ltd,AspireBA,Key,SG AM - Caroline,2026-Q1,2026-Q2,12900.084028102465,6279.568997496376,0.4867851235555144,-0.04954983560045385,-0.07872632384932805,14323.281469177775,9865.161600190093,0.6887501039073276,0.5297878176410805,0.1589622862662471,Safe,Growing
70216,SGSTWN,SUNERA TECH PTE. LTD.,Aspire FT Pte Ltd,AspireBA,Key,SG AM-Rachel,2026-Q1,2026-Q2,12800.24055,12794.74055,0.999570320574952,-0.04954983560045385,-0.07872632384932805,14212.42279286157,9788.807675358277,0.6887501039073276,0.9961403073045485,-0.3073902033972209,Risk,Declining
69417,SGZAUT,ZAURAC TECHNOLOGIES PTE. LTD.,Aspire FT Pte Ltd,AspireBA,Key,SG AM-Rachel,2026-Q1,2026-Q2,12694.578665043437,5281.999906798397,0.41608312069019143,-0.04954983560045385,-0.07872632384932805,14095.103795907768,9708.004204016042,0.6887501039073276,0.4838830764011673,0.20486702750616032,Safe,Growing
126651,SGKSFP,KALEI SG PTE. LTD.,Aspire FT Pte Ltd,AspireBA,Key,SG AM-Rachel,2026-Q1,2026-Q2,12652.71161774555,9282.20547889018,0.733613928722741,-0.04954983560045385,-0.07872632384932805,14048.617780667508,9675.986956189075,0.6887501039073276,0.736009527507374,-0.047259423600046424,Risk,Growing
111587,SGGTYF,GOTYME FINANCIAL PTE. LTD.,Aspire FT Pte Ltd,AspireBA,Key,SG AM - Caroline,2026-Q1,2026-Q2,12605.710257606454,12594.710257606454,0.9991273795942309,-0.04954983560045385,-0.07872632384932805,13996.431011244928,9640.043313326687,0.6887501039073276,0.9167027779754734,-0.2279526740681458,Risk,Declining
83575,SGPP8Y,POURQUOI PAS PTE. LTD.,Aspire FT Pte Ltd,AspireBA,Key,SG AM-Rachel,2026-Q1,2026-Q2,12529.264346724563,12251.023573257415,0.9777927286257723,-0.04954983560045385,-0.07872632384932805,13911.551230900579,9581.582355794884,0.6887501039073276,0.9765574750638562,-0.28780737115652855,Risk,Declining
129420,SGRCCB,RACKSYS CREATION PTE. LTD.,Aspire FT Pte Ltd,AspireBA,Key,SG AM - Caroline,2026-Q1,2026-Q2,12447.236556864416,12402.238687205856,0.9963849108633076,-0.04954983560045385,-0.07872632384932805,13820.473752652997,9518.852733188245,0.6887501039073276,0.9952621757268427,-0.3065120718195151,Risk,Declining
112237,SGDPUP,DPUNION PTE. LTD.,Aspire FT Pte Ltd,AspireBA,Scaled,SG AM - Caroline,2026-Q1,2026-Q2,12433.410269045697,12371.613787414326,0.9950298043502015,-0.04954983560045385,-0.07872632384932805,13805.122084270839,9508.279269994884,0.6887501039073276,0.9893197550296576,-0.30056965112233003,Risk,Declining
130625,SGTAZP,TAZAPAY PTE. LTD.,Aspire FT Pte Ltd,AspireOS,Key,SG AM-Rachel,2026-Q1,2026-Q2,12418.540040978387,5350.436402202013,0.43084262598878587,-0.04954983560045385,-0.07872632384932805,13788.61130328252,9496.907467873587,0.6887501039073276,0.5215555800633784,0.16719452384394917,Safe,Growing
81753,SGBANS,BANDLAB SINGAPORE PTE. LTD.,Aspire FT Pte Ltd,AspireOS,Key,SG AM-Rachel,2026-Q1,2026-Q2,12405.35140552307,6713.686757324442,0.5411927915508622,-0.04954983560045385,-0.07872632384932805,13773.967636046762,9486.821640543374,0.6887501039073276,0.5562549572772485,0.1324951466300791,Safe,Growing
66817,SGKRRT,KRRAVE TECHNOLOGIES PTE. LTD.,Aspire FT Pte Ltd,AspireBA,Key,SG AM - Caroline,2026-Q1,2026-Q2,12358.264673834743,9373.264137711043,0.7584611905550441,-0.04954983560045385,-0.07872632384932805,13721.686076487431,9450.812710964448,0.6887501039073276,0.8326750543491982,-0.1439249504418706,Risk,Growing
94208,SGVADF,VIAS DEVELOPMENT PTE. LTD.,Aspire FT Pte Ltd,AspireBA,Key,SG AM - Caroline,2026-Q1,2026-Q2,12208.679641666668,12175.679641666668,0.9972970050022957,-0.04954983560045385,-0.07872632384932805,13555.59812584681,9336.419617702964,0.6887501039073276,0.9947825289953799,-0.3060324250880523,Risk,Declining
81235,SGDEDX,DECUBE DATA PTE. LTD.,Aspire FT Pte Ltd,AspireBA,Key,SG AM-Rachel,2026-Q1,2026-Q2,11919.28370597637,10906.02471791102,0.9149899429311092,-0.04954983560045385,-0.07872632384932805,13234.274680674034,9115.108061452356,0.6887501039073276,0.9059475286739377,-0.21719742476661008,Risk,Declining
127034,SGMC4R,MUST COMPANY SG PTE. LTD.,Aspire FT Pte Ltd,AspireBA,Key,SG AM-Rachel,2026-Q1,2026-Q2,11827.623648439714,4305.542428443104,0.36402430077415304,-0.04954983560045385,-0.07872632384932805,13132.502258051169,9045.012294795957,0.6887501039073276,0.42929017205099124,0.25945993185633637,Safe,Growing
66036,SGSCNR,SCALE INSIGHTS PTE. LTD.,Aspire FT Pte Ltd,AspireBA,Key,SG AM-Rachel,2026-Q1,2026-Q2,11826.79854483058,10296.25853692519,0.8705871244780456,-0.04954983560045385,-0.07872632384932805,13131.586125163265,9044.381308174221,0.6887501039073276,0.8806640038183429,-0.19191389991101526,Risk,Declining
150189,SGENMN,MEDIATROPY PTE LTD (USD),Aspire FT Pte Ltd,AspireBA,Key,SG AM-Rachel,2026-Q1,2026-Q2,11764.146642820471,7365.4641639430665,0.6260942155492535,-0.04954983560045385,-0.07872632384932805,13062.022173090143,8996.469128955654,0.6887501039073276,0.6644507197788035,0.02429938412852406,Safe,Growing
144668,SGHMGC,KIM HENG MARINE & OILFIELD PTE LTD,Aspire FT Pte Ltd,AspireBA,Key,SG AM - Caroline,2026-Q1,2026-Q2,11680.980645638867,7921.735033098047,0.6781738000786478,-0.04954983560045385,-0.07872632384932805,12969.680915180352,8932.86907797535,0.6887501039073276,-0.24439877929111828,0.9331488831984459,Safe,Growing
137316,SGPVPB,PIVENE PTE. LTD.,Aspire FT Pte Ltd,AspireBA,Key,SG AM-Rachel,2026-Q1,2026-Q2,11445.19290841945,11419.761438552225,0.9977779780497612,-0.04954983560045385,-0.07872632384932805,12707.87997498361,8752.55365321181,0.6887501039073276,0.9978154663665049,-0.30906536245917726,Risk,Declining
102393,SGHYJD,TELEPORT EVERYWHERE PTE. LTD.,Aspire FT Pte Ltd,AspireOS,Key,SG AM-Rachel,2026-Q1,2026-Q2,11392.699376993638,6070.145867290231,0.5328101502922349,-0.04954983560045385,-0.07872632384932805,12649.595112320307,8712.409947996235,0.6887501039073276,0.5889556426550713,0.09979446125225633,Safe,Growing
137806,SGEQTJ,LEARTBAR PARTNERS PTE. LTD.,Aspire FT Pte Ltd,AspireBA,Key,SG AM - Caroline,2026-Q1,2026-Q2,11382.070866812292,9770.321159112873,0.8583957412882625,-0.04954983560045385,-0.07872632384932805,12637.794015320174,8704.281941211173,0.6887501039073276,0.9404686473307363,-0.2517185434234087,Risk,Declining
117503,SGKASE,KAIN SUITE PTE. LTD.,Aspire FT Pte Ltd,AspireBA,Key,SG AM-Rachel,2026-Q1,2026-Q2,11213.0769498,6248.166308266919,0.5572213885840107,-0.04954983560045385,-0.07872632384932805,12450.15590112861,8575.046170564758,0.6887501039073276,0.610384708926008,0.07836539498131956,Safe,Growing
84773,SGBRP3,JOIN BRANDS PTE. LTD.,Aspire FT Pte Ltd,AspireBA,Key,SG AM-Rachel,2026-Q1,2026-Q2,11117.389974468684,7793.920532393281,0.7010566823950748,-0.04954983560045385,-0.07872632384932805,12343.912292356836,8501.87087398371,0.6887501039073276,0.7173472860549425,-0.028597182147614864,Risk,Growing
134433,SGYDNT,YDNE TIME PTE LTD,Aspire FT Pte Ltd,AspireBA,Key,SG AM - Caroline,2026-Q1,2026-Q2,11084.804406329506,10935.62050415596,0.9865415846139459,-0.04954983560045385,-0.07872632384932805,12307.731732348562,8476.951509518585,0.6887501039073276,0.9801501000891664,-0.29139999618183876,Risk,Declining
115418,SGFYWD,"Intrepid Philippines, Inc.",Aspire FT Pte Ltd,AspireOS,Key,SG AM-Rachel,2026-Q1,2026-Q2,11064.879709335277,4193.494841091123,0.37899145325123895,-0.04954983560045385,-0.07872632384932805,12285.608849845263,8461.714371895709,0.6887501039073276,0.3656525477038934,0.3230975562034342,Safe,Growing
85644,SGGRVW,GREAT VISION SHIPPING PTE. LTD.,Aspire FT Pte Ltd,AspireBA,Key,SG AM - Caroline,2026-Q1,2026-Q2,11038.191490071642,11032.691490071642,0.9995017299704443,-0.04954983560045385,-0.07872632384932805,12255.97626174805,8441.30492376471,0.6887501039073276,0.9987663236761557,-0.3100162197688281,Risk,Declining
125582,SGKNSG,KINGMIDAS CAPITAL PTE. LTD,Aspire FT Pte Ltd,AspireBA,Key,SG AM-Rachel,2026-Q1,2026-Q2,11010.898352940243,11009.90199321372,0.9999095114953761,-0.04954983560045385,-0.07872632384932805,12225.672018422329,8420.432873025287,0.6887501039073276,0.9987878783007542,-0.3100377743934266,Risk,Declining
85191,SGMP9G,MONETRACK PTE. LTD.,Aspire FT Pte Ltd,AspireBA,Key,SG AM - Caroline,2026-Q1,2026-Q2,10942.4844731,10131.414031808912,0.9258787669943742,-0.04954983560045385,-0.07872632384932805,12149.710400248705,8368.114300615234,0.6887501039073276,0.9196509093779693,-0.23090080547064173,Risk,Declining
65951,SGATAG,Atlasv Global Pte. Ltd.,Aspire FT Pte Ltd,AspireBA,Key,SG AM - Caroline,2026-Q1,2026-Q2,10935.421164695927,4563.465143750162,0.4173104149370048,-0.04954983560045385,-0.07872632384932805,12141.867834715433,8362.712732789294,0.6887501039073276,0.4325853999733821,0.2561647039339455,Safe,Growing
105066,SGHNPB,HONGTEX PTE. LTD.,Aspire FT Pte Ltd,AspireBA,Key,SG AM-Rachel,2026-Q1,2026-Q2,10888.895435443987,10723.895435443987,0.984846947885741,-0.04954983560045385,-0.07872632384932805,12090.209169998014,8327.132822097457,0.6887501039073276,0.985237868300343,-0.2964877643930154,Risk,Declining
114313,SGEXLP,CILLIA EXPRESS LIMITED,AFT HK Limited,AspireBA,Key,SG AM - Caroline,2026-Q1,2026-Q2,10861.90131385853,7280.865299323419,0.6703122306988627,-0.04954983560045385,-0.07872632384932805,12060.236931007985,8306.48943937874,0.6887501039073276,0.6203658749992103,0.06838422890811735,Safe,Growing
109572,SGSPLU,SUNA OPTOELECTRONICS (SINGAPORE) PTE LTD,Aspire FT Pte Ltd,AspireBA,Key,SG AM-Rachel,2026-Q1,2026-Q2,10738.876021222452,10721.879076894767,0.9984172510890251,-0.04954983560045385,-0.07872632384932805,11923.638914249665,8212.407541142911,0.6887501039073276,0.9980820661276723,-0.30933196222034465,Risk,Declining
77903,SGMUTW,MULTIPLIER TECHNOLOGIES PTE. LTD. (USD Advance/SGD Debit),Aspire FT Pte Ltd,AspireOS,Key,SG AM-Rachel,2026-Q1,2026-Q2,10724.578530294477,3855.2583713009844,0.35947877675665885,-0.04954983560045385,-0.07872632384932805,11907.764057433364,8201.47373186117,0.6887501039073276,0.3797092626309456,0.309040841276382,Safe,Growing
65252,SGBYAW,DC Byte Asia Pte. Ltd.,Aspire FT Pte Ltd,AspireBA,Key,SG AM-Rachel,2026-Q1,2026-Q2,10616.603137024056,9486.44483681489,0.8935480317364523,-0.04954983560045385,-0.07872632384932805,11787.8763151374,8118.9010368976105,0.6887501039073276,0.9323487215185835,-0.2435986176112559,Risk,Declining
80992,SGNVDN,INVIDEO INNOVATION PTE. LTD.,Aspire FT Pte Ltd,AspireOS,Key,SG AM-Rachel,2026-Q1,2026-Q2,10537.0170973,5392.590342911228,0.5117757988921763,-0.04954983560045385,-0.07872632384932805,11699.509972290214,8058.0387090797,0.6887501039073276,0.5597485717200686,0.12900153218725896,Safe,Growing
82427,SGTPBD,TERRA PAYMENT SERVICES (SINGAPORE) PTE LTD,Aspire FT Pte Ltd,AspireBA,Key,SG AM - Caroline,2026-Q1,2026-Q2,10470.188277976582,10052.843721427667,0.9601397276277472,-0.04954983560045385,-0.07872632384932805,11625.308285902984,8006.932289870397,0.6887501039073276,0.9532850417248043,-0.2645349378174767,Risk,Declining
134548,SGGVDN,GREENBOY VENTURES LIMITED,AFT HK Limited,AspireBA,Key,SG AM - Caroline,2026-Q1,2026-Q2,10339.93167704143,10330.00603712304,0.9990400671659727,-0.04954983560045385,-0.07872632384932805,11480.681169184352,7907.320348202622,0.6887501039073276,0.9997413197827545,-0.3109912158754269,Risk,Declining
119967,SGGTTH,GLORY TOP TRADING PTE. LTD.,Aspire FT Pte Ltd,AspireBA,Key,SG AM - Caroline,2026-Q1,2026-Q2,10259.026793131645,10120.529678439641,0.9864999753402802,-0.04954983560045385,-0.07872632384932805,11390.850481109253,7845.449452456831,0.6887501039073276,0.9799487875271985,-0.2911986836198709,Risk,Declining
142151,SGAEP5,CHRONOAI PTE. LTD.,Aspire FT Pte Ltd,AspireBA,Key,SG AM - Caroline,2026-Q1,2026-Q2,10162.603305937891,10069.8513226367,0.9908732063518608,-0.04954983560045385,-0.07872632384932805,11283.789105050999,7771.710918572247,0.6887501039073276,0.991030682930032,-0.30228057902270444,Risk,Declining
123816,SGJNMR,Jingkaida Microelectronics Technology Pte Ltd,Aspire FT Pte Ltd,AspireBA,Key,SG AM - Caroline,2026-Q1,2026-Q2,10112.883119126573,10055.000507055585,0.9942763491489867,-0.04954983560045385,-0.07872632384932805,11228.583555316036,7733.688090456029,0.6887501039073276,0.9936405220395385,-0.30489041813221085,Risk,Declining
80816,SGSSHW,"(USD) SPROUT SOLUTIONS PHIL., INC",Aspire FT Pte Ltd,AspireBA,Key,SG AM-Rachel,2026-Q1,2026-Q2,10086.0214832,2080.9083070049055,0.206316069271815,-0.04954983560045385,-0.07872632384932805,11198.75841842075,7713.146024320351,0.6887501039073276,0.338679700648757,0.3500704032585706,Safe,Growing
147380,SGDYMA,Dyment labs PTE LTD,Aspire FT Pte Ltd,AspireBA,Key,SG AM-Rachel,2026-Q1,2026-Q2,10081.062841645784,9841.452950188217,0.9762316835812473,-0.04954983560045385,-0.07872632384932805,11193.252716401206,7709.353971482308,0.6887501039073276,0.982959527629817,-0.29420942372248937,Risk,Declining
135388,SGHECK,HELMSMAN CAPITAL PTE. LTD.,Aspire FT Pte Ltd,AspireBA,Key,SG AM - Caroline,2026-Q1,2026-Q2,10052.036296649732,10035.289814986947,0.9983340209716148,-0.04954983560045385,-0.07872632384932805,11161.0238275699,7687.156320950928,0.6887501039073276,0.9950826827147056,-0.30633257880737796,Risk,Declining
125931,SGESH9,ESSENCE SHIPPING PTE. LTD.,Aspire FT Pte Ltd,AspireBA,Key,SG AM - Caroline,2026-Q1,2026-Q2,9965.843816290135,9745.672859192202,0.9779074445519563,-0.04954983560045385,-0.07872632384932805,11065.322190741206,7621.2418086410635,0.6887501039073276,0.9431486402965102,-0.25439853638918264,Risk,Declining
107087,SGFGZX,OSOME LTD.,Aspire FT Pte Ltd,AspireOS,Key,SG AM-Rachel,2026-Q1,2026-Q2,9919.797413751985,6436.728119602165,0.6488769731001581,-0.04954983560045385,-0.07872632384932805,11014.195734296412,7586.028456452298,0.6887501039073276,0.6575464735611899,0.031203630346137712,Safe,Growing
58755,SGASLS,Ascenda Loyalty Pte Ltd,Aspire FT Pte Ltd,AspireOS,Key,SG AM-Rachel,2026-Q1,2026-Q2,9836.634232267741,4264.37263763887,0.43351948816498387,-0.04954983560045385,-0.07872632384932805,10921.857602724851,7522.430558737777,0.6887501039073276,0.4247749579174656,0.263975145989862,Safe,Growing
143847,SGMPR3,MOBIVERSA PTE. LTD.,Aspire FT Pte Ltd,AspireBA,Key,SG AM-Rachel,2026-Q1,2026-Q2,9663.280753363335,5608.674270189485,0.5804109818745945,-0.04954983560045385,-0.07872632384932805,10729.378959438507,7389.860873174366,0.6887501039073276,0.6067269767330515,0.08202312717427607,Safe,Growing
95603,SGRNCW,PT. RINAIYANTI CAHAYA INTERMA,Aspire FT Pte Ltd,AspireBA,Key,Eureka,2026-Q1,2026-Q2,9663.109265791838,1485.674359518476,0.1537470309663039,-0.04954983560045385,-0.07872632384932805,10729.188552558235,7389.729730415794,0.6887501039073276,0.2713367362832754,0.4174133676240522,Safe,Growing
78038,SGZUZG,MATHRIX SINGAPORE PTE. LTD.,Aspire FT Pte Ltd,AspireBA,Key,SG AM-Rachel,2026-Q1,2026-Q2,9391.959113719557,9228.814510207198,0.9826293320129512,-0.04954983560045385,-0.07872632384932805,10428.123850957767,7182.371385905643,0.6887501039073276,0.9880985404546059,-0.2993484365472783,Risk,Declining
83894,SGYUTW,YUKICHI TRADING PTE. LTD.,Aspire FT Pte Ltd,AspireBA,Key,SG AM-Rachel,2026-Q1,2026-Q2,9373.837420503143,9131.869597027957,0.9741868977857524,-0.04954983560045385,-0.07872632384932805,10408.002888018975,7168.513070590835,0.6887501039073276,0.9608132042898557,-0.2720631003825281,Risk,Declining
120222,SGUPWW,UNITE PROPERTIES PTE. LTD.,Aspire FT Pte Ltd,AspireBA,Key,SG AM - Caroline,2026-Q1,2026-Q2,9340.41445623565,9335.188647014533,0.9994405163447936,-0.04954983560045385,-0.07872632384932805,10370.892546435562,7142.953318969222,0.6887501039073276,0.9991092152248112,-0.3103591113174836,Risk,Declining
124255,SGMAA3,Hendra Permana,Aspire FT Pte Ltd,AspireBA,Key,SG AM-Rachel,2026-Q1,2026-Q2,9325.801221439526,4879.6844168210855,0.5232455958425264,-0.04954983560045385,-0.07872632384932805,10354.667111414823,7131.778048912747,0.6887501039073276,0.5593997859997452,0.12935031790758245,Safe,Growing
124255,SGMAA3,Hendra Permana,Aspire FT Pte Ltd,AspireBA,Key,Eureka,2026-Q1,2026-Q2,9325.801221439526,4879.6844168210855,0.5232455958425264,-0.04954983560045385,-0.07872632384932805,10354.667111414821,7131.778048912746,0.6887501039073276,0.5593997859997452,0.12935031790758245,Safe,Growing
74188,SGERAA,ERA AGRO TECHNOLOGY PTE. LTD.,Aspire FT Pte Ltd,AspireBA,Key,SG AM-Rachel,2026-Q1,2026-Q2,9308.044807517434,2739.1975202585404,0.29428280341391233,-0.04954983560045385,-0.07872632384932805,10334.951727085907,7118.199075907633,0.6887501039073276,0.309215242802719,0.3795348611046086,Safe,Growing
65171,SGLETF,SD LEGOS TECHNOLOGIES PTE LTD,Aspire FT Pte Ltd,AspireBA,Key,SG AM - Caroline,2026-Q1,2026-Q2,9290.576963905794,6805.60819148316,0.7325280462045768,-0.04954983560045385,-0.07872632384932805,10315.556749490097,7104.8407830732385,0.6887501039073276,0.7431795261896452,-0.05442942228231762,Risk,Growing
91438,SGECME,ECOMMERCE ENABLERS PTE. LTD. (SGD),Aspire FT Pte Ltd,AspireOS,Key,SG AM-Rachel,2026-Q1,2026-Q2,9258.416211446875,3729.706657924069,0.402844997755961,-0.04954983560045385,-0.07872632384932805,10279.847872809438,7080.246290549021,0.6887501039073276,0.508566535547916,0.18018356835941163,Safe,Growing
90181,SGWULN,WULOOK INVESTMENT MANAGEMENT PTE. LTD.,Aspire FT Pte Ltd,AspireBA,Key,SG AM-Rachel,2026-Q1,2026-Q2,9142.9793298637,9139.992721755283,0.999673344103638,-0.04954983560045385,-0.07872632384932805,10151.675456006727,6991.967525158101,0.6887501039073276,0.9996271452922759,-0.3108770413849483,Risk,Declining
125477,SGKBLP,OKBL PTE. LTD.,Aspire FT Pte Ltd,AspireBA,Key,SG AM - Caroline,2026-Q1,2026-Q2,9031.46143505298,6802.698386865194,0.7532223257315265,-0.04954983560045385,-0.07872632384932805,10027.85438687691,6906.685750929023,0.6887501039073276,0.7434806951013543,-0.05473059119402668,Risk,Growing
176595,SGDP67,DIGITAL PATHOLOGY PTE LTD,Aspire FT Pte Ltd,AspireBA,Scaled,SG AM - Caroline,2026-Q1,2026-Q2,8992.696879052814,8981.590263791675,0.9987649294299011,-0.04954983560045385,-0.07872632384932805,9984.813144245581,6877.0410905943945,0.6887501039073276,0.9987649294299011,-0.31001482552257353,Risk,Declining
58127,SGWDHP,WOODHOO PTE. LTD.,Aspire FT Pte Ltd,AspireBA,Key,SG AM - Caroline,2026-Q1,2026-Q2,8966.894391965168,8963.16758390821,0.9995843814040793,-0.04954983560045385,-0.07872632384932805,9956.16400642942,6857.308993946658,0.6887501039073276,0.9967201306458321,-0.3079700267385045,Risk,Declining
134985,SGUUDK,HAPPY SUPPLIER PTE. LTD.,Aspire FT Pte Ltd,AspireBA,Key,SG AM-Rachel,2026-Q1,2026-Q2,8933.074463941124,6830.748751955935,0.7646582125256709,-0.04954983560045385,-0.07872632384932805,9918.612906196242,6831.445669759222,0.6887501039073276,0.7218593406644673,-0.033109236757139726,Risk,Growing
56632,SGPRPH,PRIVYR PTE. LTD.,Aspire FT Pte Ltd,AspireBA,Key,SG AM-Rachel,2026-Q1,2026-Q2,8897.581824987152,3078.1278855050678,0.3459510624404415,-0.04954983560045385,-0.07872632384932805,9879.204553761158,6804.303162924742,0.6887501039073276,0.44353247519349176,0.24521762871383584,Safe,Growing
76663,SGMEPR,MEDIQ PTE. LTD.,Aspire FT Pte Ltd,AspireBA,Key,SG AM-Rachel,2026-Q1,2026-Q2,8769.005108333335,8570.176843995456,0.9773260179596738,-0.04954983560045385,-0.07872632384932805,9736.442653993423,6705.975889625706,0.6887501039073276,0.9803225261955459,-0.29157242228821834,Risk,Declining
123806,SGKPTZ,SHOPUP PTE. LTD.,Aspire FT Pte Ltd,AspireBA,Key,SG AM - Caroline,2026-Q1,2026-Q2,8760.089012637185,4374.16015292283,0.49932827698585325,-0.04954983560045385,-0.07872632384932805,9726.542893031874,6699.157428234782,0.6887501039073276,0.5097224020078384,0.17902770189948924,Safe,Growing
116072,SGFYDR,INTREPID DIGITAL COMMERCE PTE. LTD.,Aspire FT Pte Ltd,AspireOS,Key,SG AM-Rachel,2026-Q1,2026-Q2,8662.638221886391,3126.673272006618,0.36093776421448526,-0.04954983560045385,-0.07872632384932805,9618.340876496415,6624.633278103002,0.6887501039073276,0.3769919734022708,0.3117581305050568,Safe,Growing
159924,SGFLJY,One Funnel Limited,AFT HK Limited,AspireBA,Key,SG AM-Rachel,2026-Q1,2026-Q2,8539.089074084895,4855.7901385697705,0.5686543490108924,-0.04954983560045385,-0.07872632384932805,9481.161210427359,6530.150768843968,0.6887501039073276,0.5686543490108924,0.1200957548964352,Safe,Growing
98527,SGWALH,WALKER HOLDINGS PTE. LTD.,Aspire FT Pte Ltd,AspireBA,Key,SG AM-Rachel,2026-Q1,2026-Q2,8496.974485083996,5807.309003726922,0.6834560953338574,-0.04954983560045385,-0.07872632384932805,9434.400343528778,6497.944216908773,0.6887501039073276,0.7216607236399282,-0.032910619732600566,Risk,Growing
110521,SGTTKK,TRY-V Technologies Pte. Ltd.,Aspire FT Pte Ltd,AspireBA,Key,SG AM-Rachel,2026-Q1,2026-Q2,8384.956461666667,8347.716049675018,0.9955586636422146,-0.04954983560045385,-0.07872632384932805,9310.023969271673,6412.2799762155755,0.6887501039073276,0.9912186261045416,-0.302468522197214,Risk,Declining
125793,SGNSG8,NINE SMART PTE. LTD.,Aspire FT Pte Ltd,AspireBA,Key,SG AM-Rachel,2026-Q1,2026-Q2,8351.29843581263,8309.864313867052,0.9950386012110527,-0.04954983560045385,-0.07872632384932805,9272.652633011074,6386.540464482932,0.6887501039073276,0.9846402564331946,-0.29589015252586703,Risk,Declining
124956,SGKH5E,KAYNES HOLDING PTE. LTD.,Aspire FT Pte Ltd,AspireBA,Scaled,SG AM - Caroline,2026-Q1,2026-Q2,8328.926148224013,8284.613804984196,0.9946797051082911,-0.04954983560045385,-0.07872632384932805,9247.812130302476,6369.431565661275,0.6887501039073276,0.9042797101509202,-0.21552960624359263,Risk,Declining
92525,SGVBPX,VIBEFAM PTE. LTD.,Aspire FT Pte Ltd,AspireBA,Key,SG AM-Rachel,2026-Q1,2026-Q2,8312.772835559297,7501.9072900882675,0.9024554668446593,-0.04954983560045385,-0.07872632384932805,9229.87670883915,6357.078542264788,0.6887501039073276,0.797822376990778,-0.10907227308345036,Risk,Declining
72736,SGKNEN,KINETIC INNOVATION PTE. LTD.,Aspire FT Pte Ltd,AspireBA,Key,SG AM-Rachel,2026-Q1,2026-Q2,8235.706966218844,6878.613123567245,0.8352182941648949,-0.04954983560045385,-0.07872632384932805,9144.308573327358,6298.143480039885,0.6887501039073276,0.845730705578439,-0.15698060167111139,Risk,Declining
104921,SGTTMS,TTMFS SINGAPORE PTE LTD,Aspire FT Pte Ltd,AspireOS,Key,SG AM-Rachel,2026-Q1,2026-Q2,8234.2635637,2914.184189091681,0.3539095107349486,-0.04954983560045385,-0.07872632384932805,9142.705927910036,6297.039657842177,0.6887501039073276,0.4977980129322858,0.1909520909750418,Safe,Growing
147173,SGSGG4,Stadioo Global Limited,AFT HK Limited,AspireBA,Key,SG AM - Caroline,2026-Q1,2026-Q2,8118.837245107207,8071.613243862733,0.9941834033841566,-0.04954983560045385,-0.07872632384932805,9014.545239456073,6208.768970352676,0.6887501039073276,0.9880738387868545,-0.2993237348795269,Risk,Declining
121003,SGCTYN,LION CITY INNOVATIONS PTE. LTD.,Aspire FT Pte Ltd,AspireBA,Key,SG AM - Caroline,2026-Q1,2026-Q2,8024.979683119338,7846.546288432021,0.9777652527815548,-0.04954983560045385,-0.07872632384932805,8910.332873440904,6136.9926924312995,0.6887501039073276,0.9664582141473907,-0.27770811024006314,Risk,Declining
115951,SGSKPL,SKINSEOUL PTE. LTD.,Aspire FT Pte Ltd,AspireBA,Key,SG AM-Rachel,2026-Q1,2026-Q2,8013.609907862972,3667.4579100650603,0.45765366073865693,-0.04954983560045385,-0.07872632384932805,8897.708731545128,6128.297813388843,0.6887501039073276,0.5739278270769986,0.11482227683032897,Safe,Growing
146268,SGGDL7,Goodsol HK Limited,AFT HK Limited,AspireBA,Key,SG AM - Caroline,2026-Q1,2026-Q2,7861.238533284005,1989.8083917415374,0.25311639932013386,-0.04954983560045385,-0.07872632384932805,8728.527036202238,6011.77390314221,0.6887501039073276,0.35988712797193556,0.32886297593539204,Safe,Growing
104000,SGRPBE,RADIAROSE PTE. LTD.,Aspire FT Pte Ltd,AspireBA,Key,SG AM-Rachel,2026-Q1,2026-Q2,7840.629972922936,6377.863068451797,0.8134375796941442,-0.04954983560045385,-0.07872632384932805,8705.64484333566,5996.013790427726,0.6887501039073276,0.834686117274145,-0.14593601336681739,Risk,Declining
108170,SGYNCA,YING CONSERVATION RESEARCH PTE. LTD.,Aspire FT Pte Ltd,AspireBA,Key,SG AM - Caroline,2026-Q1,2026-Q2,7815.9957668912275,7787.999577529023,0.9964180905162721,-0.04954983560045385,-0.07872632384932805,8678.29287679085,5977.17512062792,0.6887501039073276,0.9971373284931765,-0.3083872245858489,Risk,Declining
74054,SGPL5G,Primal Co Ltd,Aspire FT Pte Ltd,AspireBA,Key,SG AM-Rachel,2026-Q1,2026-Q2,7810.623300606118,4517.937646590207,0.5784349689786739,-0.04954983560045385,-0.07872632384932805,8672.327694965863,5973.066601026133,0.6887501039073276,0.6147921622394646,0.07395794166786296,Safe,Growing
121299,SGHGFS,HIGH FIVE SOLUTIONS PTE. LTD.,Aspire FT Pte Ltd,AspireBA,Key,SG AM-Rachel,2026-Q1,2026-Q2,7633.041743715865,6366.6100067482585,0.8340855743373558,-0.04954983560045385,-0.07872632384932805,8475.154512408846,5837.26355105225,0.6887501039073276,0.8314087436394462,-0.14265863973211856,Risk,Declining
87141,SGTCZF,THE CARE SVC PTE. LTD.,Aspire FT Pte Ltd,AspireBA,Key,SG AM - Caroline,2026-Q1,2026-Q2,7628.0613638180175,7529.924981527707,0.9871348200270388,-0.04954983560045385,-0.07872632384932805,8469.624673770204,5833.454874115294,0.6887501039073276,0.9882811984303129,-0.2995310945229853,Risk,Declining
62907,SGAMEN,AMENLI INSURANCE PTE. LTD.,Aspire FT Pte Ltd,AspireBA,Key,SG AM - Caroline,2026-Q1,2026-Q2,7566.746430526669,5142.91732145148,0.6796735385109921,-0.04954983560045385,-0.07872632384932805,8401.54519104105,5786.565123311632,0.6887501039073276,0.8054249420297108,-0.11667483812238322,Risk,Growing
54182,SGFEXR,PROPERTY SCOUT HOLDING PTE. LTD.,Aspire FT Pte Ltd,AspireOS,Key,SG AM-Rachel,2026-Q1,2026-Q2,7480.6640208350445,6778.323335231743,0.9061125210747132,-0.04954983560045385,-0.07872632384932805,8305.965768389835,5720.734786029205,0.6887501039073276,0.9010899643697412,-0.2123398604624136,Risk,Declining
80725,SGSPSV,SPROUT SOLUTIONS PHIL INC,Aspire FT Pte Ltd,AspireBA,Key,SG AM-Rachel,2026-Q1,2026-Q2,7459.21024553969,4892.360676350467,0.6558818581733774,-0.04954983560045385,-0.07872632384932805,8282.145112535001,5704.328306834048,0.6887501039073276,0.6946528807837454,-0.005902776876417826,Risk,Growing
146925,SGLT93,LUSTRON TECHNOLOGY PTE. LTD.,Aspire FT Pte Ltd,AspireBA,Key,SG AM-Rachel,2026-Q1,2026-Q2,7405.511353200445,7394.511353200445,0.9985146197912118,-0.04954983560045385,-0.07872632384932805,8222.521907920014,5663.262818460187,0.6887501039073276,0.9975429021612267,-0.30879279825389905,Risk,Declining
144644,SGMGHM,MADINA GLOBAL SOLUTION PTE. LTD.,Aspire FT Pte Ltd,AspireBA,Key,SG AM-Rachel,2026-Q1,2026-Q2,7383.642424770624,4234.745416098713,0.5735306739519238,-0.04954983560045385,-0.07872632384932805,8198.240297300483,5646.538856622948,0.6887501039073276,0.617245698725455,0.07150440518187262,Safe,Growing
79689,SGPSGR,PURPLE STONE CONSULTING PTE. LTD.,Aspire FT Pte Ltd,AspireBA,Key,SG AM-Rachel,2026-Q1,2026-Q2,7353.036902466666,6974.500452219782,0.9485197129746623,-0.04954983560045385,-0.07872632384932805,8164.2582310196885,5623.133704941065,0.6887501039073276,0.9865489942880608,-0.29779889038073315,Risk,Declining
55758,SGMMUS,IMMUNI SOFTWARE PTE. LTD.,Aspire FT Pte Ltd,AspireOS,Key,SG AM-Rachel,2026-Q1,2026-Q2,7337.1654540362515,4621.844241765176,0.6299223141032824,-0.04954983560045385,-0.07872632384932805,8146.635770367717,5610.996233335917,0.6887501039073276,0.6395572140746164,0.049192889832711195,Safe,Growing
92699,SGWATH,WAFFO TECHNOLOGIES PTE. LTD.,Aspire FT Pte Ltd,AspireBA,Key,SG AM-Rachel,2026-Q1,2026-Q2,7308.99408001459,6095.542638604095,0.8339783247699563,-0.04954983560045385,-0.07872632384932805,8115.356398961552,5589.452563029765,0.6887501039073276,0.8774181910053194,-0.18866808709799177,Risk,Declining
124505,SGBWXZ,Benjamin Warwick Limited,AFT HK Limited,AspireBA,Key,SG AM - Caroline,2026-Q1,2026-Q2,7245.286904069053,6709.15449000586,0.9260025971142573,-0.04954983560045385,-0.07872632384932805,8044.620750210231,5540.73337760234,0.6887501039073276,0.919351444473321,-0.23060134056599335,Risk,Declining
70699,SGNTCD,INTELLECT COMPANY PTE. LTD.,Aspire FT Pte Ltd,AspireOS,Key,SG AM-Rachel,2026-Q1,2026-Q2,7230.673738953897,3543.657239069733,0.4900867287067518,-0.04954983560045385,-0.07872632384932805,8028.39539255799,5529.558160833426,0.6887501039073276,0.5185469965673938,0.17020310733993382,Safe,Growing
72147,SGCP9H,CARGOAI PTE. LTD.,Aspire FT Pte Ltd,AspireBA,Key,SG AM-Rachel,2026-Q1,2026-Q2,7225.513499038836,4848.766420220737,0.6710618450668921,-0.04954983560045385,-0.07872632384932805,8022.6658509061,5525.611938425345,0.6887501039073276,0.650280222310129,0.03846988159719855,Safe,Growing
133261,SGJVHF,CAVAS C A PTE LTD,Aspire FT Pte Ltd,AspireBA,Key,SG AM - Caroline,2026-Q1,2026-Q2,7216.568011666666,7194.568011666666,0.9969514594798478,-0.04954983560045385,-0.07872632384932805,8012.733455641738,5518.771000154968,0.6887501039073276,0.9890300498445269,-0.3002799459371993,Risk,Declining
99918,SGJTY5,DIGITAL ASSET NETWORK SECURITY PTE LTD,Aspire FT Pte Ltd,AspireBA,Key,SG AM-Rachel,2026-Q1,2026-Q2,7209.457692468635,7153.653386004057,0.9922595694648608,-0.04954983560045385,-0.07872632384932805,8004.83869286444,5513.33348147178,0.6887501039073276,0.9943963868251747,-0.3056462829178471,Risk,Declining
108958,SGMBBP,MOBBIN PTE. LTD.,Aspire FT Pte Ltd,AspireOS,Key,SG AM-Rachel,2026-Q1,2026-Q2,7195.875287523555,3257.8009263215467,0.4527317103410657,-0.04954983560045385,-0.07872632384932805,7989.757813652109,5502.946524347272,0.6887501039073276,0.5029320277568743,0.18581807615045332,Safe,Growing
138436,SGYNQE,YAQITE INTERNATIONAL PTE. LTD.,Aspire FT Pte Ltd,AspireBA,Key,SG AM-Rachel,2026-Q1,2026-Q2,7147.353093486818,6861.853093486818,0.9600551426149397,-0.04954983560045385,-0.07872632384932805,7935.882424842531,5465.839844706628,0.6887501039073276,0.9709982425304863,-0.2822481386231587,Risk,Declining
96850,SGGP5G,GOROCKY PTE. LTD.,Aspire FT Pte Ltd,AspireBA,Key,SG AM-Rachel,2026-Q1,2026-Q2,7139.68057778335,4800.232079253625,0.6723314897574799,-0.04954983560045385,-0.07872632384932805,7927.363441419007,5459.972393988492,0.6887501039073276,0.6728600859990145,0.015890017908313125,Safe,Growing
122962,SGEP8R,ERANOVA PTE. LTD.,Aspire FT Pte Ltd,AspireBA,Key,SG AM - Caroline,2026-Q1,2026-Q2,7125.100668964751,7098.702393620732,0.9962950312465053,-0.04954983560045385,-0.07872632384932805,7911.175009053079,5448.822609514361,0.6887501039073276,0.9906626461777163,-0.30191254227038866,Risk,Declining
69527,SGTAPG,TABLEVIBE PTE. LTD.,Aspire FT Pte Ltd,AspireOS,Key,SG AM-Rachel,2026-Q1,2026-Q2,7114.603830133993,5163.616678371755,0.7257771200837906,-0.04954983560045385,-0.07872632384932805,7899.520110001104,5440.795296581284,0.6887501039073276,0.7244472022638795,-0.03569709835655188,Risk,Growing
80746,SGDGP4,DIGITIBLE PTE. LTD.,Aspire FT Pte Ltd,AspireBA,Key,SG AM-Rachel,2026-Q1,2026-Q2,7103.041653384583,6491.897257943198,0.9139601842050052,-0.04954983560045385,-0.07872632384932805,7886.682339982131,5431.953281146779,0.6887501039073276,0.9795906575447558,-0.2908405536374282,Risk,Declining
83147,SGGEKD,META 1 NETWORK PTE. LTD.,Aspire FT Pte Ltd,AspireBA,Key,SG AM - Caroline,2026-Q1,2026-Q2,7089.331438451891,5254.463748144448,0.7411790228405337,-0.04954983560045385,-0.07872632384932805,7871.459550188198,5421.468583094447,0.6887501039073276,0.737207477129124,-0.04845737322179644,Risk,Growing
122858,SGNUPR,NUTRIMOTION PTE. LTD.,Aspire FT Pte Ltd,AspireBA,Key,SG AM - Caroline,2026-Q1,2026-Q2,7082.964065,6871.144996330122,0.9700945724521506,-0.04954983560045385,-0.07872632384932805,7864.389698397146,5416.599221938752,0.6887501039073276,0.9755585877659062,-0.2868084838585786,Risk,Declining
107154,SGAPMP,APPLABS MEDIA PTE. LTD.,Aspire FT Pte Ltd,AspireBA,Key,SG AM-Rachel,2026-Q1,2026-Q2,7062.2118698815775,6863.15575699383,0.9718139137489392,-0.04954983560045385,-0.07872632384932805,7841.348024316813,5400.729266521723,0.6887501039073276,0.9316959896453291,-0.24294588573800147,Risk,Declining
104726,SGBLTH,BLUE TECHNOLOGY COMPANY LIMITED,Aspire FT Pte Ltd,AspireBA,Scaled,SG AM-Rachel,2026-Q1,2026-Q2,7061.3780227,1381.1279516874051,0.1955890121230636,-0.04954983560045385,-0.07872632384932805,7840.42218322477,5400.091593373377,0.6887501039073276,0.19906424237668102,0.4896858615306466,Safe,Growing
93539,SGNTAL,INITIA LABS PTE. LTD.,Aspire FT Pte Ltd,AspireBA,Key,SG AM - Caroline,2026-Q1,2026-Q2,7055.087911826743,2772.4100393723847,0.3929660514541394,-0.04954983560045385,-0.07872632384932805,7833.4381179804095,5395.281317710628,0.6887501039073276,0.4232796833003943,0.2654704206069333,Safe,Growing
102761,SGAYK4,SHARDLAB PTE. LTD.,Aspire FT Pte Ltd,AspireBA,Key,SG AM - Caroline,2026-Q1,2026-Q2,7022.859423948869,5034.941789078727,0.7169361488155263,-0.04954983560045385,-0.07872632384932805,7797.654032993432,5370.635025457619,0.6887501039073276,0.7374104455121236,-0.04866034160479604,Risk,Growing
133106,SGGCAC,GRAND CORNERSTONE PTE. LTD.,Aspire FT Pte Ltd,AspireBA,Key,SG AM-Rachel,2026-Q1,2026-Q2,6965.351034957908,6739.104553295122,0.9675182944079496,-0.04954983560045385,-0.07872632384932805,7733.801050287113,5326.656276983848,0.6887501039073276,0.9825771895819682,-0.29382708567464055,Risk,Declining
77290,SGGLDA,GOLDIE AGENCY PTE. LTD.,Aspire FT Pte Ltd,AspireBA,Key,SG AM-Rachel,2026-Q1,2026-Q2,6940.419142676957,2472.9504052477964,0.3563113919217804,-0.04954983560045385,-0.07872632384932805,7706.118555357519,5307.589955724677,0.6887501039073276,0.4896309691242224,0.19911913478310522,Safe,Growing
86540,SGEMBA,Embassy Alliance Travel Pte Ltd,Aspire FT Pte Ltd,AspireBA,Key,SG AM - Caroline,2026-Q1,2026-Q2,6939.315303044003,5246.886023433454,0.7561100475045216,-0.04954983560045385,-0.07872632384932805,7704.892934987511,5306.745809567482,0.6887501039073276,0.6873447916784707,0.0014053122288568698,Safe,Growing
113081,SGLPRM,YOBO LABS PTE. LTD.,Aspire FT Pte Ltd,AspireBA,Key,SG AM - Caroline,2026-Q1,2026-Q2,6935.525489185841,6525.633359902259,0.9408996290298834,-0.04954983560045385,-0.07872632384932805,7700.685011187326,5303.847601612872,0.6887501039073276,0.9346801694801409,-0.24593006557281327,Risk,Declining
146485,SGSYPB,SYNGENTIX PTE. LTD.,Aspire FT Pte Ltd,AspireBA,Key,SG AM-Rachel,2026-Q1,2026-Q2,6806.075337489622,6682.950902502295,0.9819096279600189,-0.04954983560045385,-0.07872632384932805,7556.9533149492645,5204.85238089413,0.6887501039073276,0.9836794243925561,-0.29492932048522846,Risk,Declining
147638,SGBMM2,BEFITTING MOTION PTE. LTD.,Aspire FT Pte Ltd,AspireBA,Key,SG AM-Rachel,2026-Q1,2026-Q2,6755.3829166666665,6744.3829166666665,0.9983716689141542,-0.04954983560045385,-0.07872632384932805,7500.6682698116165,5166.086050207146,0.6887501039073276,0.9960864841348512,-0.30733638022752363,Risk,Declining
107103,SGQUFM,QUANTUM FRONTIER PTE LTD,Aspire FT Pte Ltd,AspireBA,Key,SG AM - Caroline,2026-Q1,2026-Q2,6746.206077699584,6732.160409981711,0.9979179901182825,-0.04954983560045385,-0.07872632384932805,7490.478999165277,5159.06818899074,0.6887501039073276,0.9976985470418922,-0.3089484431345646,Risk,Declining
84886,SGPATN,PATEN INTERNATIONAL PTE. LTD.,Aspire FT Pte Ltd,AspireBA,Key,SG AM - Caroline,2026-Q1,2026-Q2,6738.694558859553,5849.6581812895665,0.8680699399854613,-0.04954983560045385,-0.07872632384932805,7482.138774530118,5153.323858406664,0.6887501039073276,0.817628609308525,-0.12887850540119739,Risk,Declining
87493,SGGTZ7,GETGO TECHNOLOGIES PTE. LTD.,Aspire FT Pte Ltd,AspireOS,Key,SG AM-Rachel,2026-Q1,2026-Q2,6734.197223804881,1415.6621972048629,0.21021988964038704,-0.04954983560045385,-0.07872632384932805,7477.145272494868,5149.884583361023,0.6887501039073276,0.3139785249887875,0.3747715789185401,Safe,Growing
95083,SGGP5E,GLINTS PTE. LTD.,Aspire FT Pte Ltd,AspireOS,Key,SG AM-Rachel,2026-Q1,2026-Q2,6705.6793971596035,3377.140679176084,0.5036239401195614,-0.04954983560045385,-0.07872632384932805,7445.481226195657,5128.075968182316,0.6887501039073276,0.39345981221393983,0.2952902916933878,Safe,Growing
137290,SGDRDU,SPRING STAR FINANCIAL CONSULTING PTE. LTD.,Aspire FT Pte Ltd,AspireBA,Key,SG AM-Rachel,2026-Q1,2026-Q2,6681.192740538351,6675.3893925968705,0.9991313904317909,-0.04954983560045385,-0.07872632384932805,7418.293087400496,5109.350134762101,0.6887501039073276,0.999074200564403,-0.3103240966570754,Risk,Declining
105103,SGTML4,TIME LOGISTICS & TECHNOLOGY PTE. LTD.,Aspire FT Pte Ltd,AspireBA,Key,SG AM - Caroline,2026-Q1,2026-Q2,6663.949751313594,6559.634452168615,0.9843463256720362,-0.04954983560045385,-0.07872632384932805,7399.147771176339,5096.163796223375,0.6887501039073276,0.989931316314426,-0.3011812124070984,Risk,Declining
137265,SGS2GT,OMNISHELF PTE. LTD.,Aspire FT Pte Ltd,AspireBA,Key,SG AM - Caroline,2026-Q1,2026-Q2,6618.121986607709,4022.429998914498,0.6077902473019086,-0.04954983560045385,-0.07872632384932805,7348.264073709277,5061.117644305747,0.6887501039073276,0.6968046677697105,-0.008054563862382902,Risk,Growing
77244,SGPPYK,PROPFUNNELS PTE. LIMITED,Aspire FT Pte Ltd,AspireBA,Scaled,SG AM-Rachel,2026-Q1,2026-Q2,6618.001998298937,655.2251936900761,0.0990064968034903,-0.04954983560045385,-0.07872632384932805,7348.130847730609,5061.025884899096,0.6887501039073276,0.04563576583056975,0.6431143380767579,Safe,Growing
50195,SGDEPK,Deliveree Private Limited,Aspire FT Pte Ltd,AspireBA,Key,SG AM-Rachel,2026-Q1,2026-Q2,6617.568287233302,4136.790322363306,0.6251224230423214,-0.04954983560045385,-0.07872632384932805,7347.649287637214,5060.694210334733,0.6887501039073276,0.6246869815601926,0.06406312234713496,Safe,Growing
91832,SGFRPA,FIRST PAGE DIGITAL PTE. LTD.,Aspire FT Pte Ltd,AspireOS,Key,SG AM-Rachel,2026-Q1,2026-Q2,6617.420311998843,-276.2059051848904,-0.04173921137880091,-0.04954983560045385,-0.07872632384932805,7347.484987084675,5060.5810483120995,0.6887501039073276,-0.0025993102224631157,0.6913494141297907,Safe,Growing
115420,SG7BGM,PT INTREPID DIGITAL INDONESIA,Aspire FT Pte Ltd,AspireOS,Key,SG AM-Rachel,2026-Q1,2026-Q2,6608.243481842954,9.02234239368228,0.0013653162778387918,-0.04954983560045385,-0.07872632384932805,7337.295726221621,5053.563193833933,0.6887501039073276,0.016394727475794808,0.6723553764315328,Safe,Growing
63053,SGTNAP,Tinai Private Limited,Aspire FT Pte Ltd,AspireBA,Key,SG AM - Caroline,2026-Q1,2026-Q2,6556.270442169134,6324.262534344818,0.9646128222026856,-0.04954983560045385,-0.07872632384932805,7279.588778388167,5013.817527517466,0.6887501039073276,0.9719804877559901,-0.2832303838486625,Risk,Declining
111928,SGTPVY,TPA VENTURES PTE. LTD. (PHP),Aspire FT Pte Ltd,AspireOS,Key,SG AM-Rachel,2026-Q1,2026-Q2,6535.626218972351,3174.284323667379,0.4856893918524149,-0.04954983560045385,-0.07872632384932805,7256.666988195492,4998.030142140519,0.6887501039073276,0.4155526660882305,0.2731974378190971,Safe,Growing
74424,SGMVST,MVS TECHNOLOGY PTE. LTD.,Aspire FT Pte Ltd,AspireBA,Key,SG AM-Rachel,2026-Q1,2026-Q2,6534.216543731396,6344.574929755444,0.9709771458128542,-0.04954983560045385,-0.07872632384932805,7255.101791006672,4996.952112414084,0.6887501039073276,0.9440835183332844,-0.2553334144259568,Risk,Declining
78894,SGDAGC,Dagaz Company Limited,Aspire FT Pte Ltd,AspireBA,Key,SG AM - Caroline,2026-Q1,2026-Q2,6530.757836666667,6228.757836666667,0.9537572809231367,-0.04954983560045385,-0.07872632384932805,7251.261503245783,4994.307113819737,0.6887501039073276,0.9342968945654729,-0.24554679065814533,Risk,Declining
103959,SGSQPY,SQUAREX PTE. LTD.,Aspire FT Pte Ltd,AspireOS,Key,SG AM-Rachel,2026-Q1,2026-Q2,6490.152853383435,4456.995163014647,0.6867319250718623,-0.04954983560045385,-0.07872632384932805,7206.176788809042,4963.2550120668,0.6887501039073276,0.7063076358103949,-0.017557531903067303,Risk,Growing
70664,SGHRCH,HRC SG HOLDINGS PTE. LTD.,Aspire FT Pte Ltd,AspireBA,Key,SG AM - Caroline,2026-Q1,2026-Q2,6489.886417998847,3760.8534259472362,0.5794944909231391,-0.04954983560045385,-0.07872632384932805,7205.880959030064,4963.0512592757905,0.6887501039073276,0.6439156972262353,0.04483440668109229,Safe,Growing
122552,SGCPS7,CYBROG PTE. LTD.,Aspire FT Pte Ltd,AspireBA,Key,SG AM - Caroline,2026-Q1,2026-Q2,6488.152582177831,2573.5556364838735,0.39665461067502,-0.04954983560045385,-0.07872632384932805,7203.955838353979,4961.725332210102,0.6887501039073276,0.645872651278741,0.042877452628586554,Safe,Growing
89596,SGSACE,Sasi Capital Limited,AFT HK Limited,AspireBA,Key,SG AM - Caroline,2026-Q1,2026-Q2,6478.944277507878,6470.444277507878,0.9986880578631447,-0.04954983560045385,-0.07872632384932805,7193.73163056166,4954.683408030773,0.6887501039073276,0.9970956355578451,-0.3083455316505175,Risk,Declining
102400,SGCLBN,COVE LIVING PTE. LTD.,Aspire FT Pte Ltd,AspireOS,Key,SG AM-Rachel,2026-Q1,2026-Q2,6469.518786037328,3919.92684632738,0.6059070196669745,-0.04954983560045385,-0.07872632384932805,7183.26627490786,4947.47539323679,0.6887501039073276,0.6479107264076414,0.04083937749968625,Safe,Growing
99490,SGBRLG,X HOLDINGS LABO PTE. LTD.,Aspire FT Pte Ltd,AspireBA,Key,SG AM-Rachel,2026-Q1,2026-Q2,6418.971066666667,6413.471066666667,0.9991431648557256,-0.04954983560045385,-0.07872632384932805,7127.1418953616685,4908.819720992617,0.6887501039073276,0.9996320305095503,-0.3108819266022227,Risk,Declining
122276,SGGPDD,GRAAS PTE. LTD.,Aspire FT Pte Ltd,AspireOS,Key,SG AM-Rachel,2026-Q1,2026-Q2,6384.681564841885,3431.4980141313085,0.5374579733196589,-0.04954983560045385,-0.07872632384932805,7089.0694157557755,4882.597296708049,0.6887501039073276,0.5996925776021951,0.08905752630513253,Safe,Growing
105159,SGRPKP,RENTLY PTE. LTD.,Aspire FT Pte Ltd,AspireBA,Key,SG AM - Caroline,2026-Q1,2026-Q2,6380.326609707461,3264.293071045086,0.5116184908275023,-0.04954983560045385,-0.07872632384932805,7084.234001657686,4879.266904745555,0.6887501039073276,0.633101020868328,0.055649083038999625,Safe,Growing
110383,SGPSEC,POSEIDON CONSULTANCY LIMITED,AFT HK Limited,AspireBA,Key,SG AM-Rachel,2026-Q1,2026-Q2,6372.291358582033,3244.2055866271203,0.5091113077021988,-0.04954983560045385,-0.07872632384932805,7075.312264148513,4873.122057109078,0.6887501039073276,0.45722230971812006,0.23152779418920755,Safe,Growing
71355,SGUANN,UANGCERMAT INTERNATIONAL PTE. LTD.,Aspire FT Pte Ltd,AspireOS,Key,SG AM-Rachel,2026-Q1,2026-Q2,6258.898082156088,5886.394034128325,0.9404840847161644,-0.04954983560045385,-0.07872632384932805,6949.408912556159,4786.406110617563,0.6887501039073276,0.9181300365770944,-0.22937993266976675,Risk,Declining
93695,SGSGLK,SERVI GROUP PTE. LTD.,Aspire FT Pte Ltd,AspireBA,Key,SG AM-Rachel,2026-Q1,2026-Q2,6253.2977114784935,4366.5741973662825,0.6982834336115232,-0.04954983560045385,-0.07872632384932805,6943.190682863068,4782.123304270327,0.6887501039073276,0.7034779893823438,-0.014727885475016245,Risk,Growing
77008,SGPXLT,PIXELATION LABS PTE. LTD.,Aspire FT Pte Ltd,AspireBA,Key,SG AM - Caroline,2026-Q1,2026-Q2,6239.057105212629,4256.006479482623,0.6821553974761346,-0.04954983560045385,-0.07872632384932805,6927.378986490131,4771.232996750516,0.6887501039073276,0.6643098495111346,0.024440254396193017,Safe,Growing
116549,SGCSUV,OCEAN STAR GLOBAL PTE. LTD.,Aspire FT Pte Ltd,AspireBA,Key,SG AM-Rachel,2026-Q1,2026-Q2,6197.05321689375,5879.919155743799,0.9488250221435224,-0.04954983560045385,-0.07872632384932805,6880.741033289162,4739.111101637323,0.6887501039073276,0.9191144585837374,-0.2303643546764098,Risk,Declining
52843,SGTNYA,TINY ASSETS PTE. LTD.,Aspire FT Pte Ltd,AspireBA,Key,SG AM - Caroline,2026-Q1,2026-Q2,6188.811636838958,256.95444838095557,0.04151919034850436,-0.04954983560045385,-0.07872632384932805,6871.590203680736,4732.808466793681,0.6887501039073276,0.08609267483415826,0.6026574290731693,Safe,Growing
128220,SGNEV8,NEW VISION MEDICAL SUPPLIES PTE. LTD.,Aspire FT Pte Ltd,AspireBA,Key,SG AM - Caroline,2026-Q1,2026-Q2,6157.311984460064,6113.311984460064,0.9928540245953026,-0.04954983560045385,-0.07872632384932805,6836.615362724562,4708.719541450974,0.6887501039073276,0.9760205804998614,-0.2872704765925338,Risk,Declining
116044,SGQUHN,PO QUAN HOLDINGS PTE. LTD.,Aspire FT Pte Ltd,AspireBA,Key,SG AM - Caroline,2026-Q1,2026-Q2,6132.473797648748,5719.413687320828,0.9326438034702584,-0.04954983560045385,-0.07872632384932805,6809.036911289092,4689.724880159191,0.6887501039073276,0.9109962388151632,-0.22224613490783562,Risk,Declining
101000,SGAVRE,AVIRAL ELECTRONICS PTE. LTD.,Aspire FT Pte Ltd,AspireBA,Key,SG AM-Rachel,2026-Q1,2026-Q2,6126.735044027809,5883.082522013593,0.9602312617955101,-0.04954983560045385,-0.07872632384932805,6802.665031600875,4685.336247361847,0.6887501039073276,0.948860477919081,-0.2601103740117534,Risk,Declining
116075,SGFYDC,INTREPID MALAYSIA SDN. BHD.,Aspire FT Pte Ltd,AspireOS,Key,SG AM-Rachel,2026-Q1,2026-Q2,6112.562256448171,1199.5605079103905,0.1962451190816042,-0.04954983560045385,-0.07872632384932805,6786.928635987964,4674.497803248328,0.6887501039073276,0.21632700285882478,0.4724231010485028,Safe,Growing
91687,SGECEF,ECOMMERCE ENABLERS PTE. LTD. (USD),Aspire FT Pte Ltd,AspireOS,Key,SG AM-Rachel,2026-Q1,2026-Q2,6094.4669918,-118.07518588520566,-0.019374161193107416,-0.04954983560045385,-0.07872632384932805,6766.837017340335,4660.659698817106,0.6887501039073276,0.0244783423158593,0.6642717615914683,Safe,Growing
114625,SGPSPB,POSEIDON PHAROS PTE. LTD.,Aspire FT Pte Ltd,AspireBA,Key,SG AM - Caroline,2026-Q1,2026-Q2,6088.04693046494,5690.331112013605,0.9346726753269359,-0.04954983560045385,-0.07872632384932805,6759.708664893083,4655.750045328374,0.6887501039073276,0.9427675106284739,-0.25401740672114625,Risk,Declining
84486,SGTT7X,TANGE TECHNOLOGY (SINGAPORE) PTE. LTD.,Aspire FT Pte Ltd,AspireBA,Key,SG AM - Caroline,2026-Q1,2026-Q2,6079.347809957865,6079.241899628427,0.9999825786691683,-0.04954983560045385,-0.07872632384932805,6750.049816835529,4649.097512725109,0.6887501039073276,0.9995248728678814,-0.3107747689605538,Risk,Declining
145961,SGGSTQ,GRAPESEED SERVICES PTE. LTD.,Aspire FT Pte Ltd,AspireBA,Key,SG AM-Rachel,2026-Q1,2026-Q2,6020.979710591101,4412.551167339842,0.7328626534944171,-0.04954983560045385,-0.07872632384932805,6685.24227649472,4604.461312581398,0.6887501039073276,0.7379414476626769,-0.04919134375534928,Risk,Growing
116971,SGMPN4,MANGOSTAR PTE. LTD.,Aspire FT Pte Ltd,AspireBA,Key,SG AM - Caroline,2026-Q1,2026-Q2,6016.0890823249065,5933.932629863177,0.9863438770042314,-0.04954983560045385,-0.07872632384932805,6679.812091306372,4600.721271968687,0.6887501039073276,0.9748905129844997,-0.2861404090771721,Risk,Declining
85545,SGNCRG,INCRED GLOBAL WEALTH PTE. LTD.,Aspire FT Pte Ltd,AspireBA,Key,SG AM - Caroline,2026-Q1,2026-Q2,6007.437927184435,4851.75323688053,0.8076243642777761,-0.04954983560045385,-0.07872632384932805,6670.206500378394,4594.105420218951,0.6887501039073276,0.7414675098219198,-0.052717405914592175,Risk,Declining
83461,SGTEEJ,TEECOM JOINT STOCK COMPANY,Aspire FT Pte Ltd,AspireBA,Key,SG AM-Rachel,2026-Q1,2026-Q2,5989.296417099999,1640.011842430869,0.27382378967727866,-0.04954983560045385,-0.07872632384932805,6650.063534282265,4580.23195022724,0.6887501039073276,0.2294804572940566,0.45926964661327097,Safe,Growing
133410,SGNNTX,Nonce Technology Pte. Ltd.,Aspire FT Pte Ltd,AspireBA,Key,SG AM-Rachel,2026-Q1,2026-Q2,5967.6086938887875,5966.862796827163,0.9998750090530587,-0.04954983560045385,-0.07872632384932805,6625.9831202862715,4563.646562585368,0.6887501039073276,0.9993672145236998,-0.3106171106163722,Risk,Declining
70402,SGGLPQ,RAON WORLD SOLUTION PTE. LTD,Aspire FT Pte Ltd,AspireBA,Key,SG AM-Rachel,2026-Q1,2026-Q2,5959.755830524537,3573.7943326309196,0.5996544882471098,-0.04954983560045385,-0.07872632384932805,6617.263892406816,4557.641193477401,0.6887501039073276,0.637287839530664,0.05146226437666357,Safe,Growing
72657,SGANSG,ANSOVA GLOBAL TRAVEL PTE. LTD.,Aspire FT Pte Ltd,AspireBA,Key,SG AM - Caroline,2026-Q1,2026-Q2,5946.87252871007,3206.2685879795085,0.5391520622815463,-0.04954983560045385,-0.07872632384932805,6602.959244643359,4547.788865843962,0.6887501039073276,0.6184385744199167,0.07031152948741093,Safe,Growing
139243,SGQVYK,CKNIGHT PTE LTD,Aspire FT Pte Ltd,AspireBA,Scaled,SG AM - Caroline,2026-Q1,2026-Q2,5903.059276672059,901.5957752820179,0.15273364759269475,-0.04954983560045385,-0.07872632384932805,6554.312310278176,4514.28328474517,0.6887501039073276,0.17953526471242884,0.5092148391948987,Safe,Growing
121341,SGPAV3,PANACEA VENTURES PTE. LTD.,Aspire FT Pte Ltd,AspireBA,Key,SG AM - Caroline,2026-Q1,2026-Q2,5835.619428021966,5830.688368388154,0.9991550066458869,-0.04954983560045385,-0.07872632384932805,6479.432182958872,4462.709589273405,0.6887501039073276,0.9974255581825426,-0.30867545427521503,Risk,Declining
70049,SGTAPB,TANKARD PTE. LTD.,Aspire FT Pte Ltd,AspireBA,Key,SG AM-Rachel,2026-Q1,2026-Q2,5821.86748360166,5770.128282486884,0.9911129545183726,-0.04954983560045385,-0.07872632384932805,6464.163059885609,4452.192979170122,0.6887501039073276,0.9922599486881098,-0.30350984478078225,Risk,Declining
146263,SGTFSU,GALAXY MINES AND MINERALS EXPORTS LIMITED,AFT HK Limited,AspireBA,Key,SG AM - Caroline,2026-Q1,2026-Q2,5798.944240856923,5756.944240856923,0.992757302319949,-0.04954983560045385,-0.07872632384932805,6438.7108180782,4434.662744980595,0.6887501039073276,0.9793899725338029,-0.2906398686264753,Risk,Declining
63024,SGCAG5,CAPX GLOBAL PTE. LTD.,Aspire FT Pte Ltd,AspireBA,Key,SG AM - Caroline,2026-Q1,2026-Q2,5793.989434914005,4141.669558970308,0.7148217312950241,-0.04954983560045385,-0.07872632384932805,6433.209374832485,4430.873625373468,0.6887501039073276,0.7188362020538585,-0.03008609814653085,Risk,Growing
103445,SGCNM8,KG CONNECT LIMITED,AFT HK Limited,AspireBA,Key,SG AM - Caroline,2026-Q1,2026-Q2,5767.122162711124,2188.5061000503097,0.379479754079198,-0.04954983560045385,-0.07872632384932805,6403.377979840595,4410.327248973103,0.6887501039073276,0.4581661752046189,0.23058392870270872,Safe,Growing
79892,SGFCGY,FOCUS GLOBAL INC,Aspire FT Pte Ltd,AspireOS,Key,SG AM-Rachel,2026-Q1,2026-Q2,5738.894557741463,1904.3914087527287,0.33183941429692343,-0.04954983560045385,-0.07872632384932805,6372.036173825967,4388.740576823885,0.6887501039073276,0.3202993830144804,0.3684507208928472,Safe,Growing
86188,SGTSAK,HR TECH SOLUTIONS PTE. LTD.,Aspire FT Pte Ltd,AspireBA,Key,SG AM-Rachel,2026-Q1,2026-Q2,5704.838970508712,5589.670607671834,0.9798121623708849,-0.04954983560045385,-0.07872632384932805,6334.223415360968,4362.697035502094,0.6887501039073276,0.9769115328528786,-0.28816142894555097,Risk,Declining
107790,SGSP3G,SHOPTASTIC PTE LTD,Aspire FT Pte Ltd,AspireBA,Key,SG AM-Rachel,2026-Q1,2026-Q2,5655.604137419224,3567.799586985628,0.6308432309432629,-0.04954983560045385,-0.07872632384932805,6279.556765834309,4325.045374960342,0.6887501039073276,0.7037330675765809,-0.014982963669253335,Risk,Growing
107250,SGQELS,QUANTUM EMPIRE PTE. LTD.,Aspire FT Pte Ltd,AspireBA,Key,SG AM - Caroline,2026-Q1,2026-Q2,5589.781932189484,5441.68930254834,0.9735065461519467,-0.04954983560045385,-0.07872632384932805,6206.472747902819,4274.708750016063,0.6887501039073276,0.9708003951441394,-0.2820502912368118,Risk,Declining
91494,SGJGCC,JGC CONSTRUCTION INTERNATIONAL PTE. LTD.,Aspire FT Pte Ltd,AspireOS,Key,SG AM-Rachel,2026-Q1,2026-Q2,5587.571238720422,3829.797456431587,0.6854136247770913,-0.04954983560045385,-0.07872632384932805,6204.018160418703,4273.018152631329,0.6887501039073276,0.7463184364295339,-0.05756833252220628,Risk,Growing
70215,SGFACT,Factail Technologies Pte. Ltd.,Aspire FT Pte Ltd,AspireBA,Key,SG AM-Rachel,2026-Q1,2026-Q2,5583.9927,5583.9927,1.0,-0.04954983560045385,-0.07872632384932805,6200.044820614923,4270.281514428617,0.6887501039073276,0.9979501234707097,-0.30920001956338206,Risk,Declining
134854,SGQPUW,QUAK PTE. LTD,Aspire FT Pte Ltd,AspireBA,Key,SG AM-Rachel,2026-Q1,2026-Q2,5556.9153554002005,5094.251932172204,0.9167409626316548,-0.04954983560045385,-0.07872632384932805,6169.980177059428,4249.574488055832,0.6887501039073276,0.7153423829190916,-0.026592279011763975,Risk,Declining
105386,SGNTFZ,ONELOT TECHNOLOGIES INCORPORATED PTE. LTD.,Aspire FT Pte Ltd,AspireBA,Key,SG AM - Caroline,2026-Q1,2026-Q2,5551.494066647247,4896.565050999809,0.8820265305546883,-0.04954983560045385,-0.07872632384932805,6163.9607864442105,4245.428632144143,0.6887501039073276,0.9350236429107351,-0.24627353900340754,Risk,Declining
105899,SGPP3P,PROCREDIT PTE. LTD.,Aspire FT Pte Ltd,AspireBA,Key,SG AM - Caroline,2026-Q1,2026-Q2,5546.0684027392035,5491.372213376998,0.990137844434953,-0.04954983560045385,-0.07872632384932805,6157.936537986389,4241.279430392855,0.6887501039073276,0.9804788291459697,-0.29172872523864213,Risk,Declining
138643,SGPWNU,POWER INNOVATION (SINGAPORE) PTE. LTD.,Aspire FT Pte Ltd,AspireBA,Key,SG AM - Caroline,2026-Q1,2026-Q2,5543.966728333334,5065.566600883994,0.9137079728483221,-0.04954983560045385,-0.07872632384932805,6155.602997057024,4239.672203835283,0.6887501039073276,0.9496525730599061,-0.26090246915257853,Risk,Declining
150613,SGRYNL,orynda Limited,AFT HK Limited,AspireBA,Key,SG AM - Caroline,2026-Q1,2026-Q2,5516.163876978812,5163.0750739471505,0.9359901535004708,-0.04954983560045385,-0.07872632384932805,6124.732805457575,4218.410356163523,0.6887501039073276,0.932527088955431,-0.2437769850481034,Risk,Declining
179972,SGTNAD,TINY AWAY ESCAPE TALBINGO PTE LTD,Aspire FT Pte Ltd,AspireBA,Key,SG AM - Caroline,2026-Q1,2026-Q2,5514.210517962017,5512.915610746764,0.9997651690643594,-0.04954983560045385,-0.07872632384932805,6122.563942762806,4216.91655175714,0.6887501039073276,0.9997651690643594,-0.3110150651570318,Risk,Declining
70484,SGCLGS,COLABS GLOBAL PTE. LTD.,Aspire FT Pte Ltd,AspireOS,Key,SG AM-Rachel,2026-Q1,2026-Q2,5503.453571166419,3007.9640622328893,0.5465593601065616,-0.04954983560045385,-0.07872632384932805,6110.6202394220645,4208.690324840166,0.6887501039073276,0.654942909555217,0.03380719435211066,Safe,Growing
74194,SGBEDH,BEAM DATA PTE LTD,Aspire FT Pte Ltd,AspireBA,Key,SG AM - Caroline,2026-Q1,2026-Q2,5494.775956930263,5494.775956930263,1.0,-0.04954983560045385,-0.07872632384932805,6100.985270307549,4202.054238861399,0.6887501039073276,0.9964666243286886,-0.307716520421361,Risk,Declining
77547,SGRUGC,RUGGABLE CORPORATION PTE. LTD.,Aspire FT Pte Ltd,AspireBA,Key,SG AM-Rachel,2026-Q1,2026-Q2,5484.620728333333,5468.120728333333,0.9969915877838623,-0.04954983560045385,-0.07872632384932805,6089.709669523804,4194.288167649977,0.6887501039073276,0.995212573007934,-0.30646246910060637,Risk,Declining
98978,SGTL7P,RENTLY SERVICE PTE. LTD.,Aspire FT Pte Ltd,AspireBA,Key,SG AM - Caroline,2026-Q1,2026-Q2,5470.454923669196,4645.635499221464,0.8492228825652215,-0.04954983560045385,-0.07872632384932805,6073.981027214201,4183.455063624918,0.6887501039073276,0.9224002268195779,-0.2336501229122503,Risk,Declining
60553,SGQAAT,QOALA TECHNOLOGY PTE. LTD.,Aspire FT Pte Ltd,AspireBA,Key,SG AM-Rachel,2026-Q1,2026-Q2,5458.870551097833,3225.8839056797383,0.5909434699877579,-0.04954983560045385,-0.07872632384932805,6061.11861262667,4174.596074241256,0.6887501039073276,0.558732474049324,0.13001762985800358,Safe,Growing
87629,SGFTXV,FUNPOWER TECHNOLOGY PTE. LTD.,Aspire FT Pte Ltd,AspireBA,Key,SG AM-Rachel,2026-Q1,2026-Q2,5443.4703168231645,4747.035980952859,0.8720605982330868,-0.04954983560045385,-0.07872632384932805,6044.019352674035,4162.8189571721405,0.6887501039073276,0.939817046198416,-0.2510669422910884,Risk,Declining
80159,SGGP7R,GEONODE PTE. LTD.,Aspire FT Pte Ltd,AspireBA,Key,SG AM-Rachel,2026-Q1,2026-Q2,5430.667264157983,4659.157532633955,0.8579346341809714,-0.04954983560045385,-0.07872632384932805,6029.803807520328,4153.027998970425,0.6887501039073276,0.8802093319522257,-0.19145922804489812,Risk,Declining
58971,SGACPM,ACHERON PTE. LTD.,Aspire FT Pte Ltd,AspireBA,Key,SG AM - Caroline,2026-Q1,2026-Q2,5413.455869305735,3631.7117574147865,0.6708675280806429,-0.04954983560045385,-0.07872632384932805,6010.693571307225,4139.865821792958,0.6887501039073276,0.6176497110168004,0.07110039289052716,Safe,Growing
128829,SGLNDN,LINDER INTERNATION PTE. LTD.,Aspire FT Pte Ltd,AspireBA,Key,SG AM-Rachel,2026-Q1,2026-Q2,5413.04029,5407.482287778939,0.9989732198684483,-0.04954983560045385,-0.07872632384932805,6010.232143354056,4139.548013242266,0.6887501039073276,0.9986778762898476,-0.30992777238252,Risk,Declining
123885,SGCA87,CLOUD AMBASSADORS TECHNOLOGY PTE. LTD.,Aspire FT Pte Ltd,AspireBA,Key,SG AM-Rachel,2026-Q1,2026-Q2,5411.2896403171735,2889.299782649445,0.5339392223847205,-0.04954983560045385,-0.07872632384932805,6008.288353832498,4138.209228007319,0.6887501039073276,0.5922319178259952,0.09651818608133245,Safe,Growing
94677,SGSPCQ,SYNKRONOUS PTE. LTD.,Aspire FT Pte Ltd,AspireBA,Key,SG AM-Rachel,2026-Q1,2026-Q2,5409.467479610232,4902.386493315337,0.9062604612734577,-0.04954983560045385,-0.07872632384932805,6006.265163857088,4136.815755701531,0.6887501039073276,0.9172208630066335,-0.22847075909930592,Risk,Declining
103207,SGQHJA,AJ HACKETT INTERNATIONAL PTE. LTD.,Aspire FT Pte Ltd,AspireBA,Key,SG AM - Caroline,2026-Q1,2026-Q2,5396.066886767843,3667.9940157451647,0.6797532522696793,-0.04954983560045385,-0.07872632384932805,5991.386155106659,4126.567836878636,0.6887501039073276,0.7302835336308687,-0.041533429723541126,Risk,Growing
86112,SGANPH,ANPRI HOLDINGS PTE. LTD.,Aspire FT Pte Ltd,AspireBA,Key,SG AM - Caroline,2026-Q1,2026-Q2,5391.428860739475,5240.377580700089,0.9719830709184824,-0.04954983560045385,-0.07872632384932805,5986.236440413253,4123.020970348459,0.6887501039073276,0.9816935371733313,-0.2929434332660037,Risk,Declining
59273,SGCEAB,Ocean Bay Energy Pte Ltd,Aspire FT Pte Ltd,AspireBA,Key,SG AM - Caroline,2026-Q1,2026-Q2,5388.3864462178,5363.7847968611595,0.9954343197908702,-0.04954983560045385,-0.07872632384932805,5982.858372530522,4120.694325743221,0.6887501039073276,0.9922990296861274,-0.30354892577879977,Risk,Declining
107711,SGHAHM,HATI HEALTH PTE. LTD.,Aspire FT Pte Ltd,AspireBA,Scaled,SG AM - Caroline,2026-Q1,2026-Q2,5339.68520301048,4627.531772463669,0.8666300720976391,-0.04954983560045385,-0.07872632384932805,5928.7841810107075,4083.450720715245,0.6887501039073276,0.8259674732320947,-0.13721736932476714,Risk,Declining
79727,SGAMES,AMERICAN STUDY EDUCATION JOINT STOCK COMPANY,Aspire FT Pte Ltd,AspireBA,Key,SG AM - Caroline,2026-Q1,2026-Q2,5336.269973110573,4530.711949215565,0.8490409915626066,-0.04954983560045385,-0.07872632384932805,5924.992167018259,4080.8389706839284,0.6887501039073276,0.5352411486905052,0.1535089552168224,Safe,Declining
67502,SGQAPF,Qapita Fintech Pte Ltd,Aspire FT Pte Ltd,AspireOS,Key,SG AM-Rachel,2026-Q1,2026-Q2,5305.3090142862075,2795.395860772173,0.5269053797327721,-0.04954983560045385,-0.07872632384932805,5890.615450802231,4057.162003818146,0.6887501039073276,0.5891522619003877,0.09959784200693989,Safe,Growing
151523,SGALJZ,ACP LUCENTE VENTURES SPV PTE LTD,Aspire FT Pte Ltd,AspireBA,Key,SG AM - Caroline,2026-Q1,2026-Q2,5253.807755833333,4813.807755833333,0.9162512180786467,-0.04954983560045385,-0.07872632384932805,5833.432333294591,4017.7771256930146,0.6887501039073276,0.9206299991111803,-0.23187989520385266,Risk,Declining
87708,SGRDPE,RIDMIK PTE. LTD.,Aspire FT Pte Ltd,AspireBA,Key,SG AM-Rachel,2026-Q1,2026-Q2,5248.652407030953,5039.43859359839,0.9601395182595239,-0.04954983560045385,-0.07872632384932805,5827.708222365748,4013.8346436959964,0.6887501039073276,0.9681755505577835,-0.2794254466504559,Risk,Declining
141727,SGWCYA,Concision Technology Limited,Aspire FT Pte Ltd,AspireBA,Key,SG AM - Caroline,2026-Q1,2026-Q2,5241.6815625,3830.2015625,0.7307200021271799,-0.04954983560045385,-0.07872632384932805,5819.968321751362,4008.5037863436055,0.6887501039073276,0.7239409342645654,-0.0351908303572378,Risk,Growing
96109,SGMEHX,MASTER ENTERPRISE PTE. LTD.,Aspire FT Pte Ltd,AspireBA,Key,SG AM - Caroline,2026-Q1,2026-Q2,5206.88530733496,2790.6219729377326,0.5359484237162997,-0.04954983560045385,-0.07872632384932805,5781.333181413015,3981.8938294210952,0.6887501039073276,0.5793440195862255,0.1094060843211021,Safe,Growing
123356,SGAPG5,APPFACTORY GLOBAL PTE. LTD.,Aspire FT Pte Ltd,AspireBA,Key,SG AM-Rachel,2026-Q1,2026-Q2,5198.76449903941,3882.146249869979,0.7467440101561234,-0.04954983560045385,-0.07872632384932805,5772.316447667639,3975.6835531170627,0.6887501039073276,0.6530763289417486,0.035673774965579,Safe,Growing
97373,SGPPJD,AP PREMIER PTE. LTD.,Aspire FT Pte Ltd,AspireBA,Key,SG AM-Rachel,2026-Q1,2026-Q2,5193.3971249999995,5062.3971249999995,0.9747756628567087,-0.04954983560045385,-0.07872632384932805,5766.356919888645,3971.578927740042,0.6887501039073276,0.9083997694156403,-0.21964966550831266,Risk,Declining
3363,SGPRPP,Propseller Pte. Ltd.,Aspire FT Pte Ltd,AspireOS,Key,SG AM-Rachel,2026-Q1,2026-Q2,5164.600304138796,3024.218938782059,0.5855668901151009,-0.04954983560045385,-0.07872632384932805,5734.383099430269,3949.556955577021,0.6887501039073276,0.613433052141285,0.07531705176604264,Safe,Growing
102906,SGWS5A,WOOSA SLEEP PTE. LTD.,Aspire FT Pte Ltd,AspireOS,Key,SG AM-Rachel,2026-Q1,2026-Q2,5147.985452340572,1996.0592667979893,0.3877359960080045,-0.04954983560045385,-0.07872632384932805,5715.935219683424,3936.850976484512,0.6887501039073276,0.41451176976439036,0.27423833414293725,Safe,Growing
142855,SGZWER,ECOMWARTS GROUP PRIVATE LIMITED,Aspire FT Pte Ltd,AspireBA,Key,SG AM-Rachel,2026-Q1,2026-Q2,5143.294833432426,2921.5525687304457,0.5680313229838159,-0.04954983560045385,-0.07872632384932805,5710.727109818428,3933.263890273835,0.6887501039073276,0.5997353047277586,0.089014799179569,Safe,Growing
76600,SGDCXM,DF CAPITAL MANAGEMENT PTE. LTD.,Aspire FT Pte Ltd,AspireBA,Key,SG AM - Caroline,2026-Q1,2026-Q2,5135.716774846366,4818.636662180403,0.9382598132710601,-0.04954983560045385,-0.07872632384932805,5702.313004462092,3927.4686743353714,0.6887501039073276,0.9588514565153339,-0.2701013526080063,Risk,Declining
118593,SGSP45,SGAPH PTE. LTD.,Aspire FT Pte Ltd,AspireBA,Key,SG AM-Rachel,2026-Q1,2026-Q2,5130.226586279264,4336.574193133032,0.8452987641386355,-0.04954983560045385,-0.07872632384932805,5696.217112683856,3923.2701282397034,0.6887501039073276,0.7558194781609766,-0.067069374253649,Risk,Declining
111507,SGXAPM,XAPADS MEDIA PTE. LTD.,Aspire FT Pte Ltd,AspireBA,Key,SG AM-Rachel,2026-Q1,2026-Q2,5123.265819834465,3222.1196781413532,0.6289190901762465,-0.04954983560045385,-0.07872632384932805,5688.488402017098,3917.9469779649044,0.6887501039073276,0.6480723106154718,0.040677793291855835,Safe,Growing
70361,SGATN2,ATAB INTERNATIONAL PTE. LTD.,Aspire FT Pte Ltd,AspireBA,Key,SG AM - Caroline,2026-Q1,2026-Q2,5109.721866970684,5106.9824954873175,0.9994638902948763,-0.04954983560045385,-0.07872632384932805,5673.45021709903,3907.589426540007,0.6887501039073276,0.9993733475212595,-0.3106232436139319,Risk,Declining
150091,SGBN5B,Beynor International Limited,AFT HK Limited,AspireBA,Key,SG AM - Caroline,2026-Q1,2026-Q2,5102.739923944471,3102.586224591872,0.6080235855315825,-0.04954983560045385,-0.07872632384932805,5665.697993551621,3902.2500817662167,0.6887501039073276,0.5285626429377619,0.1601874609695657,Safe,Growing
110911,SGAMWC,AMW CYBERTECH PTE. LTD.,Aspire FT Pte Ltd,AspireBA,Key,SG AM-Rachel,2026-Q1,2026-Q2,5096.507920467541,5035.887550635302,0.9881055085603246,-0.04954983560045385,-0.07872632384932805,5658.778446382587,3897.484242934553,0.6887501039073276,0.9971427007178431,-0.30839259681051545,Risk,Declining
79131,SGWSAF,WHITE STORM CONSULTING PTE. LTD.,Aspire FT Pte Ltd,AspireBA,Key,SG AM-Rachel,2026-Q1,2026-Q2,5082.419066157667,5082.419066157667,1.0,-0.04954983560045385,-0.07872632384932805,5643.135243949258,3886.7099856331542,0.6887501039073276,0.996683635721014,-0.30793353181368643,Risk,Declining
76401,SGEMPQ,EMURGO GROUP PTE. LTD.,Aspire FT Pte Ltd,AspireBA,Key,SG AM - Caroline,2026-Q1,2026-Q2,5051.805123669028,3644.8792800359174,0.7215003727991615,-0.04954983560045385,-0.07872632384932805,5609.143828529734,3863.2983947309995,0.6887501039073276,0.7346007872240846,-0.04585068331675701,Risk,Growing
68092,SGZGNP,ZIGNIFY PTE. LTD.,Aspire FT Pte Ltd,AspireBA,Scaled,SG AM-Rachel,2026-Q1,2026-Q2,5048.787322913585,1700.946743084149,0.3369020389043752,-0.04954983560045385,-0.07872632384932805,5605.793089918734,3860.990573164507,0.6887501039073276,0.3733166271676292,0.3154334767396984,Safe,Growing
68726,SGKNPS,SYLNDR PTE LTD,Aspire FT Pte Ltd,AspireBA,Key,SG AM-Rachel,2026-Q1,2026-Q2,5029.712924216978,2413.572994325385,0.4798629724381593,-0.04954983560045385,-0.07872632384932805,5584.614314587377,3846.4036894544047,0.6887501039073276,0.5621516201644022,0.12659848374292537,Safe,Growing
74389,SGZERB,ZERO BYTE LABS PTE. LTD.,Aspire FT Pte Ltd,AspireBA,Key,SG AM-Rachel,2026-Q1,2026-Q2,5009.894930936706,4752.245215997279,0.9485718326449505,-0.04954983560045385,-0.07872632384932805,5562.609907849464,3831.2481520272486,0.6887501039073276,0.9609939371727425,-0.2722438332654149,Risk,Declining
123617,SGKYLE,OKYA LIMITED,AFT HK Limited,AspireBA,Key,SG AM - Caroline,2026-Q1,2026-Q2,4985.159304194279,4385.526145215681,0.8797163495910563,-0.04954983560045385,-0.07872632384932805,5535.145331388064,3812.3319221356883,0.6887501039073276,0.7645605762483313,-0.07581047234100369,Risk,Declining
112673,SGMZVJ,STAPLE AI PTE. LTD.,Aspire FT Pte Ltd,AspireBA,Key,SG AM-Rachel,2026-Q1,2026-Q2,4973.984966631958,2544.0118891435736,0.5114635259676316,-0.04954983560045385,-0.07872632384932805,5522.738188784338,3803.786501378179,0.6887501039073276,0.5075316394659742,0.18121846444135337,Safe,Growing
89633,SGEMTV,Emerging Travel Asia PTE. LTD.,Aspire FT Pte Ltd,AspireBA,Key,SG AM - Caroline,2026-Q1,2026-Q2,4948.940611187714,4364.946722532345,0.8819961817009531,-0.04954983560045385,-0.07872632384932805,5494.930823230702,3784.6341754637233,0.6887501039073276,0.8847131259409202,-0.19596302203359262,Risk,Declining
119185,SGYWPT,YOWA PTE. LTD.,Aspire FT Pte Ltd,AspireBA,Key,SG AM-Rachel,2026-Q1,2026-Q2,4941.3403175,4494.2403175,0.9095184765120157,-0.04954983560045385,-0.07872632384932805,5486.492029692585,3778.8219555374926,0.6887501039073276,0.9312149257977038,-0.24246482189037621,Risk,Declining
63847,SGACM4,ACE MANAGEMENT SERVICES PTE. LTD.,Aspire FT Pte Ltd,AspireBA,Key,SG AM-Rachel,2026-Q1,2026-Q2,4921.30651928003,3355.703414214287,0.6818724664004904,-0.04954983560045385,-0.07872632384932805,5464.248009407428,3763.501384254774,0.6887501039073276,0.6807914042930845,0.007958699614243114,Safe,Growing
98042,SGFUEH,FUTAO ELECTRONICS PTE. LTD.,Aspire FT Pte Ltd,AspireBA,Key,SG AM - Caroline,2026-Q1,2026-Q2,4920.25063739208,4858.950637392079,0.9875412850853282,-0.04954983560045385,-0.07872632384932805,5463.075637704546,3762.6939131225963,0.6887501039073276,0.9924377237552403,-0.3036876198479127,Risk,Declining
110948,SGRML3,RUYI MANAGEMENT PTE LTD,Aspire FT Pte Ltd,AspireBA,Key,SG AM-Rachel,2026-Q1,2026-Q2,4919.336029613306,4918.8430662877345,0.999899790678538,-0.04954983560045385,-0.07872632384932805,5462.060126129527,3761.9944794197827,0.6887501039073276,0.9931534345832775,-0.30440333067594993,Risk,Declining
83001,SGANU7,ACCTIVA INTERNATIONAL PTE. LTD.,Aspire FT Pte Ltd,AspireBA,Key,SG AM - Caroline,2026-Q1,2026-Q2,4908.524228206957,4430.775759789804,0.9026696322141472,-0.04954983560045385,-0.07872632384932805,5450.05551636151,3753.726303194694,0.6887501039073276,0.8843046239221766,-0.19555452001484896,Risk,Declining
143080,SGFPSF,SOLO FORTIS PTE. LTD.,Aspire FT Pte Ltd,AspireBA,Key,SG AM-Rachel,2026-Q1,2026-Q2,4873.087444976283,4787.199488545036,0.9823750430500092,-0.04954983560045385,-0.07872632384932805,5410.709181913654,3726.6265112553606,0.6887501039073276,0.9590353513585628,-0.27028524745123517,Risk,Declining
134956,SGCP2N,CHOVA CR PTE. LTD.,Aspire FT Pte Ltd,AspireBA,Key,SG AM - Caroline,2026-Q1,2026-Q2,4861.2891210660355,4784.825946174247,0.9842710085766262,-0.04954983560045385,-0.07872632384932805,5397.609211877576,3717.6039055318292,0.6887501039073276,0.9440148987251392,-0.2552647948178116,Risk,Declining
142469,SGCCHR,CROSSPOINT CAPITAL ASIA PTE. LTD.,Aspire FT Pte Ltd,AspireBA,Key,SG AM - Caroline,2026-Q1,2026-Q2,4845.409402154963,4827.9817556856,0.9964032664687503,-0.04954983560045385,-0.07872632384932805,5379.977568306944,3705.460109190499,0.6887501039073276,0.9952468902751976,-0.30649678636787003,Risk,Declining
116786,SGGHYA,GREAT PRO HOLDING PTE. LTD.,Aspire FT Pte Ltd,AspireBA,Key,SG AM - Caroline,2026-Q1,2026-Q2,4818.297,4818.297,1.0,-0.04954983560045385,-0.07872632384932805,5349.873999483275,3684.726273035216,0.6887501039073276,0.9938543397565162,-0.30510423584918855,Risk,Declining
86698,SGMEUN,MILIEU INSIGHT PTE. LTD.,Aspire FT Pte Ltd,AspireOS,Key,SG AM-Rachel,2026-Q1,2026-Q2,4815.484794646381,2070.602720990342,0.42998842469450554,-0.04954983560045385,-0.07872632384932805,5346.7515385178085,3682.5756777208044,0.6887501039073276,0.5865870297715208,0.10216307413580683,Safe,Growing
114867,SGE6W2,KAEDE PTE. LTD.,Aspire FT Pte Ltd,AspireBA,Key,SG AM-Rachel,2026-Q1,2026-Q2,4814.06983166997,3192.8563722019203,0.6632343285087617,-0.04954983560045385,-0.07872632384932805,5345.180470225893,3681.493604271502,0.6887501039073276,0.6996053060511822,-0.010855202143854603,Risk,Growing
68139,SGDEKB,DEKANG BIOTECH PTE. LTD.,Aspire FT Pte Ltd,AspireBA,Key,SG AM - Caroline,2026-Q1,2026-Q2,4806.820503161586,4643.54442605482,0.9660324164383973,-0.04954983560045385,-0.07872632384932805,5337.131361982727,3675.94978013266,0.6887501039073276,0.9690734054234712,-0.2803233015161436,Risk,Declining
114067,SGWP8H,WAVESHORE PTE LTD,Aspire FT Pte Ltd,AspireBA,Key,SG AM-Rachel,2026-Q1,2026-Q2,4792.096891232775,4788.860575421744,0.9993246555976462,-0.04954983560045385,-0.07872632384932805,5320.7833725091805,3664.690100684079,0.6887501039073276,0.9978746336801794,-0.30912452977285176,Risk,Declining
67484,SGHDPB,BO HOLDINGS PTE. LTD.,Aspire FT Pte Ltd,AspireBA,Key,SG AM - Caroline,2026-Q1,2026-Q2,4790.137766595204,4514.344628731768,0.9424248004333563,-0.04954983560045385,-0.07872632384932805,5318.608108103459,3663.1918870986124,0.6887501039073276,0.9052104090517402,-0.2164603051444126,Risk,Declining
96714,SGATD6,Atas Digital Pte Ltd,Aspire FT Pte Ltd,AspireBA,Key,SG AM-Rachel,2026-Q1,2026-Q2,4781.314697257232,4641.514697257232,0.9707611799574298,-0.04954983560045385,-0.07872632384932805,5308.811636601838,3656.4445663339457,0.6887501039073276,0.9545703865094755,-0.26582028260214785,Risk,Declining
139287,SGSWRL,SWRM LABS PTE. LTD.,Aspire FT Pte Ltd,AspireBA,Key,SG AM-Rachel,2026-Q1,2026-Q2,4770.384539596267,4472.451549513782,0.937545288517202,-0.04954983560045385,-0.07872632384932805,5296.675612965135,3648.0858787931447,0.6887501039073276,0.9649559320183396,-0.276205828111012,Risk,Declining
82348,SGTGMR,TGM RESEARCH PTE. LTD.,Aspire FT Pte Ltd,AspireOS,Key,SG AM-Rachel,2026-Q1,2026-Q2,4754.597876081257,2374.702156515324,0.4994538378233062,-0.04954983560045385,-0.07872632384932805,5279.1472910959055,3636.013245284392,0.6887501039073276,0.5200599853556563,0.16869011855167126,Safe,Growing
53431,SGMGBZ,Mighty Bear Games Pte. Ltd.,Aspire FT Pte Ltd,AspireOS,Key,SG AM-Rachel,2026-Q1,2026-Q2,4745.402872398814,2474.0009706758174,0.5213468776414347,-0.04954983560045385,-0.07872632384932805,5268.937851718081,3628.98149285208,0.6887501039073276,0.5277589083532984,0.1609911955540292,Safe,Growing
76632,SGLKAP,LKA PACIFIC PTE. LTD.,Aspire FT Pte Ltd,AspireBA,Key,SG AM - Caroline,2026-Q1,2026-Q2,4729.4864561242075,4729.239974461421,0.9999478840535705,-0.04954983560045385,-0.07872632384932805,5251.265462159597,3616.8096327073827,0.6887501039073276,0.9844953714267588,-0.2957452675194312,Risk,Declining
128853,SGNDDX,YD INDUSTRIAL DEVELOPMENT PTE. LTD.,Aspire FT Pte Ltd,AspireBA,Key,SG AM-Rachel,2026-Q1,2026-Q2,4724.843259212222,3179.865263945523,0.6730096829658018,-0.04954983560045385,-0.07872632384932805,5246.110006106575,3613.258811815175,0.6887501039073276,0.6617147987715125,0.02703530513581509,Safe,Growing
66401,SGNP8F,NEXTBILLION.AI PTE. LTD.,Aspire FT Pte Ltd,AspireBA,Key,SG AM-Rachel,2026-Q1,2026-Q2,4712.550852208452,2565.1367587198747,0.5443202289303191,-0.04954983560045385,-0.07872632384932805,5232.4614434255,3603.8583628503984,0.6887501039073276,0.5641859734391077,0.1245641304682199,Safe,Growing
120483,SGWTUE,WSPN TECHNOLOGY SG PTE. LTD.,Aspire FT Pte Ltd,AspireBA,Key,SG AM - Caroline,2026-Q1,2026-Q2,4712.030606472918,4031.400944545628,0.8555549149039251,-0.04954983560045385,-0.07872632384932805,5231.883801753789,3603.4605120889864,0.6887501039073276,0.8864457482980864,-0.19769564439075882,Risk,Declining
128403,SGWVWJ,ADVISCENT PTE. LTD.,Aspire FT Pte Ltd,AspireBA,Key,SG AM-Rachel,2026-Q1,2026-Q2,4673.222813420025,3315.671750850644,0.7095043149513605,-0.04954983560045385,-0.07872632384932805,5188.794551956403,3573.782786813748,0.6887501039073276,0.7636526024798909,-0.07490249857256326,Risk,Growing
145093,SGQCR4,CREDSHIELDS TECHNOLOGIES PTE. LTD.,Aspire FT Pte Ltd,AspireBA,Key,SG AM-Rachel,2026-Q1,2026-Q2,4660.977216982687,4652.997041505384,0.998287875030106,-0.04954983560045385,-0.07872632384932805,5175.197964201793,3564.4181355849755,0.6887501039073276,0.9608831735976011,-0.2721330696902735,Risk,Declining
119580,SGDTVG,ATUM CAPITAL PTE. LTD.,Aspire FT Pte Ltd,AspireBA,Key,SG AM - Caroline,2026-Q1,2026-Q2,4647.592938566914,4625.264932945982,0.9951957914739803,-0.04954983560045385,-0.07872632384932805,5160.337069761621,3554.182692995151,0.6887501039073276,0.9979284734905277,-0.3091783695832001,Risk,Declining
