Gagan-D-Aspire/High-Value-Data-Projects/csm_targets_2026_Q2.csv
business_id,business_ref_code,company_name,business_group,business_unit,account_motion,account_manager,base_quarter,target_quarter,base_revenue,base_gp,base_take_rate,avg_rev_g,avg_gp_g,target_revenue,target_gp,target_take_rate,hist_avg_tr,tr_delta,guardrail,gp_trend
84093,SGGPGP,GERO PTE. LTD.,Aspire FT Pte Ltd,AspireBA,Key,SG AM - Caroline,2026-Q1,2026-Q2,122828.43437224036,119322.9979448928,0.9714607090348145,-0.049524670135058214,-0.07869491762243931,136024.23760054374,93691.63704303952,0.6887863420207473,0.9615524016642248,-0.27276605964347755,Risk,Declining
86951,SGEVMG,EVERY MOMENT LOGISTICS PTE. LTD.,Aspire FT Pte Ltd,AspireBA,Key,SG AM - Caroline,2026-Q1,2026-Q2,104993.77767162844,104975.53128303381,0.9998262145719559,-0.049524670135058214,-0.07869491762243931,116273.55370583445,80087.63573079462,0.6887863420207473,0.9998314695573617,-0.3110451275366144,Risk,Declining
134453,SGBLVG,BERIKLAN LANCAR SEJAHTERA LIMITED,AFT HK Limited,AspireBA,Key,Eureka,2026-Q1,2026-Q2,75660.65574376256,24803.074414033563,0.3278199768454732,-0.049524670135058214,-0.07869491762243931,83789.09221225453,57712.782326117886,0.6887863420207473,0.3291501592814566,0.3596361827392907,Safe,Growing
89483,SGFBPZ,FIBONEX PTE. LTD.,Aspire FT Pte Ltd,AspireBA,Key,SG AM - Caroline,2026-Q1,2026-Q2,70364.89136641289,70364.39517705068,0.9999929483389717,-0.049524670135058214,-0.07869491762243931,77924.38901366107,53673.25486292132,0.6887863420207473,0.9999973932521845,-0.3112110512314372,Risk,Declining
99873,SGSUCM,SUCCESS MCMOORE PTE LIMITED,Aspire FT Pte Ltd,AspireX,Key,Eureka,2026-Q1,2026-Q2,64854.30992679711,28734.593329313982,0.44306374336181403,-0.049524670135058214,-0.07869491762243931,71821.79035325797,49469.86825480155,0.6887863420207473,0.372751701542808,0.3160346404779393,Safe,Growing
147170,SGAVNH,AVNM HOLDINGS PTE LTD,Aspire FT Pte Ltd,AspireBA,Key,SG AM - Caroline,2026-Q1,2026-Q2,51325.143405,51296.89382360493,0.9994495956655755,-0.049524670135058214,-0.07869491762243931,56839.14752382072,39150.02850651009,0.6887863420207473,0.999342436106727,-0.31055609408597973,Risk,Declining
151475,SGSM5V,SUCCESS MCMOORE PTE LIMITED,AFT HK Limited,AspireBA,Key,Eureka,2026-Q1,2026-Q2,50143.297129427985,14364.425407919882,0.28646750872490434,-0.049524670135058214,-0.07869491762243931,55530.332187882035,38248.53437888823,0.6887863420207473,0.24139558927814797,0.4473907527425993,Safe,Growing
125930,SGRAT5,Rasewa,Aspire FT Pte Ltd,AspireBA,Key,Eureka,2026-Q1,2026-Q2,46106.22574837126,6956.935629374659,0.15088928916764388,-0.049524670135058214,-0.07869491762243931,51059.546904703966,35169.118537727816,0.6887863420207473,0.19369263915304522,0.49509370286770205,Safe,Growing
91639,SGFT9T,PT REPUBLIK AZERO MANAGEMEN,Aspire FT Pte Ltd,AspireX,Key,Eureka,2026-Q1,2026-Q2,44614.30566739177,7591.880872444475,0.17016696234260392,-0.049524670135058214,-0.07869491762243931,49407.34566471126,34031.104889351096,0.6887863420207473,0.24310833295099152,0.44567800906975574,Safe,Growing
99150,SGHLWJ,HERITAGE LINE PTE. LTD.,Aspire FT Pte Ltd,AspireBA,Key,SG AM - Caroline,2026-Q1,2026-Q2,44327.20992833333,43958.474145820015,0.99168150255544,-0.049524670135058214,-0.07869491762243931,49089.406425125766,33812.11268353215,0.6887863420207473,0.9837256345998474,-0.2949392925791001,Risk,Declining
75513,SGDEUP,DELUGS PTE. LTD.,Aspire FT Pte Ltd,AspireBA,Key,SG AM - Caroline,2026-Q1,2026-Q2,40287.45026646663,22597.513132010856,0.5609070065876063,-0.049524670135058214,-0.07869491762243931,44615.6440515899,30730.64626319432,0.6887863420207473,0.6136548516195385,0.07513149040120881,Safe,Growing
104231,SGDGZG,PT Digizie Global Learning,Aspire FT Pte Ltd,AspireBA,Key,Eureka,2026-Q1,2026-Q2,39147.63630134866,4990.219202096811,0.12747178817345084,-0.049524670135058214,-0.07869491762243931,43353.37667511453,29861.213734299727,0.6887863420207473,0.19119152123490993,0.4975948207858374,Safe,Growing
71455,SGCP3W,SF CAPITAL SG PTE. LTD.,Aspire FT Pte Ltd,AspireBA,Key,SG AM - Caroline,2026-Q1,2026-Q2,33257.82985486032,32524.831091400985,0.9779601144555072,-0.049524670135058214,-0.07869491762243931,36830.811801655494,25368.560134516858,0.6887863420207473,0.9678152743227256,-0.27902893230197834,Risk,Declining
135284,SGLC7B,LARES CAPITAL PTE. LTD.,Aspire FT Pte Ltd,AspireBA,Key,SG AM - Caroline,2026-Q1,2026-Q2,32871.58076333333,32813.08076333333,0.9982203472226912,-0.049524670135058214,-0.07869491762243931,36403.0668868287,25073.935279315334,0.6887863420207473,0.9960956550791439,-0.3073093130583966,Risk,Declining
122887,SGBLPB,BLAZETEC PTE. LTD.,Aspire FT Pte Ltd,AspireBA,Key,SG AM - Caroline,2026-Q1,2026-Q2,32634.657904359323,32456.667140753216,0.9945459589578743,-0.049524670135058214,-0.07869491762243931,36140.690740565915,24893.21417329749,0.6887863420207473,0.9429406174134503,-0.25415427539270297,Risk,Declining
105489,SGRDVT,PT Ordivo Teknologi Indonesia,Aspire FT Pte Ltd,AspireBA,Key,Eureka,2026-Q1,2026-Q2,30557.109477810525,4968.099385546129,0.1625840752101826,-0.049524670135058214,-0.07869491762243931,33839.94545919988,23308.49224702388,0.6887863420207473,0.21531180094503566,0.47347454107571163,Safe,Growing
28763,SGPRST,Prism Tech Private Limited,Aspire FT Pte Ltd,AspireOS,Key,SG AM-Rachel,2026-Q1,2026-Q2,30257.182315516224,14746.454481362636,0.48737038127309323,-0.049524670135058214,-0.07869491762243931,33507.796280589195,23079.712429283434,0.6887863420207473,0.15722680497935973,0.5315595370413876,Safe,Growing
117955,SGNAMD,NAM HO DMC PTE. LTD.,Aspire FT Pte Ltd,AspireBA,Key,SG AM - Caroline,2026-Q1,2026-Q2,29782.212866065256,430.2156728221671,0.014445389761899382,-0.049524670135058214,-0.07869491762243931,32981.79953093332,22717.41305217316,0.6887863420207473,0.123364094760536,0.5654222472602113,Safe,Growing
138876,SGDBJV,V MEDICAL AESTHETICS PTE. LTD.,Aspire FT Pte Ltd,AspireBA,Key,SG AM-Rachel,2026-Q1,2026-Q2,29498.4625701723,2138.8847779335733,0.07250834760779466,-0.049524670135058214,-0.07869491762243931,32667.565144856257,22500.972698850004,0.6887863420207473,0.04396960576009167,0.6448167362606556,Safe,Growing
138008,SGDSFP,DOSFARM PTE. LTD.,Aspire FT Pte Ltd,AspireOS,Key,SG AM-Rachel,2026-Q1,2026-Q2,27110.158368448243,27076.65744406606,0.9987642667399106,-0.049524670135058214,-0.07869491762243931,30022.6787237434,20679.211055791333,0.6887863420207473,0.9974210327816776,-0.3086346907609303,Risk,Declining
88136,SGPAVT,PAVING THE WAY PTE. LTD.,Aspire FT Pte Ltd,AspireBA,Key,SG AM - Caroline,2026-Q1,2026-Q2,25784.84737058766,25478.317590611732,0.9881120188314327,-0.049524670135058214,-0.07869491762243931,28554.985847993903,19668.284248693926,0.6887863420207473,0.9906028965569782,-0.3018165545362309,Risk,Declining
118203,SGSRC7,SORA CLOUD PTE. LTD.,Aspire FT Pte Ltd,AspireBA,Key,SG AM-Rachel,2026-Q1,2026-Q2,25573.90136625562,25347.795564772205,0.9911587286489749,-0.049524670135058214,-0.07869491762243931,28321.37732273022,19507.377887112692,0.6887863420207473,0.9860116835362482,-0.29722534151550095,Risk,Declining
176080,SGPPY2,PERSISTENCE AI PTE LTD,Aspire FT Pte Ltd,AspireBA,Key,SG AM-Rachel,2026-Q1,2026-Q2,25551.935430973554,25474.485892081102,0.9969689364979152,-0.049524670135058214,-0.07869491762243931,28297.051525408147,19490.622610158483,0.6887863420207473,0.9967809131339112,-0.30799457111316386,Risk,Declining
73338,SGBLCA,BLOCKTECH APAC PTE. LTD.,Aspire FT Pte Ltd,AspireX,Key,SG AM - Caroline,2026-Q1,2026-Q2,25030.37343504616,24567.132562727988,0.9814928501358446,-0.049524670135058214,-0.07869491762243931,27719.456661319615,19092.783156552974,0.6887863420207473,0.9710064352925131,-0.2822200932717658,Risk,Declining
141988,SGATFM,ASIA TRAVELS INTERNATIONAL LIMITED,AFT HK Limited,AspireBA,Key,SG AM - Caroline,2026-Q1,2026-Q2,24656.74616548089,23865.36616548089,0.9679041186258419,-0.049524670135058214,-0.07869491762243931,27305.689566191075,18807.786032650838,0.6887863420207473,0.9513448230851487,-0.2625584810644014,Risk,Declining
65061,SGPP5T,POSTEX PTE. LTD.,Aspire FT Pte Ltd,AspireOS,Key,SG AM-Rachel,2026-Q1,2026-Q2,24412.999499139638,22612.89516345265,0.926264515929293,-0.049524670135058214,-0.07869491762243931,27035.756511795356,18621.85983152312,0.6887863420207473,0.9530126240304729,-0.26422628200972564,Risk,Declining
129328,SGWPEZ,WEGO PTE. LTD.,Aspire FT Pte Ltd,AspireOS,Key,SG AM-Rachel,2026-Q1,2026-Q2,23953.98239428797,7921.4334859773735,0.3306938009550473,-0.049524670135058214,-0.07869491762243931,26527.425911864106,18271.728657059262,0.6887863420207473,0.3818757613504754,0.3069105806702719,Safe,Growing
67398,SGMAPC,MAVINA PTE. LTD.,Aspire FT Pte Ltd,AspireBA,Key,SG AM - Caroline,2026-Q1,2026-Q2,23827.112050892054,23827.112050892054,1.0,-0.049524670135058214,-0.07869491762243931,26386.925531616245,18174.953914095815,0.6887863420207473,1.0,-0.3112136579792527,Risk,Declining
92687,SGSG9S,SURGE GLOBAL PTE. LTD.,Aspire FT Pte Ltd,AspireOS,Key,SG AM-Rachel,2026-Q1,2026-Q2,23443.714005887403,13850.488540881635,0.5907975390504837,-0.049524670135058214,-0.07869491762243931,25962.337959236647,17882.503793249005,0.6887863420207473,0.6040992724828961,0.08468706953785121,Safe,Growing
90404,SGPUNK,PUREST NEST PTE. LTD.,Aspire FT Pte Ltd,AspireBA,Key,SG AM - Caroline,2026-Q1,2026-Q2,23313.447302731638,5347.561420729981,0.22937669197053528,-0.049524670135058214,-0.07869491762243931,25818.07633877343,17783.13835939616,0.6887863420207473,0.1616392661335335,0.5271470758872138,Safe,Growing
90656,SGDAZP,DAZZ PTE LTD,Aspire FT Pte Ltd,AspireBA,Key,SG AM-Rachel,2026-Q1,2026-Q2,22976.312157256736,22830.68047417775,0.9936616597963049,-0.049524670135058214,-0.07869491762243931,25444.7218189837,17525.976865433277,0.6887863420207473,0.9952365096239967,-0.3064501676032494,Risk,Declining
84694,SGLVTX,LOVE IN THE HAIR PTE. LTD.,Aspire FT Pte Ltd,AspireBA,Key,SG AM-Rachel,2026-Q1,2026-Q2,22794.383036384137,22313.22687467013,0.9788914593149554,-0.049524670135058214,-0.07869491762243931,25243.247542359484,17387.204135426007,0.6887863420207473,0.9837517456292512,-0.2949654036085039,Risk,Declining
108372,SGEVSA,EVENTUS SECURITY PTE. LTD.,Aspire FT Pte Ltd,AspireBA,Key,SG AM-Rachel,2026-Q1,2026-Q2,22625.726814098205,21404.876141184785,0.9460414826474126,-0.049524670135058214,-0.07869491762243931,25056.472109046492,17258.555767935013,0.6887863420207473,0.9251461670051047,-0.23635982498435737,Risk,Declining
89907,SGYBUE,MAX NOW PTE. LTD.,Aspire FT Pte Ltd,AspireOS,Key,SG AM-Rachel,2026-Q1,2026-Q2,22521.33564756053,19481.739504758876,0.8650348189659481,-0.049524670135058214,-0.07869491762243931,24940.865906679002,17178.927794691397,0.6887863420207473,0.7964898039401687,-0.10770346191942137,Risk,Declining
105492,SGML5E,MAGICBLOCK LABS PTE. LTD.,Aspire FT Pte Ltd,AspireOS,Key,SG AM-Rachel,2026-Q1,2026-Q2,22353.51348710167,21031.328502533222,0.940851133521745,-0.049524670135058214,-0.07869491762243931,24755.014140794643,17050.915636709815,0.6887863420207473,0.9430774278732714,-0.25429108585252413,Risk,Declining
152838,SGSTKW,SUPERLINEAR TECHNOLOGY PTE LTD,Aspire FT Pte Ltd,AspireBA,Key,SG AM-Rachel,2026-Q1,2026-Q2,21667.565016867014,18918.32008442836,0.8731170332107684,-0.049524670135058214,-0.07869491762243931,23995.372302373424,16527.684713577746,0.6887863420207473,0.8951931563128646,-0.20640681429211727,Risk,Declining
80381,SGZUSS,ZUSPRESSO M SDN BHD,Aspire FT Pte Ltd,AspireBA,Key,SG AM-Rachel,2026-Q1,2026-Q2,21641.59908035022,12299.54651355438,0.5683289145080743,-0.049524670135058214,-0.07869491762243931,23966.61677246431,16507.87829731878,0.6887863420207473,0.6170392897910206,0.07174705222972666,Safe,Growing
102316,SGDGLZ,PT Digital Laskar Pelangi,Aspire FT Pte Ltd,AspireBA,Key,Eureka,2026-Q1,2026-Q2,21624.85367185973,2899.584742698014,0.13408575090018865,-0.049524670135058214,-0.07869491762243931,23948.072357770183,16495.105157756698,0.6887863420207473,0.2040609969409934,0.4847253450797539,Safe,Growing
58863,SGSKHZ,OSOME LTD.,Aspire FT Pte Ltd,AspireOS,Key,SG AM-Rachel,2026-Q1,2026-Q2,21537.453027994867,15278.23323536986,0.7093797588559273,-0.049524670135058214,-0.07869491762243931,23851.282017583275,16428.43729339641,0.6887863420207473,0.7804401480024721,-0.09165380598172479,Risk,Growing
120791,SGFLP4,FLYWHEEL AI PTE. LTD,Aspire FT Pte Ltd,AspireBA,Key,SG AM-Rachel,2026-Q1,2026-Q2,21338.104633005605,20859.343305545583,0.9775630808970972,-0.049524670135058214,-0.07869491762243931,23630.517065364405,16276.377409511193,0.6887863420207473,0.9708473170020823,-0.282060974981335,Risk,Declining
115719,SGAPYF,AIRGSM PTE. LTD.,Aspire FT Pte Ltd,AspireOS,Key,SG AM-Rachel,2026-Q1,2026-Q2,20679.676071450835,8825.95082167229,0.426793475447949,-0.049524670135058214,-0.07869491762243931,22901.351676603645,15774.138248658532,0.6887863420207473,0.5385474496694413,0.15023889235130594,Safe,Growing
72111,SGANN3,ANTLER INNOVATION PTE. LTD.,Aspire FT Pte Ltd,AspireOS,Key,SG AM-Rachel,2026-Q1,2026-Q2,19991.936888113654,7985.483821279507,0.3994352256097473,-0.049524670135058214,-0.07869491762243931,22139.726743748495,15249.541397165436,0.6887863420207473,0.4967768793720549,0.1920094626486924,Safe,Growing
92684,SGEDGT,EDGE TUTOR INTERNATIONAL PTE. LTD.,Aspire FT Pte Ltd,AspireOS,Key,SG AM-Rachel,2026-Q1,2026-Q2,19462.02267073229,16733.97069796322,0.8598269039696673,-0.049524670135058214,-0.07869491762243931,21552.882355627895,14845.330997736444,0.6887863420207473,0.8738649206902156,-0.1850785786694683,Risk,Declining
70084,SGTSD5,ATTIX APAC PTE. LTD.,Aspire FT Pte Ltd,AspireOS,Key,SG AM-Rachel,2026-Q1,2026-Q2,19456.84089845421,14614.983680696994,0.7511488507807098,-0.049524670135058214,-0.07869491762243931,21547.143891019532,14841.378421690035,0.6887863420207473,0.7444817402719713,-0.05569539825122405,Risk,Growing
91424,SGAMGD,AMITY GLOBAL INSTITUTE PTE. LTD.,Aspire FT Pte Ltd,AspireBA,Key,SG AM - Caroline,2026-Q1,2026-Q2,19369.01904054908,14783.572818529727,0.7632587271239853,-0.049524670135058214,-0.07869491762243931,21449.88708458654,14774.389261750433,0.6887863420207473,0.7924615628184544,-0.10367522079770708,Risk,Declining
120054,SGCDHK,CODE HOUSE PTE. LTD.,Aspire FT Pte Ltd,AspireBA,Key,SG AM - Caroline,2026-Q1,2026-Q2,18991.894434410817,18981.381256171986,0.9994464386754498,-0.049524670135058214,-0.07869491762243931,21032.246924207222,14486.724423401805,0.6887863420207473,0.9987536965478301,-0.3099673545270828,Risk,Declining
68165,SGTP78,SF TREASURY SG PTE. LTD.,Aspire FT Pte Ltd,AspireBA,Key,SG AM - Caroline,2026-Q1,2026-Q2,18882.114102880623,18727.41568325154,0.9918071451752597,-0.049524670135058214,-0.07869491762243931,20910.672583735908,14402.985678144985,0.6887863420207473,0.9913363265269767,-0.3025499845062294,Risk,Declining
76492,SGMAGL,MAGIK LABS PTE. LTD.,Aspire FT Pte Ltd,AspireBA,Key,SG AM-Rachel,2026-Q1,2026-Q2,18623.751597128372,17907.059595436316,0.9615173130958983,-0.049524670135058214,-0.07869491762243931,20624.553469305036,14205.910739933928,0.6887863420207473,0.9697541611349814,-0.2809678191142341,Risk,Declining
77441,SGGZ7B,COBO SINGAPORE PTE. LTD.,Aspire FT Pte Ltd,AspireOS,Key,SG AM-Rachel,2026-Q1,2026-Q2,18384.145996054376,1156.5108491427675,0.06290805400430236,-0.049524670135058214,-0.07869491762243931,20359.206366433584,14023.143279581298,0.6887863420207473,0.13787584534298347,0.5509104966777638,Safe,Growing
129875,SGJSP7,Clarus Technology Limited,Aspire FT Pte Ltd,AspireBA,Key,SG AM - Caroline,2026-Q1,2026-Q2,18011.30020237535,17025.7698409428,0.945282664196415,-0.049524670135058214,-0.07869491762243931,19946.30470333772,13738.742253443213,0.6887863420207473,0.9412867052312816,-0.25250036321053426,Risk,Declining
101907,SG4VPC,STARTCAREFULLY PTE. LTD.,Aspire FT Pte Ltd,AspireBA,Key,SG AM-Rachel,2026-Q1,2026-Q2,17854.482347494497,17682.304758843617,0.9903566182821849,-0.049524670135058214,-0.07869491762243931,19772.63946644578,13619.124010188249,0.6887863420207473,0.9949740865348926,-0.3061877445141453,Risk,Declining
146972,SGBHLQ,BHINDI LABS PTE. LTD.,Aspire FT Pte Ltd,AspireBA,Key,SG AM - Caroline,2026-Q1,2026-Q2,17415.756399624075,12864.053400808016,0.7386445415075793,-0.049524670135058214,-0.07869491762243931,19286.779959405307,13284.470617597839,0.6887863420207473,0.7816331523471011,-0.09284681032635378,Risk,Growing
116073,SGFYDF,"Intrepid Ecommerce Services (Thailand) Co., Ltd.",Aspire FT Pte Ltd,AspireOS,Key,SG AM-Rachel,2026-Q1,2026-Q2,17319.263365670748,5137.359533393384,0.2966269075609973,-0.049524670135058214,-0.07869491762243931,19179.92040815932,13210.867218185136,0.6887863420207473,0.3185627303551964,0.3702236116655509,Safe,Growing
80086,SGMSME,MISTER MOBILE TRADING PTE. LTD.,Aspire FT Pte Ltd,AspireX,Key,SG AM - Caroline,2026-Q1,2026-Q2,17306.771892885463,7983.022769785499,0.4612658454848643,-0.049524670135058214,-0.07869491762243931,19166.086941415153,13201.338915228956,0.6887863420207473,0.39717241295551015,0.29161392906523714,Safe,Growing
83438,SGBRHP,BRIOHR PTE. LTD.,Aspire FT Pte Ltd,AspireBA,Key,SG AM-Rachel,2026-Q1,2026-Q2,17058.38285593861,17038.642769564405,0.9988427926292361,-0.049524670135058214,-0.07869491762243931,18891.012773518203,13011.871585338815,0.6887863420207473,0.9961961290601575,-0.30740978703941024,Risk,Declining
55419,SGVPUA,PX Ventures PTE LTD,Aspire FT Pte Ltd,AspireBA,Key,SG AM - Caroline,2026-Q1,2026-Q2,16802.99330911465,11736.502744590329,0.6984769040063806,-0.049524670135058214,-0.07869491762243931,18608.186011332196,12817.064374387144,0.6887863420207473,0.6656881786443184,0.023098163376428893,Safe,Growing
103624,SGPCZC,PRIMROSE CAPITAL MANAGEMENT PTE. LTD. (AP),Aspire FT Pte Ltd,AspireBA,Key,SG AM - Caroline,2026-Q1,2026-Q2,16339.775000631429,15687.673046465095,0.9600911301323835,-0.049524670135058214,-0.07869491762243931,18095.202860679226,12463.728586530606,0.6887863420207473,0.9451634191039204,-0.25637707708317314,Risk,Declining
123896,SGCLMS,COFFEE MEETS BAGEL PTE. LTD.,Aspire FT Pte Ltd,AspireOS,Key,SG AM-Rachel,2026-Q1,2026-Q2,16184.083947361174,13761.233001179937,0.8502942178215601,-0.049524670135058214,-0.07869491762243931,17922.7854808555,12344.96985018102,0.6887863420207473,0.8965667940148846,-0.2077804519941373,Risk,Declining
86460,SGPPGY,PREFER PTE. LTD.,Aspire FT Pte Ltd,AspireBA,Key,SG AM-Rachel,2026-Q1,2026-Q2,16149.171832299713,15781.53384682965,0.9772348706616177,-0.049524670135058214,-0.07869491762243931,17884.122659347366,12318.339426782231,0.6887863420207473,0.8611384328177474,-0.1723520907970001,Risk,Declining
90493,SGKRMQ,KRIS MANAGEMENT & SERVICES PTE. LTD.,Aspire FT Pte Ltd,AspireBA,Key,SG AM - Caroline,2026-Q1,2026-Q2,16100.001898746626,15768.888620727628,0.9794339603124659,-0.049524670135058214,-0.07869491762243931,17829.670261915035,12280.833359140555,0.6887863420207473,0.9865145537798822,-0.2977282117591349,Risk,Declining
110959,SGLYNM,LYNCHPIN MANAGEMENT SERVICES PTE. LTD.,Aspire FT Pte Ltd,AspireBA,Key,SG AM - Caroline,2026-Q1,2026-Q2,16057.832567006591,6041.711719511509,0.37624702426684786,-0.049524670135058214,-0.07869491762243931,17782.970560584647,12248.667242687736,0.6887863420207473,0.4465353901332662,0.24225095188748108,Safe,Growing
72538,SGABHT,ABHIBHA TECHNOLOGIES PTE. LTD.,Aspire FT Pte Ltd,AspireBA,Key,SG AM-Rachel,2026-Q1,2026-Q2,15985.2291692,15866.473978824091,0.992570942266832,-0.049524670135058214,-0.07869491762243931,17702.567176105113,12193.286489605991,0.6887863420207473,0.9826139015958678,-0.2938275595751205,Risk,Declining
69274,SGTRT9,TRIPLO TECHNOLOGY SERVICES PTE. LTD.,Aspire FT Pte Ltd,AspireBA,Key,SG AM-Rachel,2026-Q1,2026-Q2,15785.667073005385,9788.492359242133,0.620087343409209,-0.049524670135058214,-0.07869491762243931,17481.565564160985,12041.063597734306,0.6887863420207473,0.5893771065845299,0.09940923543621738,Safe,Growing
145670,SGELSG,ELSER GLOBAL PTE. LTD.,Aspire FT Pte Ltd,AspireBA,Key,SG AM-Rachel,2026-Q1,2026-Q2,15783.280015433334,14774.538053219676,0.9360879385509677,-0.049524670135058214,-0.07869491762243931,17478.922058298467,12039.242787001152,0.6887863420207473,0.9563189875228908,-0.2675326455021435,Risk,Declining
118501,SGMMWC,MMW CAPITAL INVESTMENT PTE LTD,Aspire FT Pte Ltd,AspireBA,Key,SG AM - Caroline,2026-Q1,2026-Q2,15738.114114724669,15737.571446644868,0.9999655188623081,-0.049524670135058214,-0.07869491762243931,17428.903858190017,12004.790933913991,0.6887863420207473,0.9999929029064879,-0.3112065608857406,Risk,Declining
90121,SGTERJ,TERRAVERDE JOURNEYS PTE. LTD.,Aspire FT Pte Ltd,AspireBA,Key,SG AM - Caroline,2026-Q1,2026-Q2,15407.557079571778,14712.476075894841,0.9548870077139928,-0.049524670135058214,-0.07869491762243931,17062.834153565254,11752.647121140886,0.6887863420207473,0.940137244173436,-0.25135090215268874,Risk,Declining
60315,SGBAZT,BAZAAR TECHNOLOGIES PTE LTD,Aspire FT Pte Ltd,AspireOS,Key,SG AM-Rachel,2026-Q1,2026-Q2,15305.648097053254,10114.78931202741,0.6608533822213498,-0.049524670135058214,-0.07869491762243931,16949.97680320842,11674.912519618449,0.6887863420207473,0.6840797633342613,0.0047065786864859405,Safe,Growing
131028,SGSMMQ,SMK IMPORT AND EXPORT PTE. LTD.,Aspire FT Pte Ltd,AspireBA,Key,SG AM-Rachel,2026-Q1,2026-Q2,15297.235231206374,14100.496970940303,0.9217676761729646,-0.049524670135058214,-0.07869491762243931,16940.660119586213,11668.495315186543,0.6887863420207473,0.9631360855166038,-0.2743497434958565,Risk,Declining
114025,SGWXHM,DIGIMENTAL GLOBAL NETWORK SOLUTION PTE. LTD.,Aspire FT Pte Ltd,AspireBA,Key,SG AM-Rachel,2026-Q1,2026-Q2,14810.423240957192,11464.205960368416,0.7740633588826114,-0.049524670135058214,-0.07869491762243931,16401.548551756816,11297.162630440262,0.6887863420207473,0.8033693550053247,-0.1145830129845774,Risk,Declining
136203,SGGTG8,IDA GLOBAL TRANSLATION PTE. LTD.,Aspire FT Pte Ltd,AspireBA,Key,SG AM-Rachel,2026-Q1,2026-Q2,14771.925216791433,5316.636183258565,0.35991491327177033,-0.049524670135058214,-0.07869491762243931,16358.914576871128,11267.796930832945,0.6887863420207473,0.4056063121566206,0.2831800298641267,Safe,Growing
55188,SGPRLF,Oxixo Private Ltd.,Aspire FT Pte Ltd,AspireBA,Key,SG AM-Rachel,2026-Q1,2026-Q2,14760.266747171414,9839.90926479345,0.6666484714227217,-0.049524670135058214,-0.07869491762243931,16346.003605158778,11258.904029855263,0.6887863420207473,0.750640672086052,-0.06185433006530472,Risk,Growing
81634,SGSUG2,SUNGIL GARMENT PTE. LTD.,Aspire FT Pte Ltd,AspireBA,Key,SG AM-Rachel,2026-Q1,2026-Q2,14748.71157501366,14702.562864684722,0.9968710005552539,-0.049524670135058214,-0.07869491762243931,16333.207028444805,11250.089922590058,0.6887863420207473,0.9958128326203283,-0.307026490599581,Risk,Declining
133221,SGMBS6,MAZON INTERNATIONAL PTE. LTD.,Aspire FT Pte Ltd,AspireBA,Key,SG AM-Rachel,2026-Q1,2026-Q2,14546.685205,14313.185205,0.9839482331053854,-0.049524670135058214,-0.07869491762243931,16109.476398833163,11095.987320621856,0.6887863420207473,0.9895415086854783,-0.300755166664731,Risk,Declining
116405,SG48H5,PENGYUAN PHARMA LIMITED,AFT HK Limited,AspireBA,Key,SG AM - Caroline,2026-Q1,2026-Q2,14068.995376155543,14019.495376155543,0.996481625114193,-0.049524670135058214,-0.07869491762243931,15580.46701179512,10731.612880029283,0.6887863420207473,0.9939063906133568,-0.30512004859260955,Risk,Declining
173232,SGPL4F,PANGO LABS PTE LTD,Aspire FT Pte Ltd,AspireBA,Key,SG AM-Rachel,2026-Q1,2026-Q2,14016.674623234343,12862.540570751959,0.9176599240900358,-0.049524670135058214,-0.07869491762243931,15522.525293632172,10691.70341592543,0.6887863420207473,0.9284504605830854,-0.23966411856233816,Risk,Declining
84818,SGTRS9,EXO TRAVEL (SINGAPORE) CO. PTE. LTD. (USD),Aspire FT Pte Ltd,AspireBA,Key,SG AM - Caroline,2026-Q1,2026-Q2,13869.070550833334,5127.88103407614,0.36973501686946336,-0.049524670135058214,-0.07869491762243931,15359.063701715793,10579.11330396846,0.6887863420207473,0.512578816719741,0.17620752530100625,Safe,Growing
174591,SGZYLU,ZYNK LABS PTE LTD,AFT HK Limited,AspireBA,Key,SG AM-Rachel,2026-Q1,2026-Q2,13794.316911386817,13654.076911386817,0.9898334944092639,-0.049524670135058214,-0.07869491762243931,15276.279069105703,10522.092379697424,0.6887863420207473,0.9927430503565369,-0.3039567083357896,Risk,Declining
139091,SGLMFD,LMF DIGITAL PTE. LTD.,Aspire FT Pte Ltd,AspireBA,Key,SG AM-Rachel,2026-Q1,2026-Q2,13693.331552934656,13369.388745069456,0.9763430245873382,-0.049524670135058214,-0.07869491762243931,15164.444570339372,10445.062304380439,0.6887863420207473,0.9819734058219822,-0.29318706380123494,Risk,Declining
68432,SGARP6,ARMADA-GROUP PTE. LTD.,Aspire FT Pte Ltd,AspireBA,Key,SG AM - Caroline,2026-Q1,2026-Q2,13626.123679329852,8866.962995884496,0.6507326077874396,-0.049524670135058214,-0.07869491762243931,15090.016366360625,10393.797174018744,0.6887863420207473,0.7052395627160941,-0.016453220695346826,Risk,Growing
120816,SGARL4,AROHA LABS PTE. LTD.,Aspire FT Pte Ltd,AspireBA,Key,SG AM - Caroline,2026-Q1,2026-Q2,13491.47714868127,10545.957678025707,0.7816755394390988,-0.049524670135058214,-0.07869491762243931,14940.904381251981,10291.090875244308,0.6887863420207473,0.7770019735065847,-0.08821563148583744,Risk,Declining
67575,SGSTNE,STELLAR NATION TRADING PTE.LTD.,Aspire FT Pte Ltd,AspireBA,Key,SG AM - Caroline,2026-Q1,2026-Q2,13460.162637636617,13426.66569378274,0.9975114012545275,-0.049524670135058214,-0.07869491762243931,14906.225664451164,10267.2046487531,0.6887863420207473,0.9973856368194932,-0.3085992947987459,Risk,Declining
150792,SGEZRZ,LENDTECH INVESTMENT HOLDINGS PTE LTD,Aspire FT Pte Ltd,AspireOS,Key,SG AM-Rachel,2026-Q1,2026-Q2,13338.369319088708,6432.175796435763,0.4822310465815784,-0.049524670135058214,-0.07869491762243931,14771.347748071374,10174.302582110484,0.6887863420207473,0.5468557248277078,0.14193061719303945,Safe,Growing
80606,SGHRZQ,HORIZON QUANTUM COMPUTING PTE. LTD.,Aspire FT Pte Ltd,AspireBA,Key,SG AM-Rachel,2026-Q1,2026-Q2,13280.72011446913,7191.299591300591,0.5414841611988935,-0.049524670135058214,-0.07869491762243931,14707.50512769822,10130.32865715864,0.6887863420207473,0.5919831761012693,0.09680316591947802,Safe,Growing
108293,SGLP5D,LETSVIBE PTE. LTD.,Aspire FT Pte Ltd,AspireOS,Key,SG AM-Rachel,2026-Q1,2026-Q2,13162.206360079,5265.7503892947325,0.40006593463431517,-0.049524670135058214,-0.07869491762243931,14576.25910825259,10039.9281915199,0.6887863420207473,0.7293835293128272,-0.04059718729207995,Risk,Growing
123082,SGGDFQ,GODSOURCE FURNITURE PTE. LTD.,Aspire FT Pte Ltd,AspireBA,Key,SG AM-Rachel,2026-Q1,2026-Q2,13139.477869166667,12984.477869166667,0.9882034886360496,-0.049524670135058214,-0.07869491762243931,14551.08883180999,10022.591248881352,0.6887863420207473,0.9906347302433983,-0.30184838822265103,Risk,Declining
67457,SGRARH,RARIUM INTERNATIONAL PTE. LTD.,Aspire FT Pte Ltd,AspireBA,Key,SG AM - Caroline,2026-Q1,2026-Q2,13110.772509554276,13072.793136878232,0.9971031933741229,-0.049524670135058214,-0.07869491762243931,14519.299574898258,10000.695242897562,0.6887863420207473,0.9957271723563436,-0.30694083033559627,Risk,Declining
60213,SGNPQM,UPSURGE LABS PTE LTD,Aspire FT Pte Ltd,AspireBA,Key,SG AM - Caroline,2026-Q1,2026-Q2,12980.475086957142,9793.795699550437,0.7545020990326695,-0.049524670135058214,-0.07869491762243931,14375.003934717919,9901.306376728204,0.6887863420207473,0.8156276568485844,-0.12684131482783711,Risk,Growing
56856,SGTNKF,Tonik Financial Pte Ltd,Aspire FT Pte Ltd,AspireBA,Key,SG AM - Caroline,2026-Q1,2026-Q2,12900.084028102465,6279.568997496376,0.4867851235555144,-0.049524670135058214,-0.07869491762243931,14285.976238920153,9839.985315801126,0.6887863420207473,0.5297878176410805,0.15899852437966677,Safe,Growing
70216,SGSTWN,SUNERA TECH PTE. LTD.,Aspire FT Pte Ltd,AspireBA,Key,SG AM-Rachel,2026-Q1,2026-Q2,12800.24055,12794.74055,0.999570320574952,-0.049524670135058214,-0.07869491762243931,14175.406295912366,9763.82624921935,0.6887863420207473,0.9961403073045485,-0.3073539652838012,Risk,Declining
69417,SGZAUT,ZAURAC TECHNOLOGIES PTE. LTD.,Aspire FT Pte Ltd,AspireBA,Key,SG AM-Rachel,2026-Q1,2026-Q2,12694.578665043437,5281.999906798397,0.41608312069019143,-0.049524670135058214,-0.07869491762243931,14058.392858281988,9683.228991546648,0.6887863420207473,0.4838830764011673,0.20490326561958,Safe,Growing
126651,SGKSFP,KALEI SG PTE. LTD.,Aspire FT Pte Ltd,AspireBA,Key,SG AM-Rachel,2026-Q1,2026-Q2,12652.71161774555,9282.20547889018,0.733613928722741,-0.049524670135058214,-0.07869491762243931,14012.027916659252,9651.293453008318,0.6887863420207473,0.7360092788446934,-0.04722293682394607,Risk,Growing
111587,SGGTYF,GOTYME FINANCIAL PTE. LTD.,Aspire FT Pte Ltd,AspireBA,Key,SG AM - Caroline,2026-Q1,2026-Q2,12605.710257606454,12594.710257606454,0.9991273795942309,-0.049524670135058214,-0.07869491762243931,13959.97706856545,9615.441539750711,0.6887863420207473,0.9167027779754734,-0.2279164359547261,Risk,Declining
83575,SGPP8Y,POURQUOI PAS PTE. LTD.,Aspire FT Pte Ltd,AspireBA,Key,SG AM-Rachel,2026-Q1,2026-Q2,12529.264346724562,12251.023573457167,0.9777927286417153,-0.049524670135058214,-0.07869491762243931,13875.318359052999,9557.129776905433,0.6887863420207473,0.9765574750798067,-0.28777113305905944,Risk,Declining
129420,SGRCCB,RACKSYS CREATION PTE. LTD.,Aspire FT Pte Ltd,AspireBA,Key,SG AM - Caroline,2026-Q1,2026-Q2,12447.236556864416,12402.238688627276,0.9963849109775033,-0.049524670135058214,-0.07869491762243931,13784.47809364695,9494.560242788208,0.6887863420207473,0.9952621758114034,-0.3064758337906561,Risk,Declining
112237,SGDPUP,DPUNION PTE. LTD.,Aspire FT Pte Ltd,AspireBA,Scaled,SG AM - Caroline,2026-Q1,2026-Q2,12433.410269045697,12371.613788461815,0.9950298044344494,-0.049524670135058214,-0.07869491762243931,13769.16640894626,9484.013763493043,0.6887863420207473,0.9893197550614885,-0.3005334130407412,Risk,Declining
130625,SGTAZP,TAZAPAY PTE. LTD.,Aspire FT Pte Ltd,AspireOS,Key,SG AM-Rachel,2026-Q1,2026-Q2,12418.540040978387,5350.436402202013,0.43084262598878587,-0.049524670135058214,-0.07869491762243931,13752.69863056791,9472.67098266261,0.6887863420207473,0.5215555800633784,0.16723076195736886,Safe,Growing
81753,SGBANS,BANDLAB SINGAPORE PTE. LTD.,Aspire FT Pte Ltd,AspireOS,Key,SG AM-Rachel,2026-Q1,2026-Q2,12405.35140552307,6713.686778619894,0.5411927932674965,-0.049524670135058214,-0.07869491762243931,13738.093103012585,9462.610894764495,0.6887863420207473,0.5562549578398885,0.13253138418085875,Safe,Growing
66817,SGKRRT,KRRAVE TECHNOLOGIES PTE. LTD.,Aspire FT Pte Ltd,AspireBA,Key,SG AM - Caroline,2026-Q1,2026-Q2,12358.264673834743,9373.264137711043,0.7584611905550441,-0.049524670135058214,-0.07869491762243931,13685.947711664556,9426.693861404647,0.6887863420207473,0.8326750543491982,-0.1438887123284509,Risk,Growing
94208,SGVADF,VIAS DEVELOPMENT PTE. LTD.,Aspire FT Pte Ltd,AspireBA,Key,SG AM - Caroline,2026-Q1,2026-Q2,12208.679641666668,12175.679641666668,0.9972970050022957,-0.049524670135058214,-0.07869491762243931,13520.292339916909,9312.592703862498,0.6887863420207473,0.9947825289953799,-0.3059961869746326,Risk,Declining
81235,SGDEDX,DECUBE DATA PTE. LTD.,Aspire FT Pte Ltd,AspireBA,Key,SG AM-Rachel,2026-Q1,2026-Q2,11919.28370597637,10906.024718010895,0.9149899429394885,-0.049524670135058214,-0.07869491762243931,13199.805787123518,9091.8459434971,0.6887863420207473,0.905947528677808,-0.21716118665706075,Risk,Declining
127034,SGMC4R,MUST COMPANY SG PTE. LTD.,Aspire FT Pte Ltd,AspireBA,Key,SG AM-Rachel,2026-Q1,2026-Q2,11827.623648439714,4305.542429390716,0.3640243008542716,-0.049524670135058214,-0.07869491762243931,13098.298432506748,9021.929064022412,0.6887863420207473,0.4292901720768992,0.2594961699438481,Safe,Growing
66036,SGSCNR,SCALE INSIGHTS PTE. LTD.,Aspire FT Pte Ltd,AspireBA,Key,SG AM-Rachel,2026-Q1,2026-Q2,11826.798544830579,10296.258540715642,0.8705871247985427,-0.049524670135058214,-0.07869491762243931,13097.384685702533,9021.299687703602,0.6887863420207473,0.8806640039302602,-0.19187766190951294,Risk,Declining
150189,SGENMN,MEDIATROPY PTE LTD (USD),Aspire FT Pte Ltd,AspireBA,Key,SG AM-Rachel,2026-Q1,2026-Q2,11764.146642820471,7365.69402108904,0.6261137543354445,-0.049524670135058214,-0.07869491762243931,13028.001914126029,8973.509782270161,0.6887863420207473,0.6644809199740527,0.024305422046694614,Safe,Growing
144668,SGHMGC,KIM HENG MARINE & OILFIELD PTE LTD,Aspire FT Pte Ltd,AspireBA,Key,SG AM - Caroline,2026-Q1,2026-Q2,11680.980645638867,7921.7350330980435,0.6781738000786475,-0.049524670135058214,-0.07869491762243931,12935.901160593397,8910.072041147065,0.6887863420207473,-0.24439877929111836,0.9331851213118656,Safe,Growing
137316,SGPVPB,PIVENE PTE. LTD.,Aspire FT Pte Ltd,AspireBA,Key,SG AM-Rachel,2026-Q1,2026-Q2,11445.19290841945,11419.761460812517,0.997777979994708,-0.049524670135058214,-0.07869491762243931,12674.782085399218,8730.216788512227,0.6887863420207473,0.9978154669080542,-0.30902912488730694,Risk,Declining
102393,SGHYJD,TELEPORT EVERYWHERE PTE. LTD.,Aspire FT Pte Ltd,AspireOS,Key,SG AM-Rachel,2026-Q1,2026-Q2,11392.699376993636,6071.33218429023,0.5329142798721301,-0.049524670135058214,-0.07869491762243931,12616.649026652274,8690.175531627441,0.6887863420207473,0.5893807181688938,0.09940562385185348,Safe,Growing
137806,SGEQTJ,LEARTBAR PARTNERS PTE. LTD.,Aspire FT Pte Ltd,AspireBA,Key,SG AM - Caroline,2026-Q1,2026-Q2,11382.070866812293,9770.321159112873,0.8583957412882623,-0.049524670135058214,-0.07869491762243931,12604.878665810049,8682.068267838662,0.6887863420207473,0.9404686473307363,-0.25168230530998903,Risk,Declining
117503,SGKASE,KAIN SUITE PTE. LTD.,Aspire FT Pte Ltd,AspireBA,Key,SG AM-Rachel,2026-Q1,2026-Q2,11213.0769498,6248.166308266918,0.5572213885840106,-0.049524670135058214,-0.07869491762243931,12417.729258279038,8553.162312014027,0.6887863420207473,0.6103847089260079,0.07840163309473935,Safe,Growing
84773,SGBRP3,JOIN BRANDS PTE. LTD.,Aspire FT Pte Ltd,AspireBA,Key,SG AM-Rachel,2026-Q1,2026-Q2,11117.389974468682,7793.920532867088,0.7010566824376935,-0.049524670135058214,-0.07869491762243931,12311.76236279375,8480.17376169742,0.6887863420207473,0.7173472860779669,-0.02856094405721965,Risk,Growing
134433,SGYDNT,YDNE TIME PTE LTD,Aspire FT Pte Ltd,AspireBA,Key,SG AM - Caroline,2026-Q1,2026-Q2,11084.804406329506,10935.620507472606,0.9865415849131524,-0.049524670135058214,-0.07869491762243931,12275.676035669532,8455.317992440565,0.6887863420207473,0.9801501002095369,-0.29136375818878957,Risk,Declining
115418,SGFYWD,"Intrepid Philippines, Inc.",Aspire FT Pte Ltd,AspireOS,Key,SG AM-Rachel,2026-Q1,2026-Q2,11064.879709335275,4194.824491091123,0.37911162175147833,-0.049524670135058214,-0.07869491762243931,12253.61077259007,8440.119740598337,0.6887863420207473,0.3659712070006494,0.3228151350200979,Safe,Growing
85644,SGGRVW,GREAT VISION SHIPPING PTE. LTD.,Aspire FT Pte Ltd,AspireBA,Key,SG AM - Caroline,2026-Q1,2026-Q2,11038.191490071642,11032.691490071642,0.9995017299704443,-0.049524670135058214,-0.07869491762243931,12224.055363072677,8419.762378189927,0.6887863420207473,0.9987663236839933,-0.30997998166324603,Risk,Declining
125582,SGKNSG,KINGMIDAS CAPITAL PTE. LTD,Aspire FT Pte Ltd,AspireBA,Key,SG AM-Rachel,2026-Q1,2026-Q2,11010.898352940243,11009.901993687527,0.9999095115384068,-0.049524670135058214,-0.07869491762243931,12193.830047664238,8398.943593753325,0.6887863420207473,0.9987878783496223,-0.31000153632887506,Risk,Declining
85191,SGMP9G,MONETRACK PTE. LTD.,Aspire FT Pte Ltd,AspireBA,Key,SG AM - Caroline,2026-Q1,2026-Q2,10942.4844731,10131.414031808912,0.9258787669943742,-0.049524670135058214,-0.07869491762243931,12118.066272817428,8346.758540418907,0.6887863420207473,0.9196509093779693,-0.23086456735722205,Risk,Declining
65951,SGATAG,Atlasv Global Pte. Ltd.,Aspire FT Pte Ltd,AspireBA,Key,SG AM - Caroline,2026-Q1,2026-Q2,10935.421164695927,4563.465143750161,0.4173104149370047,-0.049524670135058214,-0.07869491762243931,12110.244133379507,8341.370757608685,0.6887863420207473,0.43258539997338197,0.2562009420473653,Safe,Growing
105066,SGHNPB,HONGTEX PTE. LTD.,Aspire FT Pte Ltd,AspireBA,Key,SG AM-Rachel,2026-Q1,2026-Q2,10888.895435443987,10723.895435443987,0.984846947885741,-0.049524670135058214,-0.07869491762243931,12058.720014533172,8305.881648262675,0.6887863420207473,0.985237868300343,-0.2964515262795957,Risk,Declining
114313,SGEXLP,CILLIA EXPRESS LIMITED,AFT HK Limited,AspireBA,Key,SG AM - Caroline,2026-Q1,2026-Q2,10861.901308994658,7280.865294459547,0.6703122305512311,-0.049524670135058214,-0.07869491762243931,12028.825833363078,8285.290944566821,0.6887863420207473,0.6203658749061263,0.06842046711462102,Safe,Growing
109572,SGSPLU,SUNA OPTOELECTRONICS (SINGAPORE) PTE LTD,Aspire FT Pte Ltd,AspireBA,Key,SG AM-Rachel,2026-Q1,2026-Q2,10738.876021222452,10721.879077368574,0.9984172511331458,-0.049524670135058214,-0.07869491762243931,11892.583593849655,8191.4491507836565,0.6887863420207473,0.998082066151762,-0.3092957241310147,Risk,Declining
77903,SGMUTW,MULTIPLIER TECHNOLOGIES PTE. LTD. (USD Advance/SGD Debit),Aspire FT Pte Ltd,AspireOS,Key,SG AM-Rachel,2026-Q1,2026-Q2,10716.131577394477,3848.926273455561,0.3591712406345229,-0.049524670135058214,-0.07869491762243931,11867.395650624938,8174.100039506877,0.6887863420207473,0.37967538805407003,0.30911095396667726,Safe,Growing
65252,SGBYAW,DC Byte Asia Pte. Ltd.,Aspire FT Pte Ltd,AspireBA,Key,SG AM-Rachel,2026-Q1,2026-Q2,10616.603137024056,9486.44484629102,0.8935480326290287,-0.049524670135058214,-0.07869491762243931,11757.174590736404,8098.181278852604,0.6887863420207473,0.9323487219298089,-0.2435623799090616,Risk,Declining
80992,SGNVDN,INVIDEO INNOVATION PTE. LTD.,Aspire FT Pte Ltd,AspireOS,Key,SG AM-Rachel,2026-Q1,2026-Q2,10537.0170973,5392.590342911228,0.5117757988921763,-0.049524670135058214,-0.07869491762243931,11669.038399532472,8037.474274113607,0.6887863420207473,0.5597485717200686,0.12903777030067864,Safe,Growing
82427,SGTPBD,TERRA PAYMENT SERVICES (SINGAPORE) PTE LTD,Aspire FT Pte Ltd,AspireBA,Key,SG AM - Caroline,2026-Q1,2026-Q2,10470.188277976582,10052.843730421377,0.9601397284867298,-0.049524670135058214,-0.07869491762243931,11595.029972699778,7986.498280516806,0.6887863420207473,0.9532850420385796,-0.26449870001783227,Risk,Declining
134548,SGGVDN,GREENBOY VENTURES LIMITED,AFT HK Limited,AspireBA,Key,SG AM - Caroline,2026-Q1,2026-Q2,10339.931661054008,10330.00602113562,0.9990400671644887,-0.049524670135058214,-0.07869491762243931,11450.779522062076,7887.140540287218,0.6887863420207473,0.9997413197826569,-0.3109549777619096,Risk,Declining
119967,SGGTTH,GLORY TOP TRADING PTE. LTD.,Aspire FT Pte Ltd,AspireBA,Key,SG AM - Caroline,2026-Q1,2026-Q2,10259.026793131645,10120.529679387255,0.9864999754326489,-0.049524670135058214,-0.07869491762243931,11361.182817247285,7825.427553720726,0.6887863420207473,0.9799487875737307,-0.29116244555298343,Risk,Declining
142151,SGAEP5,CHRONOAI PTE. LTD.,Aspire FT Pte Ltd,AspireBA,Key,SG AM - Caroline,2026-Q1,2026-Q2,10162.603305937891,10069.851326427153,0.9908732067248415,-0.049524670135058214,-0.07869491762243931,11254.400284364327,7751.877203504562,0.6887863420207473,0.9910306829999745,-0.30224434097922726,Risk,Declining
123816,SGJNMR,Jingkaida Microelectronics Technology Pte Ltd,Aspire FT Pte Ltd,AspireBA,Key,SG AM - Caroline,2026-Q1,2026-Q2,10112.88311912657,10055.000507055585,0.9942763491489869,-0.049524670135058214,-0.07869491762243931,11199.338518422817,7713.951411156508,0.6887863420207473,0.9936405220488862,-0.3048541800281389,Risk,Declining
80816,SGSSHW,"(USD) SPROUT SOLUTIONS PHIL., INC",Aspire FT Pte Ltd,AspireBA,Key,SG AM-Rachel,2026-Q1,2026-Q2,10086.0214832,2082.5233960049054,0.20647620069754022,-0.049524670135058214,-0.07869491762243931,11169.591061603967,7693.461769189832,0.6887863420207473,0.33872123463972414,0.35006510738102314,Safe,Growing
147380,SGDYMA,Dyment labs PTE LTD,Aspire FT Pte Ltd,AspireBA,Key,SG AM-Rachel,2026-Q1,2026-Q2,10081.062841645784,9841.452950288092,0.9762316835911545,-0.049524670135058214,-0.07869491762243931,11164.099699278997,7689.679393821305,0.6887863420207473,0.9829595276496705,-0.29417318562892325,Risk,Declining
135388,SGHECK,HELMSMAN CAPITAL PTE. LTD.,Aspire FT Pte Ltd,AspireBA,Key,SG AM - Caroline,2026-Q1,2026-Q2,10052.036296649732,10035.289814986947,0.9983340209716148,-0.049524670135058214,-0.07869491762243931,11131.95475113694,7667.538392576092,0.6887863420207473,0.9950826827192871,-0.30629634069853984,Risk,Declining
125931,SGESH9,ESSENCE SHIPPING PTE. LTD.,Aspire FT Pte Ltd,AspireBA,Key,SG AM - Caroline,2026-Q1,2026-Q2,9965.843816290135,9745.672859666009,0.9779074445994994,-0.049524670135058214,-0.07869491762243931,11036.502370849466,7601.792096720709,0.6887863420207473,0.9431486403064597,-0.25436229828571244,Risk,Declining
107087,SGFGZX,OSOME LTD.,Aspire FT Pte Ltd,AspireOS,Key,SG AM-Rachel,2026-Q1,2026-Q2,9919.797413751985,6436.914513192482,0.648895763160332,-0.049524670135058214,-0.07869491762243931,10985.509074130257,7566.668610405906,0.6887863420207473,0.6575507955871577,0.03123554643358961,Safe,Growing
58755,SGASLS,Ascenda Loyalty Pte Ltd,Aspire FT Pte Ltd,AspireOS,Key,SG AM-Rachel,2026-Q1,2026-Q2,9836.63423226774,4264.37263763887,0.433519488164984,-0.049524670135058214,-0.07869491762243931,10893.41143879325,7503.233017053368,0.6887863420207473,0.4247749579174656,0.2640113841032817,Safe,Growing
95603,SGRNCW,PT. RINAIYANTI CAHAYA INTERMA,Aspire FT Pte Ltd,AspireBA,Key,Eureka,2026-Q1,2026-Q2,9663.109265791838,1485.674359518476,0.1537470309663039,-0.049524670135058214,-0.07869491762243931,10701.24419844553,7370.870846518041,0.6887863420207473,0.2713367362832754,0.41744960573747186,Safe,Growing
143847,SGMPR3,MOBIVERSA PTE. LTD.,Aspire FT Pte Ltd,AspireBA,Key,SG AM-Rachel,2026-Q1,2026-Q2,9604.538320955733,5571.751345418502,0.580116519839557,-0.049524670135058214,-0.07869491762243931,10636.380812718982,7326.193832332371,0.6887863420207473,0.6066817834638636,0.0821045585568837,Safe,Growing
78038,SGZUZG,MATHRIX SINGAPORE PTE. LTD.,Aspire FT Pte Ltd,AspireBA,Key,SG AM-Rachel,2026-Q1,2026-Q2,9391.959113719555,9228.814513050036,0.98262933231564,-0.049524670135058214,-0.07869491762243931,10400.963624982165,7164.041688742317,0.6887863420207473,0.9880985405758631,-0.2993121985551158,Risk,Declining
83894,SGYUTW,YUKICHI TRADING PTE. LTD.,Aspire FT Pte Ltd,AspireBA,Key,SG AM-Rachel,2026-Q1,2026-Q2,9373.837420503143,9131.869597027955,0.9741868977857523,-0.049524670135058214,-0.07869491762243931,10380.895067433648,7150.218740398841,0.6887863420207473,0.9608132042898557,-0.27202686226910844,Risk,Declining
120222,SGUPWW,UNITE PROPERTIES PTE. LTD.,Aspire FT Pte Ltd,AspireBA,Key,SG AM - Caroline,2026-Q1,2026-Q2,9340.41445623565,9335.188649857371,0.9994405166491525,-0.049524670135058214,-0.07869491762243931,10343.881380366223,7124.724218278969,0.6887863420207473,0.999109215336538,-0.31032287331579067,Risk,Declining
124255,SGMAA3,Hendra Permana,Aspire FT Pte Ltd,AspireBA,Key,SG AM-Rachel,2026-Q1,2026-Q2,9325.801221439526,4879.6844168210855,0.5232455958425264,-0.049524670135058214,-0.07869491762243931,10327.698204767024,7113.577467955717,0.6887863420207473,0.559399785999745,0.12938655602100224,Safe,Growing
124255,SGMAA3,Hendra Permana,Aspire FT Pte Ltd,AspireBA,Key,Eureka,2026-Q1,2026-Q2,9325.801221439526,4879.6844168210855,0.5232455958425264,-0.049524670135058214,-0.07869491762243931,10327.698204767023,7113.577467955716,0.6887863420207473,0.559399785999745,0.12938655602100224,Safe,Growing
74188,SGERAA,ERA AGRO TECHNOLOGY PTE. LTD.,Aspire FT Pte Ltd,AspireBA,Key,SG AM-Rachel,2026-Q1,2026-Q2,9308.044807517434,2740.4250092585403,0.29441467740306726,-0.049524670135058214,-0.07869491762243931,10308.034169491997,7100.033149029265,0.6887863420207473,0.30935573331971594,0.37943060870103135,Safe,Growing
65171,SGLETF,SD LEGOS TECHNOLOGIES PTE LTD,Aspire FT Pte Ltd,AspireBA,Key,SG AM - Caroline,2026-Q1,2026-Q2,9290.576963905794,6805.60819148316,0.7325280462045768,-0.049524670135058214,-0.07869491762243931,10288.689706445288,7086.708947088966,0.6887863420207473,0.7431795261971934,-0.05439318417644612,Risk,Growing
91438,SGECME,ECOMMERCE ENABLERS PTE. LTD. (SGD),Aspire FT Pte Ltd,AspireOS,Key,SG AM-Rachel,2026-Q1,2026-Q2,9258.416211446875,3731.1813249240686,0.40300427629413865,-0.049524670135058214,-0.07869491762243931,10253.07383414143,7062.177220686915,0.6887863420207473,0.5086058825697811,0.18018045945096617,Safe,Growing
90181,SGWULN,WULOOK INVESTMENT MANAGEMENT PTE. LTD.,Aspire FT Pte Ltd,AspireBA,Key,SG AM-Rachel,2026-Q1,2026-Q2,9142.9793298637,9139.992723650508,0.9996733443109254,-0.049524670135058214,-0.07869491762243931,10125.235244578784,6974.123746212967,0.6887863420207473,0.999627145370904,-0.31084080335015674,Risk,Declining
125477,SGKBLP,OKBL PTE. LTD.,Aspire FT Pte Ltd,AspireBA,Key,SG AM - Caroline,2026-Q1,2026-Q2,9031.46143505298,6802.698386865193,0.7532223257315264,-0.049524670135058214,-0.07869491762243931,10001.73666952999,6889.059614460333,0.6887863420207473,0.7434806951013541,-0.05469435308060677,Risk,Growing
176595,SGDP67,DIGITAL PATHOLOGY PTE LTD,Aspire FT Pte Ltd,AspireBA,Scaled,SG AM - Caroline,2026-Q1,2026-Q2,8992.696879052812,8981.590263791675,0.9987649294299012,-0.049524670135058214,-0.07869491762243931,9958.80752854732,6859.490608476788,0.6887863420207473,0.9987649294299012,-0.30997858740915396,Risk,Declining
58127,SGWDHP,WOODHOO PTE. LTD.,Aspire FT Pte Ltd,AspireBA,Key,SG AM - Caroline,2026-Q1,2026-Q2,8966.894391965168,8963.167586277244,0.9995843816682771,-0.049524670135058214,-0.07869491762243931,9930.23300789799,6839.808868923739,0.6887863420207473,0.9967201307717202,-0.3079337887509729,Risk,Declining
134985,SGUUDK,HAPPY SUPPLIER PTE. LTD.,Aspire FT Pte Ltd,AspireBA,Key,SG AM-Rachel,2026-Q1,2026-Q2,8933.074463941124,6830.748751955935,0.7646582125256709,-0.049524670135058214,-0.07869491762243931,9892.779710144196,6814.011548967289,0.6887863420207473,0.7218593406644673,-0.03307299864372004,Risk,Declining
56632,SGPRPH,PRIVYR PTE. LTD.,Aspire FT Pte Ltd,AspireBA,Key,SG AM-Rachel,2026-Q1,2026-Q2,8897.581824987152,3078.1278940163565,0.345951063397026,-0.049524670135058214,-0.07869491762243931,9853.473997433453,6786.938310888739,0.6887863420207473,0.44353247561883075,0.24525386640191654,Safe,Growing
76663,SGMEPR,MEDIQ PTE. LTD.,Aspire FT Pte Ltd,AspireBA,Key,SG AM-Rachel,2026-Q1,2026-Q2,8769.005108333333,8570.176843995456,0.977326017959674,-0.049524670135058214,-0.07869491762243931,9711.08392346236,6688.861972698125,0.6887863420207473,0.9803225261955459,-0.29153618417479865,Risk,Declining
123806,SGKPTZ,SHOPUP PTE. LTD.,Aspire FT Pte Ltd,AspireBA,Key,SG AM - Caroline,2026-Q1,2026-Q2,8760.089012637183,4375.06249592283,0.4994312831309619,-0.049524670135058214,-0.07869491762243931,9701.209946596657,6682.0609122916,0.6887863420207473,0.5102487975578983,0.17853754446284897,Safe,Growing
116072,SGFYDR,INTREPID DIGITAL COMMERCE PTE. LTD.,Aspire FT Pte Ltd,AspireOS,Key,SG AM-Rachel,2026-Q1,2026-Q2,8662.638221886391,3128.1455580066176,0.3611077223683742,-0.049524670135058214,-0.07869491762243931,9593.289744054024,6607.726950752122,0.6887863420207473,0.3774861272753415,0.3113002147454058,Safe,Growing
159924,SGFLJY,One Funnel Limited,AFT HK Limited,AspireBA,Key,SG AM-Rachel,2026-Q1,2026-Q2,8539.08908922927,4857.731149608333,0.5688816569129843,-0.049524670135058214,-0.07869491762243931,9456.467381530356,6513.485576162808,0.6887863420207473,0.5688816569129843,0.11990468510776298,Safe,Growing
98527,SGWALH,WALKER HOLDINGS PTE. LTD.,Aspire FT Pte Ltd,AspireBA,Key,SG AM-Rachel,2026-Q1,2026-Q2,8496.974485083996,5807.3090103602135,0.6834560961145225,-0.049524670135058214,-0.07869491762243931,9409.828287333741,6481.361205075961,0.6887863420207473,0.7216607238220752,-0.032874381801327957,Risk,Growing
110521,SGTTKK,TRY-V Technologies Pte. Ltd.,Aspire FT Pte Ltd,AspireBA,Key,SG AM-Rachel,2026-Q1,2026-Q2,8384.956461666667,8347.716049675018,0.9955586636422146,-0.049524670135058214,-0.07869491762243931,9285.775853459312,6395.915582928822,0.6887863420207473,0.9912186261045416,-0.3024322840837943,Risk,Declining
125793,SGNSG8,NINE SMART PTE. LTD.,Aspire FT Pte Ltd,AspireBA,Key,SG AM-Rachel,2026-Q1,2026-Q2,8351.29843581263,8309.864314045806,0.995038601232457,-0.049524670135058214,-0.07869491762243931,9248.50185147977,6370.24175945286,0.6887863420207473,0.9846402564493667,-0.2958539144286194,Risk,Declining
124956,SGKH5E,KAYNES HOLDING PTE. LTD.,Aspire FT Pte Ltd,AspireBA,Scaled,SG AM - Caroline,2026-Q1,2026-Q2,8328.926148224013,8284.613804984196,0.9946797051082911,-0.049524670135058214,-0.07869491762243931,9223.726046283075,6353.176523220809,0.6887863420207473,0.9042797101509202,-0.21549336813017295,Risk,Declining
92525,SGVBPX,VIBEFAM PTE. LTD.,Aspire FT Pte Ltd,AspireBA,Key,SG AM-Rachel,2026-Q1,2026-Q2,8312.772835559295,7501.9072958738225,0.9024554675406432,-0.049524670135058214,-0.07869491762243931,9205.837337930068,6340.855025230866,0.6887863420207473,0.7978223775550961,-0.10903603553434882,Risk,Declining
72736,SGKNEN,KINETIC INNOVATION PTE. LTD.,Aspire FT Pte Ltd,AspireBA,Key,SG AM-Rachel,2026-Q1,2026-Q2,8235.706966218844,6878.627380243485,0.8352200252459422,-0.049524670135058214,-0.07869491762243931,9120.492066082923,6282.070367626504,0.6887863420207473,0.8457310935399879,-0.1569447515192406,Risk,Declining
104921,SGTTMS,TTMFS SINGAPORE PTE LTD,Aspire FT Pte Ltd,AspireOS,Key,SG AM-Rachel,2026-Q1,2026-Q2,8234.2635637,2915.256809091681,0.3540397737501778,-0.049524670135058214,-0.07869491762243931,9118.893594782856,6280.969362426906,0.6887863420207473,0.4977993352294534,0.19098700679129388,Safe,Growing
147173,SGSGG4,Stadioo Global Limited,AFT HK Limited,AspireBA,Key,SG AM - Caroline,2026-Q1,2026-Q2,8118.8372450950765,8071.613243850603,0.9941834033841479,-0.049524670135058214,-0.07869491762243931,8991.066703008839,6192.923945229999,0.6887863420207473,0.9880738387868429,-0.29928749676609556,Risk,Declining
121003,SGCTYN,LION CITY INNOVATIONS PTE. LTD.,Aspire FT Pte Ltd,AspireBA,Key,SG AM - Caroline,2026-Q1,2026-Q2,8024.979683119338,7846.546292222473,0.9777652532538865,-0.049524670135058214,-0.07869491762243931,8887.125759887276,6121.330843231111,0.6887863420207473,0.9664582143297159,-0.2776718723089686,Risk,Declining
115951,SGSKPL,SKINSEOUL PTE. LTD.,Aspire FT Pte Ltd,AspireBA,Key,SG AM-Rachel,2026-Q1,2026-Q2,8013.609907862971,3667.487272165679,0.4576573247678468,-0.049524670135058214,-0.07869491762243931,8874.53449778383,6112.658153865455,0.6887863420207473,0.5739289185836344,0.11485742343711292,Safe,Growing
146268,SGGDL7,Goodsol HK Limited,AFT HK Limited,AspireBA,Key,SG AM - Caroline,2026-Q1,2026-Q2,7861.2385304423005,1989.8083888998324,0.253116399050148,-0.049524670135058214,-0.07869491762243931,8705.793435897629,5996.431615100161,0.6887863420207473,0.359887127926546,0.3288992140942013,Safe,Growing
104000,SGRPBE,RADIAROSE PTE. LTD.,Aspire FT Pte Ltd,AspireBA,Key,SG AM-Rachel,2026-Q1,2026-Q2,7840.629972922936,6378.1182997161795,0.8134701320866515,-0.049524670135058214,-0.07869491762243931,8682.970843238643,5980.711724987149,0.6887863420207473,0.8346939458808158,-0.1459076038600685,Risk,Declining
108170,SGYNCA,YING CONSERVATION RESEARCH PTE. LTD.,Aspire FT Pte Ltd,AspireBA,Key,SG AM - Caroline,2026-Q1,2026-Q2,7815.9957668912275,7787.999577529022,0.996418090516272,-0.049524670135058214,-0.07869491762243931,8655.69011535602,5961.921132221212,0.6887863420207473,0.997137328497697,-0.3083509864769497,Risk,Declining
74054,SGPL5G,Primal Co Ltd,Aspire FT Pte Ltd,AspireBA,Key,SG AM-Rachel,2026-Q1,2026-Q2,7810.623300606118,4518.702566590207,0.578532902263965,-0.049524670135058214,-0.07869491762243931,8649.740469948574,5957.823097724698,0.6887863420207473,0.6148219875021037,0.07396435451864358,Safe,Growing
121299,SGHGFS,HIGH FIVE SOLUTIONS PTE. LTD.,Aspire FT Pte Ltd,AspireBA,Key,SG AM-Rachel,2026-Q1,2026-Q2,7633.041743715865,6366.624251596564,0.8340874405459766,-0.049524670135058214,-0.07869491762243931,8453.080828299884,5822.366622530386,0.6887863420207473,0.8314093645410117,-0.14262302252026438,Risk,Declining
87141,SGTCZF,THE CARE SVC PTE. LTD.,Aspire FT Pte Ltd,AspireBA,Key,SG AM - Caroline,2026-Q1,2026-Q2,7628.0613638180175,7529.9249862657725,0.987134820648175,-0.049524670135058214,-0.07869491762243931,8447.565392220053,5818.567665488309,0.6887863420207473,0.9882811986660786,-0.29949485664533126,Risk,Declining
62907,SGAMEN,AMENLI INSURANCE PTE. LTD.,Aspire FT Pte Ltd,AspireBA,Key,SG AM - Caroline,2026-Q1,2026-Q2,7566.746430526669,5142.9173215513565,0.6796735385241914,-0.049524670135058214,-0.07869491762243931,8379.663223661852,5771.79757919183,0.6887863420207473,0.8054249420338802,-0.11663860001313286,Risk,Growing
54182,SGFEXR,PROPERTY SCOUT HOLDING PTE. LTD.,Aspire FT Pte Ltd,AspireOS,Key,SG AM-Rachel,2026-Q1,2026-Q2,7480.6640208350445,6778.323336005447,0.9061125211781405,-0.049524670135058214,-0.07869491762243931,8284.332739242951,5706.135243545869,0.6887863420207473,0.9010899644046275,-0.21230362238388023,Risk,Declining
80725,SGSPSV,SPROUT SOLUTIONS PHIL INC,Aspire FT Pte Ltd,AspireBA,Key,SG AM-Rachel,2026-Q1,2026-Q2,7459.210245539689,4892.9851113504665,0.6559655714592945,-0.049524670135058214,-0.07869491762243931,8260.574124691533,5689.770634337518,0.6887863420207473,0.6946751417465103,-0.005888799725763061,Risk,Growing
146925,SGLT93,LUSTRON TECHNOLOGY PTE. LTD.,Aspire FT Pte Ltd,AspireBA,Key,SG AM-Rachel,2026-Q1,2026-Q2,7405.511353200444,7394.511353200444,0.9985146197912118,-0.049524670135058214,-0.07869491762243931,8201.106209727292,5648.809946721697,0.6887863420207473,0.9975429021612267,-0.30875656014047936,Risk,Declining
144644,SGMGHM,MADINA GLOBAL SOLUTION PTE. LTD.,Aspire FT Pte Ltd,AspireBA,Key,SG AM-Rachel,2026-Q1,2026-Q2,7383.642424770624,4234.788150304903,0.5735364616382352,-0.049524670135058214,-0.07869491762243931,8176.887840975703,5632.12866509958,0.6887863420207473,0.617250291852325,0.07153605016842224,Safe,Growing
79689,SGPSGR,PURPLE STONE CONSULTING PTE. LTD.,Aspire FT Pte Ltd,AspireBA,Key,SG AM-Rachel,2026-Q1,2026-Q2,7353.036902466667,6974.500452219782,0.9485197129746622,-0.049524670135058214,-0.07869491762243931,8142.99428156465,5608.783244294778,0.6887863420207473,0.9865489942880608,-0.29776265226731347,Risk,Declining
55758,SGMMUS,IMMUNI SOFTWARE PTE. LTD.,Aspire FT Pte Ltd,AspireOS,Key,SG AM-Rachel,2026-Q1,2026-Q2,7337.1654540362515,4621.844243186595,0.6299223142970111,-0.049524670135058214,-0.07869491762243931,8125.4177189112415,5596.676747999439,0.6887863420207473,0.6395572141057712,0.049229127914976134,Safe,Growing
92699,SGWATH,WAFFO TECHNOLOGIES PTE. LTD.,Aspire FT Pte Ltd,AspireBA,Key,SG AM-Rachel,2026-Q1,2026-Q2,7308.99408001459,6095.542641446935,0.8339783251589071,-0.049524670135058214,-0.07869491762243931,8094.219815160037,5575.188057995931,0.6887863420207473,0.8774181912465059,-0.1886318492257586,Risk,Declining
124505,SGBWXZ,Benjamin Warwick Limited,AFT HK Limited,AspireBA,Key,SG AM - Caroline,2026-Q1,2026-Q2,7245.286900268031,6709.533097698212,0.9260548533212675,-0.049524670135058214,-0.07869491762243931,8023.668394399887,5526.593202966181,0.6887863420207473,0.919375270949406,-0.23058892892865868,Risk,Declining
70699,SGNTCD,INTELLECT COMPANY PTE. LTD.,Aspire FT Pte Ltd,AspireOS,Key,SG AM-Rachel,2026-Q1,2026-Q2,7230.673738953897,3543.657276974258,0.49008673394893615,-0.049524670135058214,-0.07869491762243931,8007.485300177054,5515.446508693859,0.6887863420207473,0.5185469987151512,0.1702393433055961,Safe,Growing
72147,SGCP9H,CARGOAI PTE. LTD.,Aspire FT Pte Ltd,AspireBA,Key,SG AM-Rachel,2026-Q1,2026-Q2,7225.513499038835,4848.766422215839,0.6710618453430113,-0.049524670135058214,-0.07869491762243931,8001.770681213869,5511.5103572021635,0.6887863420207473,0.650280222450511,0.03850611957023631,Safe,Growing
133261,SGJVHF,CAVAS C A PTE LTD,Aspire FT Pte Ltd,AspireBA,Key,SG AM - Caroline,2026-Q1,2026-Q2,7216.568011666666,7194.568011666666,0.9969514594798478,-0.049524670135058214,-0.07869491762243931,7991.864155041948,5504.686877278074,0.6887863420207473,0.9890300498445269,-0.3002437078237796,Risk,Declining
99918,SGJTY5,DIGITAL ASSET NETWORK SECURITY PTE LTD,Aspire FT Pte Ltd,AspireBA,Key,SG AM-Rachel,2026-Q1,2026-Q2,7209.457692468635,7153.653386004056,0.9922595694648607,-0.049524670135058214,-0.07869491762243931,7983.98995430861,5499.263235358621,0.6887863420207473,0.9943963868366043,-0.30561004481585696,Risk,Declining
108958,SGMBBP,MOBBIN PTE. LTD.,Aspire FT Pte Ltd,AspireOS,Key,SG AM-Rachel,2026-Q1,2026-Q2,7195.875287523555,3257.800934367643,0.4527317114592196,-0.049524670135058214,-0.07869491762243931,7968.9483535027475,5488.902786161414,0.6887863420207473,0.5029320286085277,0.18585431341221959,Safe,Growing
138436,SGYNQE,YAQITE INTERNATIONAL PTE. LTD.,Aspire FT Pte Ltd,AspireBA,Key,SG AM-Rachel,2026-Q1,2026-Q2,7147.353093486818,6861.853093486818,0.9600551426149397,-0.049524670135058214,-0.07869491762243931,7915.213284059864,5451.89080424162,0.6887863420207473,0.9709982425304863,-0.282211900509739,Risk,Declining
96850,SGGP5G,GOROCKY PTE. LTD.,Aspire FT Pte Ltd,AspireBA,Key,SG AM-Rachel,2026-Q1,2026-Q2,7139.68057778335,4800.23207943238,0.6723314897825168,-0.049524670135058214,-0.07869491762243931,7906.716488473595,5446.038327490855,0.6887863420207473,0.6728600860187556,0.015926256001991712,Safe,Growing
122962,SGEP8R,ERANOVA PTE. LTD.,Aspire FT Pte Ltd,AspireBA,Key,SG AM - Caroline,2026-Q1,2026-Q2,7125.100668964751,7098.702394568346,0.9962950313795018,-0.049524670135058214,-0.07869491762243931,7890.5702191551645,5434.916997709732,0.6887863420207473,0.9906626462486635,-0.3018763042279162,Risk,Declining
69527,SGTAPG,TABLEVIBE PTE. LTD.,Aspire FT Pte Ltd,AspireOS,Key,SG AM-Rachel,2026-Q1,2026-Q2,7114.603830133993,5163.616679870706,0.725777120294477,-0.049524670135058214,-0.07869491762243931,7878.945675486046,5426.910170798219,0.6887863420207473,0.7244472023826851,-0.03566086036193783,Risk,Growing
80746,SGDGP4,DIGITIBLE PTE. LTD.,Aspire FT Pte Ltd,AspireBA,Key,SG AM-Rachel,2026-Q1,2026-Q2,7103.041653384583,6491.8972579431975,0.9139601842050051,-0.049524670135058214,-0.07869491762243931,7866.141341657489,5418.090720538435,0.6887863420207473,0.979590657549924,-0.29080431552917674,Risk,Declining
83147,SGGEKD,META 1 NETWORK PTE. LTD.,Aspire FT Pte Ltd,AspireBA,Key,SG AM - Caroline,2026-Q1,2026-Q2,7089.331438451891,5254.463752400092,0.7411790234408222,-0.049524670135058214,-0.07869491762243931,7850.958199878548,5407.632779852136,0.6887863420207473,0.7372074772607831,-0.04842113524003577,Risk,Growing
122858,SGNUPR,NUTRIMOTION PTE. LTD.,Aspire FT Pte Ltd,AspireBA,Key,SG AM - Caroline,2026-Q1,2026-Q2,7082.964065,6871.144996330122,0.9700945724521506,-0.049524670135058214,-0.07869491762243931,7843.90676163676,5402.77584549959,0.6887863420207473,0.9755585877659062,-0.2867722457451589,Risk,Declining
107154,SGAPMP,APPLABS MEDIA PTE. LTD.,Aspire FT Pte Ltd,AspireBA,Key,SG AM-Rachel,2026-Q1,2026-Q2,7062.211869881577,6863.15575699383,0.9718139137489394,-0.049524670135058214,-0.07869491762243931,7820.925099988557,5386.946390839365,0.6887863420207473,0.9317213410426083,-0.242934999021861,Risk,Declining
104726,SGBLTH,BLUE TECHNOLOGY COMPANY LIMITED,Aspire FT Pte Ltd,AspireBA,Scaled,SG AM-Rachel,2026-Q1,2026-Q2,7061.3780227,1382.1313406874049,0.19573110747566677,-0.049524670135058214,-0.07869491762243931,7820.001670265391,5386.310345058233,0.6887863420207473,0.199507226292616,0.4892791157281313,Safe,Growing
93539,SGNTAL,INITIA LABS PTE. LTD.,Aspire FT Pte Ltd,AspireBA,Key,SG AM - Caroline,2026-Q1,2026-Q2,7055.087911826742,2772.4100436280296,0.3929660520573417,-0.049524670135058214,-0.07869491762243931,7813.035795137774,5381.512345410108,0.6887863420207473,0.4232796834249047,0.2655066585958426,Safe,Growing
102761,SGAYK4,SHARDLAB PTE. LTD.,Aspire FT Pte Ltd,AspireBA,Key,SG AM - Caroline,2026-Q1,2026-Q2,7022.859423948869,5034.94179002634,0.7169361489504588,-0.049524670135058214,-0.07869491762243931,7777.344910408912,5356.928951474231,0.6887863420207473,0.7374104455525692,-0.048624103531821894,Risk,Growing
133106,SGGCAC,GRAND CORNERSTONE PTE. LTD.,Aspire FT Pte Ltd,AspireBA,Key,SG AM-Rachel,2026-Q1,2026-Q2,6965.351034957908,6739.104553295122,0.9675182944079496,-0.049524670135058214,-0.07869491762243931,7713.658233882334,5313.062438514031,0.6887863420207473,0.9825771895898437,-0.29379084756909646,Risk,Declining
77290,SGGLDA,GOLDIE AGENCY PTE. LTD.,Aspire FT Pte Ltd,AspireBA,Key,SG AM-Rachel,2026-Q1,2026-Q2,6940.419142676957,2472.9504061954094,0.35631139205831586,-0.049524670135058214,-0.07869491762243931,7686.047838481725,5294.044775264299,0.6887863420207473,0.4896309691687149,0.1991553728520324,Safe,Growing
86540,SGEMBA,Embassy Alliance Travel Pte Ltd,Aspire FT Pte Ltd,AspireBA,Key,SG AM - Caroline,2026-Q1,2026-Q2,6939.315303044003,5246.8860749836085,0.7561100549332306,-0.049524670135058214,-0.07869491762243931,7684.8254102608225,5293.202783401641,0.6887863420207473,0.6873447957632385,0.0014415462575088078,Safe,Growing
113081,SGLPRM,YOBO LABS PTE. LTD.,Aspire FT Pte Ltd,AspireBA,Key,SG AM - Caroline,2026-Q1,2026-Q2,6935.525489185841,6525.633359902259,0.9408996290298834,-0.049524670135058214,-0.07869491762243931,7680.628446069762,5290.311971788888,0.6887863420207473,0.9346801694801409,-0.2458938274593936,Risk,Declining
146485,SGSYPB,SYNGENTIX PTE. LTD.,Aspire FT Pte Ltd,AspireBA,Key,SG AM-Rachel,2026-Q1,2026-Q2,6806.075337489622,6682.950902502295,0.9819096279600189,-0.049524670135058214,-0.07869491762243931,7537.27110147975,5191.569390806925,0.6887863420207473,0.9836794244058495,-0.29489308238510226,Risk,Declining
147638,SGBMM2,BEFITTING MOTION PTE. LTD.,Aspire FT Pte Ltd,AspireBA,Key,SG AM-Rachel,2026-Q1,2026-Q2,6755.3829166666665,6744.3829166666665,0.9983716689141542,-0.049524670135058214,-0.07869491762243931,7481.132651699697,5152.901993336208,0.6887863420207473,0.9960864841348512,-0.30730014211410395,Risk,Declining
107103,SGQUFM,QUANTUM FRONTIER PTE LTD,Aspire FT Pte Ltd,AspireBA,Key,SG AM - Caroline,2026-Q1,2026-Q2,6746.206077699584,6732.160412824551,0.9979179905396808,-0.049524670135058214,-0.07869491762243931,7470.9699191821,5145.9020419804765,0.6887863420207473,0.9976985472270933,-0.308912205206346,Risk,Declining
84886,SGPATN,PATEN INTERNATIONAL PTE. LTD.,Aspire FT Pte Ltd,AspireBA,Key,SG AM - Caroline,2026-Q1,2026-Q2,6738.694558859553,5849.6581812895665,0.8680699399854613,-0.049524670135058214,-0.07869491762243931,7462.651416803889,5140.172371156298,0.6887863420207473,0.817628609308525,-0.1288422672877777,Risk,Declining
87493,SGGTZ7,GETGO TECHNOLOGIES PTE. LTD.,Aspire FT Pte Ltd,AspireOS,Key,SG AM-Rachel,2026-Q1,2026-Q2,6734.197223804881,1415.6621975416424,0.21021988969039737,-0.049524670135058214,-0.07869491762243931,7457.6709204296385,5136.74187327723,0.6887863420207473,0.3139739336884611,0.3748124083322862,Safe,Growing
95083,SGGP5E,GLINTS PTE. LTD.,Aspire FT Pte Ltd,AspireOS,Key,SG AM-Rachel,2026-Q1,2026-Q2,6705.679397159603,3377.1406805975034,0.5036239403315338,-0.049524670135058214,-0.07869491762243931,7426.0893436776905,5114.988914551009,0.6887863420207473,0.39345981227300275,0.29532652974774454,Safe,Growing
137290,SGDRDU,SPRING STAR FINANCIAL CONSULTING PTE. LTD.,Aspire FT Pte Ltd,AspireBA,Key,SG AM-Rachel,2026-Q1,2026-Q2,6681.192740538351,6675.389393170553,0.9991313905176562,-0.049524670135058214,-0.07869491762243931,7398.972016852553,5096.310870201741,0.6887863420207473,0.9990742005946268,-0.3102878585738795,Risk,Declining
105103,SGTML4,TIME LOGISTICS & TECHNOLOGY PTE. LTD.,Aspire FT Pte Ltd,AspireBA,Key,SG AM - Caroline,2026-Q1,2026-Q2,6663.949751313594,6559.63445424125,0.984346325983058,-0.049524670135058214,-0.07869491762243931,7379.876564930208,5083.158183722916,0.6887863420207473,0.9899313164219602,-0.3011449744012129,Risk,Declining
137265,SGS2GT,OMNISHELF PTE. LTD.,Aspire FT Pte Ltd,AspireBA,Key,SG AM - Caroline,2026-Q1,2026-Q2,6618.12198660771,4022.430006495403,0.6077902484473853,-0.049524670135058214,-0.07869491762243931,7329.125394918847,5048.201470977518,0.6887863420207473,0.6968046683453463,-0.008018326324598979,Risk,Growing
77244,SGPPYK,PROPFUNNELS PTE. LIMITED,Aspire FT Pte Ltd,AspireBA,Scaled,SG AM-Rachel,2026-Q1,2026-Q2,6618.001998298936,655.2252041999673,0.09900649839156646,-0.049524670135058214,-0.07869491762243931,7328.9925159295035,5048.109945744516,0.6887863420207473,0.045635766459468895,0.6431505755612784,Safe,Growing
50195,SGDEPK,Deliveree Private Limited,Aspire FT Pte Ltd,AspireBA,Key,SG AM-Rachel,2026-Q1,2026-Q2,6617.568287233301,4136.790322837112,0.6251224231139197,-0.049524670135058214,-0.07869491762243931,7328.5122100675635,5047.779117626819,0.6887863420207473,0.6246869815822369,0.06409936043851039,Safe,Growing
91832,SGFRPA,FIRST PAGE DIGITAL PTE. LTD.,Aspire FT Pte Ltd,AspireOS,Key,SG AM-Rachel,2026-Q1,2026-Q2,6617.420311998843,-274.7115161848907,-0.041513384858866846,-0.049524670135058214,-0.07869491762243931,7328.34833743861,5047.666244398165,0.6887863420207473,-0.0025490776214902445,0.6913354196422375,Safe,Growing
115420,SG7BGM,PT INTREPID DIGITAL INDONESIA,Aspire FT Pte Ltd,AspireOS,Key,SG AM-Rachel,2026-Q1,2026-Q2,6608.243481842955,9.022342393682152,0.0013653162778387723,-0.049524670135058214,-0.07869491762243931,7318.185614678817,5040.666299763477,0.6887863420207473,0.016407326267558697,0.6723790157531886,Safe,Growing
63053,SGTNAP,Tinai Private Limited,Aspire FT Pte Ltd,AspireBA,Key,SG AM - Caroline,2026-Q1,2026-Q2,6556.270442169134,6324.262534344818,0.9646128222026856,-0.049524670135058214,-0.07869491762243931,7260.6289655727205,5001.022065966717,0.6887863420207473,0.9719804877559901,-0.2831941457352428,Risk,Declining
111928,SGTPVY,TPA VENTURES PTE. LTD. (PHP),Aspire FT Pte Ltd,AspireOS,Key,SG AM-Rachel,2026-Q1,2026-Q2,6535.626218972351,3178.7705736673793,0.4863758218668758,-0.049524670135058214,-0.07869491762243931,7237.766875572553,4985.274970624551,0.6887863420207473,0.41590011160581875,0.27288623041492854,Safe,Growing
74424,SGMVST,MVS TECHNOLOGY PTE. LTD.,Aspire FT Pte Ltd,AspireBA,Key,SG AM-Rachel,2026-Q1,2026-Q2,6534.216543731395,6344.574930229251,0.970977145885366,-0.049524670135058214,-0.07869491762243931,7236.205754966437,4984.1996920728125,0.6887863420207473,0.9440835183728095,-0.25529717635206217,Risk,Declining
78894,SGDAGC,Dagaz Company Limited,Aspire FT Pte Ltd,AspireBA,Key,SG AM - Caroline,2026-Q1,2026-Q2,6530.757836666667,6228.757836666667,0.9537572809231367,-0.049524670135058214,-0.07869491762243931,7232.375469300354,4981.561443619977,0.6887863420207473,0.9342968945654729,-0.24551055254472565,Risk,Declining
103959,SGSQPY,SQUAREX PTE. LTD.,Aspire FT Pte Ltd,AspireOS,Key,SG AM-Rachel,2026-Q1,2026-Q2,6490.152853383434,4457.356430014647,0.686787588938055,-0.049524670135058214,-0.07869491762243931,7187.408178769354,4950.588588064545,0.6887863420207473,0.7064789594040761,-0.017692617383328835,Risk,Growing
70664,SGHRCH,HRC SG HOLDINGS PTE. LTD.,Aspire FT Pte Ltd,AspireBA,Key,SG AM - Caroline,2026-Q1,2026-Q2,6489.886417998847,3760.881915643848,0.5794988807837278,-0.049524670135058214,-0.07869491762243931,7187.11311948407,4950.385355258754,0.6887863420207473,0.643916828547376,0.044869513473371314,Safe,Growing
122552,SGCPS7,CYBROG PTE. LTD.,Aspire FT Pte Ltd,AspireBA,Key,SG AM - Caroline,2026-Q1,2026-Q2,6488.1525821778305,2573.5556374314865,0.3966546108210729,-0.049524670135058214,-0.07869491762243931,7185.193012817535,4949.062812011623,0.6887863420207473,0.6458726512991106,0.042913690721636644,Safe,Growing
89596,SGSACE,Sasi Capital Limited,AFT HK Limited,AspireBA,Key,SG AM - Caroline,2026-Q1,2026-Q2,6478.948697041422,6470.448697041422,0.9986880587580695,-0.049524670135058214,-0.07869491762243931,7175.000328484779,4942.042230254691,0.6887863420207473,0.9970956363426919,-0.30830929432194465,Risk,Declining
102400,SGCLBN,COVE LIVING PTE. LTD.,Aspire FT Pte Ltd,AspireOS,Key,SG AM-Rachel,2026-Q1,2026-Q2,6469.518786037327,3919.926909317809,0.6059070294034683,-0.049524670135058214,-0.07869491762243931,7164.5573356913865,4934.849239448781,0.6887863420207473,0.6479107294216165,0.04087561259913075,Safe,Growing
99490,SGBRLG,X HOLDINGS LABO PTE. LTD.,Aspire FT Pte Ltd,AspireBA,Key,SG AM-Rachel,2026-Q1,2026-Q2,6418.971066666667,6413.471066666667,0.9991431648557256,-0.049524670135058214,-0.07869491762243931,7108.579133046525,4896.292218016131,0.6887863420207473,0.9996320305095503,-0.310845688488803,Risk,Declining
122276,SGGPDD,GRAAS PTE. LTD.,Aspire FT Pte Ltd,AspireOS,Key,SG AM-Rachel,2026-Q1,2026-Q2,6384.681564841885,3431.4980141313085,0.5374579733196589,-0.049524670135058214,-0.07869491762243931,7070.6058138614635,4870.136714400266,0.6887863420207473,0.5996925776021951,0.08909376441855221,Safe,Growing
105159,SGRPKP,RENTLY PTE. LTD.,Aspire FT Pte Ltd,AspireBA,Key,SG AM - Caroline,2026-Q1,2026-Q2,6380.326609707461,3264.2930961309894,0.5116184947592609,-0.049524670135058214,-0.07869491762243931,7065.782993681657,4866.814821730393,0.6887863420207473,0.6331010223020866,0.05568531971866064,Safe,Growing
110383,SGPSEC,POSEIDON CONSULTANCY LIMITED,AFT HK Limited,AspireBA,Key,SG AM-Rachel,2026-Q1,2026-Q2,6372.291891982311,3245.9277286785095,0.5093815198206114,-0.049524670135058214,-0.07869491762243931,7056.885083694569,4860.686062858757,0.6887863420207473,0.4573219094241843,0.23146443259656296,Safe,Growing
71355,SGUANN,UANGCERMAT INTERNATIONAL PTE. LTD.,Aspire FT Pte Ltd,AspireOS,Key,SG AM-Rachel,2026-Q1,2026-Q2,6258.898082156088,5886.394035549744,0.9404840849432681,-0.049524670135058214,-0.07869491762243931,6931.30905881837,4774.191012038774,0.6887863420207473,0.9181300367386337,-0.2293436947178864,Risk,Declining
93695,SGSGLK,SERVI GROUP PTE. LTD.,Aspire FT Pte Ltd,AspireBA,Key,SG AM-Rachel,2026-Q1,2026-Q2,6253.2977114784935,4366.5741973662825,0.6982834336115232,-0.049524670135058214,-0.07869491762243931,6925.1070246103,4769.91913558351,0.6887863420207473,0.7034779893823437,-0.01469164736159645,Risk,Growing
77008,SGPXLT,PIXELATION LABS PTE. LTD.,Aspire FT Pte Ltd,AspireBA,Key,SG AM - Caroline,2026-Q1,2026-Q2,6239.057105212628,4256.006483450484,0.682155398112106,-0.049524670135058214,-0.07869491762243931,6909.33651006956,4759.056620561209,0.6887863420207473,0.6643098497292917,0.024476492291455543,Safe,Growing
116549,SGCSUV,OCEAN STAR GLOBAL PTE. LTD.,Aspire FT Pte Ltd,AspireBA,Key,SG AM-Rachel,2026-Q1,2026-Q2,6197.05321689375,5879.919155743798,0.9488250221435223,-0.049524670135058214,-0.07869491762243931,6862.820026211119,4727.016701800685,0.6887863420207473,0.9191144585953429,-0.23032811657459562,Risk,Declining
52843,SGTNYA,TINY ASSETS PTE. LTD.,Aspire FT Pte Ltd,AspireBA,Key,SG AM - Caroline,2026-Q1,2026-Q2,6188.811636838957,256.95547387065795,0.04151935604908835,-0.049524670135058214,-0.07869491762243931,6853.693030094084,4720.730151531596,0.6887863420207473,0.08609272626888999,0.6026936157518573,Safe,Growing
128220,SGNEV8,NEW VISION MEDICAL SUPPLIES PTE. LTD.,Aspire FT Pte Ltd,AspireBA,Key,SG AM - Caroline,2026-Q1,2026-Q2,6157.311984460064,6113.311984460064,0.9928540245953026,-0.049524670135058214,-0.07869491762243931,6818.8092817061815,4696.70270208352,0.6887863420207473,0.9760205804998614,-0.2872342384791141,Risk,Declining
116044,SGQUHN,PO QUAN HOLDINGS PTE. LTD.,Aspire FT Pte Ltd,AspireBA,Key,SG AM - Caroline,2026-Q1,2026-Q2,6132.473797648748,5719.413690263544,0.9326438039501163,-0.049524670135058214,-0.07869491762243931,6791.302658816648,4677.756515922094,0.6887863420207473,0.9109962390536408,-0.2222098970328935,Risk,Declining
101000,SGAVRE,AVIRAL ELECTRONICS PTE. LTD.,Aspire FT Pte Ltd,AspireBA,Key,SG AM-Rachel,2026-Q1,2026-Q2,6126.735044027809,5883.082523061083,0.9602312619664803,-0.049524670135058214,-0.07869491762243931,6784.947374797478,4673.379083090027,0.6887863420207473,0.9488604779729523,-0.26007413595220497,Risk,Declining
116075,SGFYDC,INTREPID MALAYSIA SDN. BHD.,Aspire FT Pte Ltd,AspireOS,Key,SG AM-Rachel,2026-Q1,2026-Q2,6112.562256448171,1200.4369439103905,0.19638850183391487,-0.049524670135058214,-0.07869491762243931,6769.251964894652,4662.568299116543,0.6887863420207473,0.21667456963613085,0.47211177238461643,Safe,Growing
91687,SGECEF,ECOMMERCE ENABLERS PTE. LTD. (USD),Aspire FT Pte Ltd,AspireOS,Key,SG AM-Rachel,2026-Q1,2026-Q2,6094.4669918,-116.94428288520606,-0.019188598944346172,-0.049524670135058214,-0.07869491762243931,6749.212675209592,4648.7655100776765,0.6887863420207473,0.024519144898018805,0.6642671971227285,Safe,Growing
114625,SGPSPB,POSEIDON PHAROS PTE. LTD.,Aspire FT Pte Ltd,AspireBA,Key,SG AM - Caroline,2026-Q1,2026-Q2,6088.04693046494,5690.331112013605,0.9346726753269359,-0.049524670135058214,-0.07869491762243931,6742.10288867756,4643.86838621973,0.6887863420207473,0.9427675106284739,-0.25398116860772657,Risk,Declining
84486,SGTT7X,TANGE TECHNOLOGY (SINGAPORE) PTE. LTD.,Aspire FT Pte Ltd,AspireBA,Key,SG AM - Caroline,2026-Q1,2026-Q2,6079.347809957865,6079.241899728303,0.999982578685597,-0.049524670135058214,-0.07869491762243931,6732.46919725409,4637.2328311440015,0.6887863420207473,0.9995248728719721,-0.3107385308512248,Risk,Declining
145961,SGGSTQ,GRAPESEED SERVICES PTE. LTD.,Aspire FT Pte Ltd,AspireBA,Key,SG AM-Rachel,2026-Q1,2026-Q2,6020.979710591101,4412.551167813649,0.7328626535731098,-0.049524670135058214,-0.07869491762243931,6667.83044925462,4592.710544356646,0.6887863420207473,0.7379414477713444,-0.04915510575059712,Risk,Growing
116971,SGMPN4,MANGOSTAR PTE. LTD.,Aspire FT Pte Ltd,AspireBA,Key,SG AM - Caroline,2026-Q1,2026-Q2,6016.089082324906,5933.932636496468,0.9863438781068234,-0.049524670135058214,-0.07869491762243931,6662.414407075975,4588.980048476186,0.6887863420207473,0.9748905134224951,-0.2861041714017478,Risk,Declining
85545,SGNCRG,INCRED GLOBAL WEALTH PTE. LTD.,Aspire FT Pte Ltd,AspireBA,Key,SG AM - Caroline,2026-Q1,2026-Q2,6007.437927184434,4851.966499588088,0.8076598640549096,-0.049524670135058214,-0.07869491762243931,6652.833834072981,4582.381080642992,0.6887863420207473,0.7417419670438592,-0.05295562502311191,Risk,Declining
83461,SGTEEJ,TEECOM JOINT STOCK COMPANY,Aspire FT Pte Ltd,AspireBA,Key,SG AM-Rachel,2026-Q1,2026-Q2,5989.2964171,1640.8477774308687,0.27396336116310677,-0.049524670135058214,-0.07869491762243931,6632.743330674728,4568.543016297954,0.6887863420207473,0.2298292993036721,0.45895704271707516,Safe,Growing
133410,SGNNTX,Nonce Technology Pte. Ltd.,Aspire FT Pte Ltd,AspireBA,Key,SG AM-Rachel,2026-Q1,2026-Q2,5967.608693888787,5966.862796827162,0.9998750090530587,-0.049524670135058214,-0.07869491762243931,6608.725634526647,4551.999955224351,0.6887863420207473,0.9993672145236998,-0.3105808725029525,Risk,Declining
70402,SGGLPQ,RAON WORLD SOLUTION PTE. LTD,Aspire FT Pte Ltd,AspireBA,Key,SG AM-Rachel,2026-Q1,2026-Q2,5959.755830524536,3574.318344699441,0.5997424133372348,-0.049524670135058214,-0.07869491762243931,6600.029116024537,4546.009912056968,0.6887863420207473,0.6373207649985931,0.05146557702215415,Safe,Growing
72657,SGANSG,ANSOVA GLOBAL TRAVEL PTE. LTD.,Aspire FT Pte Ltd,AspireBA,Key,SG AM - Caroline,2026-Q1,2026-Q2,5946.872528710071,3206.268588453315,0.5391520623612195,-0.049524670135058214,-0.07869491762243931,6585.761724959537,4536.182727955126,0.6887863420207473,0.6184385744340095,0.07034776758673777,Safe,Growing
139243,SGQVYK,CKNIGHT PTE LTD,Aspire FT Pte Ltd,AspireBA,Scaled,SG AM - Caroline,2026-Q1,2026-Q2,5903.059276672058,901.5958000233353,0.15273365178396514,-0.049524670135058214,-0.07869491762243931,6537.241492362499,4502.762654430617,0.6887863420207473,0.1795352665752029,0.5092510754455444,Safe,Growing
121341,SGPAV3,PANACEA VENTURES PTE. LTD.,Aspire FT Pte Ltd,AspireBA,Key,SG AM - Caroline,2026-Q1,2026-Q2,5835.619428021966,5830.688369335767,0.9991550068082711,-0.049524670135058214,-0.07869491762243931,6462.5563916086785,4451.320577078942,0.6887863420207473,0.9974255582251002,-0.30863921620435286,Risk,Declining
70049,SGTAPB,TANKARD PTE. LTD.,Aspire FT Pte Ltd,AspireBA,Key,SG AM-Rachel,2026-Q1,2026-Q2,5821.86748360166,5770.1282834344975,0.9911129546811405,-0.049524670135058214,-0.07869491762243931,6447.327037226221,4440.830805782512,0.6887863420207473,0.9922599487431286,-0.30347360672238133,Risk,Declining
146263,SGTFSU,GALAXY MINES AND MINERALS EXPORTS LIMITED,AFT HK Limited,AspireBA,Key,SG AM - Caroline,2026-Q1,2026-Q2,5798.944239845257,5756.944239845257,0.9927573023186854,-0.049524670135058214,-0.07869491762243931,6421.941085095247,4423.3453086755035,0.6887863420207473,0.9793899725322259,-0.29060363051147864,Risk,Declining
63024,SGCAG5,CAPX GLOBAL PTE. LTD.,Aspire FT Pte Ltd,AspireBA,Key,SG AM - Caroline,2026-Q1,2026-Q2,5793.989434914005,4141.669559917921,0.7148217314585753,-0.049524670135058214,-0.07869491762243931,6416.45397157241,4419.565859823857,0.6887863420207473,0.7188362020747076,-0.030049860053960264,Risk,Growing
103445,SGCNM8,KG CONNECT LIMITED,AFT HK Limited,AspireBA,Key,SG AM - Caroline,2026-Q1,2026-Q2,5767.122162711124,2205.5061000503097,0.3824274981221312,-0.049524670135058214,-0.07869491762243931,6386.700272956276,4399.071918592462,0.6887863420207473,0.4592992562512241,0.2294870857695232,Safe,Growing
79892,SGFCGY,FOCUS GLOBAL INC,Aspire FT Pte Ltd,AspireOS,Key,SG AM-Rachel,2026-Q1,2026-Q2,5738.894557741462,1900.2960497527283,0.3311257996872116,-0.049524670135058214,-0.07869491762243931,6355.440097208605,4377.540336488298,0.6887863420207473,0.3212177393384893,0.367568602682258,Safe,Growing
86188,SGTSAK,HR TECH SOLUTIONS PTE. LTD.,Aspire FT Pte Ltd,AspireBA,Key,SG AM-Rachel,2026-Q1,2026-Q2,5704.838970508713,5589.670607671834,0.9798121623708848,-0.049524670135058214,-0.07869491762243931,6317.72582271631,4351.563259318784,0.6887863420207473,0.9769115328528785,-0.2881251908321312,Risk,Declining
107790,SGSP3G,SHOPTASTIC PTE LTD,Aspire FT Pte Ltd,AspireBA,Key,SG AM-Rachel,2026-Q1,2026-Q2,5655.604137419224,3567.799586985628,0.6308432309432629,-0.049524670135058214,-0.07869491762243931,6263.201553408345,4314.0076873107955,0.6887863420207473,0.7037330675765809,-0.014946725555833651,Risk,Growing
107250,SGQELS,QUANTUM EMPIRE PTE. LTD.,Aspire FT Pte Ltd,AspireBA,Key,SG AM - Caroline,2026-Q1,2026-Q2,5589.781932189483,5441.689303969759,0.9735065464062357,-0.049524670135058214,-0.07869491762243931,6190.307884044881,4263.799523433466,0.6887863420207473,0.9708003952346079,-0.28201405321386064,Risk,Declining
91494,SGJGCC,JGC CONSTRUCTION INTERNATIONAL PTE. LTD.,Aspire FT Pte Ltd,AspireOS,Key,SG AM-Rachel,2026-Q1,2026-Q2,5587.571238720422,3829.7974678029436,0.6854136268122075,-0.049524670135058214,-0.07869491762243931,6187.8596895756245,4262.113240520432,0.6887863420207473,0.7463184372940997,-0.05753209527335246,Risk,Growing
70215,SGFACT,Factail Technologies Pte. Ltd.,Aspire FT Pte Ltd,AspireBA,Key,SG AM-Rachel,2026-Q1,2026-Q2,5583.9927,5583.9927,1.0,-0.049524670135058214,-0.07869491762243931,6183.896698402959,4259.383586327151,0.6887863420207473,0.9979501234707097,-0.30916378144996237,Risk,Declining
134854,SGQPUW,QUAK PTE. LTD,Aspire FT Pte Ltd,AspireBA,Key,SG AM-Rachel,2026-Q1,2026-Q2,5556.9153554002005,5094.251934541237,0.9167409630579764,-0.049524670135058214,-0.07869491762243931,6153.910358723071,4238.729405108449,0.6887863420207473,0.7153423829738539,-0.026556040953106597,Risk,Declining
105386,SGNTFZ,ONELOT TECHNOLOGIES INCORPORATED PTE. LTD.,Aspire FT Pte Ltd,AspireBA,Key,SG AM - Caroline,2026-Q1,2026-Q2,5551.494066647247,4896.565051099685,0.8820265305726792,-0.049524670135058214,-0.07869491762243931,6147.906645713116,4234.594129585779,0.6887863420207473,0.9350236429137555,-0.24623730089300822,Risk,Declining
105899,SGPP3P,PROCREDIT PTE. LTD.,Aspire FT Pte Ltd,AspireBA,Key,SG AM - Caroline,2026-Q1,2026-Q2,5546.0684027392035,5491.372213376998,0.990137844434953,-0.049524670135058214,-0.07869491762243931,6141.89808751289,4230.4555167622275,0.6887863420207473,0.9804788291459697,-0.29169248712522244,Risk,Declining
138643,SGPWNU,POWER INNOVATION (SINGAPORE) PTE. LTD.,Aspire FT Pte Ltd,AspireBA,Key,SG AM - Caroline,2026-Q1,2026-Q2,5543.966728333334,5065.566600883994,0.9137079728483221,-0.049524670135058214,-0.07869491762243931,6139.570624330573,4228.852391910691,0.6887863420207473,0.9496525730599061,-0.26086623103915885,Risk,Declining
150613,SGRYNL,orynda Limited,AFT HK Limited,AspireBA,Key,SG AM - Caroline,2026-Q1,2026-Q2,5516.163873121696,5163.075070090034,0.9359901534557126,-0.049524670135058214,-0.07869491762243931,6108.780830398819,4207.644802376865,0.6887863420207473,0.9325270889303557,-0.24374074690960845,Risk,Declining
179972,SGTNAD,TINY AWAY ESCAPE TALBINGO PTE LTD,Aspire FT Pte Ltd,AspireBA,Key,SG AM - Caroline,2026-Q1,2026-Q2,5514.210517962017,5512.915610746764,0.9997651690643594,-0.049524670135058214,-0.07869491762243931,6106.617620815333,4206.1548131608315,0.6887863420207473,0.9997651690643594,-0.3109788270436121,Risk,Declining
70484,SGCLGS,COLABS GLOBAL PTE. LTD.,Aspire FT Pte Ltd,AspireOS,Key,SG AM-Rachel,2026-Q1,2026-Q2,5503.453571166419,3008.4647512328893,0.5466503373435866,-0.049524670135058214,-0.07869491762243931,6094.705025053131,4197.949579901813,0.6887863420207473,0.6549981717419392,0.033788170278808094,Safe,Growing
74194,SGBEDH,BEAM DATA PTE LTD,Aspire FT Pte Ltd,AspireBA,Key,SG AM - Caroline,2026-Q1,2026-Q2,5494.775956930263,5494.775956930263,1.0,-0.049524670135058214,-0.07869491762243931,6085.095150379588,4191.330429478146,0.6887863420207473,0.9964666243286886,-0.3076802823079413,Risk,Declining
77547,SGRUGC,RUGGABLE CORPORATION PTE. LTD.,Aspire FT Pte Ltd,AspireBA,Key,SG AM-Rachel,2026-Q1,2026-Q2,5484.620728333333,5468.120728333333,0.9969915877838623,-0.049524670135058214,-0.07869491762243931,6073.848917089906,4183.584177589033,0.6887863420207473,0.995212573007934,-0.3064262309871867,Risk,Declining
98978,SGTL7P,RENTLY SERVICE PTE. LTD.,Aspire FT Pte Ltd,AspireBA,Key,SG AM - Caroline,2026-Q1,2026-Q2,5470.4549236691955,4645.635517756723,0.8492228859534698,-0.049524670135058214,-0.07869491762243931,6058.161240296778,4172.778720075891,0.6887863420207473,0.9224002274742357,-0.23361388545348838,Risk,Declining
60553,SGQAAT,QOALA TECHNOLOGY PTE. LTD.,Aspire FT Pte Ltd,AspireBA,Key,SG AM-Rachel,2026-Q1,2026-Q2,5458.8705510978325,3228.983302679738,0.5915112425647019,-0.049524670135058214,-0.07869491762243931,6045.332326086857,4163.942339185142,0.6887863420207473,0.5599181036840054,0.12886823833674188,Safe,Growing
87629,SGFTXV,FUNPOWER TECHNOLOGY PTE. LTD.,Aspire FT Pte Ltd,AspireBA,Key,SG AM-Rachel,2026-Q1,2026-Q2,5443.470316823164,4747.0359819004725,0.8720605984071695,-0.049524670135058214,-0.07869491762243931,6028.277601447666,4152.195277786742,0.6887863420207473,0.9398170462710012,-0.25103070425025387,Risk,Declining
80159,SGGP7R,GEONODE PTE. LTD.,Aspire FT Pte Ltd,AspireBA,Key,SG AM-Rachel,2026-Q1,2026-Q2,5430.667264157983,4659.157536889599,0.8579346349646032,-0.049524670135058214,-0.07869491762243931,6014.099080923151,4142.429306499395,0.6887863420207473,0.880209332233529,-0.19142299021278175,Risk,Declining
58971,SGACPM,ACHERON PTE. LTD.,Aspire FT Pte Ltd,AspireBA,Key,SG AM - Caroline,2026-Q1,2026-Q2,5413.455869305735,3631.7117673561097,0.6708675299170527,-0.049524670135058214,-0.07869491762243931,5995.038617645374,4129.3007197210745,0.6887863420207473,0.6176497118758211,0.07113663014492622,Safe,Growing
128829,SGLNDN,LINDER INTERNATION PTE. LTD.,Aspire FT Pte Ltd,AspireBA,Key,SG AM-Rachel,2026-Q1,2026-Q2,5413.04029,5407.482287778939,0.9989732198684483,-0.049524670135058214,-0.07869491762243931,5994.578391489157,4128.983722230431,0.6887863420207473,0.9986778762898476,-0.3098915342691003,Risk,Declining
123885,SGCA87,CLOUD AMBASSADORS TECHNOLOGY PTE. LTD.,Aspire FT Pte Ltd,AspireBA,Key,SG AM-Rachel,2026-Q1,2026-Q2,5411.2896403171735,2890.029735691273,0.5340741168535711,-0.049524670135058214,-0.07869491762243931,5992.639664600477,4127.6483536286005,0.6887863420207473,0.5922660373717019,0.09652030464904537,Safe,Growing
94677,SGSPCQ,SYNKRONOUS PTE. LTD.,Aspire FT Pte Ltd,AspireBA,Key,SG AM-Rachel,2026-Q1,2026-Q2,5409.467479610232,4902.386493315337,0.9062604612734577,-0.049524670135058214,-0.07869491762243931,5990.621744057777,4126.258437519506,0.6887863420207473,0.9172208630066335,-0.22843452098588624,Risk,Declining
103207,SGQHJA,AJ HACKETT INTERNATIONAL PTE. LTD.,Aspire FT Pte Ltd,AspireBA,Key,SG AM - Caroline,2026-Q1,2026-Q2,5396.066886767843,3668.0082610672775,0.6797558922151083,-0.049524670135058214,-0.07869491762243931,5975.781487938764,4116.03667179264,0.6887863420207473,0.7302842291975036,-0.04149788717675629,Risk,Growing
86112,SGANPH,ANPRI HOLDINGS PTE. LTD.,Aspire FT Pte Ltd,AspireBA,Key,SG AM - Caroline,2026-Q1,2026-Q2,5391.428860739474,5240.377584116611,0.9719830715521774,-0.049524670135058214,-0.07869491762243931,5970.645185764884,4112.49885700678,0.6887863420207473,0.98169353727059,-0.29290719524984277,Risk,Declining
59273,SGCEAB,Ocean Bay Energy Pte Ltd,Aspire FT Pte Ltd,AspireBA,Key,SG AM - Caroline,2026-Q1,2026-Q2,5388.386446217799,5363.784805854869,0.9954343214599617,-0.049524670135058214,-0.07869491762243931,5967.275916117424,4110.178150091024,0.6887863420207473,0.9922990307407192,-0.30351268871997195,Risk,Declining
107711,SGHAHM,HATI HEALTH PTE. LTD.,Aspire FT Pte Ltd,AspireBA,Scaled,SG AM - Caroline,2026-Q1,2026-Q2,5339.68520301048,4627.531772463669,0.8666300720976391,-0.049524670135058214,-0.07869491762243931,5913.342561749346,4073.029592222927,0.6887863420207473,0.8259674732320947,-0.13718113121134745,Risk,Declining
79727,SGAMES,AMERICAN STUDY EDUCATION JOINT STOCK COMPANY,Aspire FT Pte Ltd,AspireBA,Key,SG AM - Caroline,2026-Q1,2026-Q2,5336.269973110573,4532.506681215566,0.8493773186242141,-0.049524670135058214,-0.07869491762243931,5909.560424121852,4070.424507481466,0.6887863420207473,0.5336995443455181,0.15508679767522915,Safe,Declining
67502,SGQAPF,Qapita Fintech Pte Ltd,Aspire FT Pte Ltd,AspireOS,Key,SG AM-Rachel,2026-Q1,2026-Q2,5305.3090142862075,2795.395860772173,0.5269053797327721,-0.049524670135058214,-0.07869491762243931,5875.273242648032,4046.807965175912,0.6887863420207473,0.5891522619003877,0.09963408012035957,Safe,Growing
151523,SGALJZ,ACP LUCENTE VENTURES SPV PTE LTD,Aspire FT Pte Ltd,AspireBA,Key,SG AM - Caroline,2026-Q1,2026-Q2,5253.807755833333,4813.807755833333,0.9162512180786467,-0.049524670135058214,-0.07869491762243931,5818.239059542755,4007.5235988246873,0.6887863420207473,0.9206299991111803,-0.23184365709043298,Risk,Declining
87708,SGRDPE,RIDMIK PTE. LTD.,Aspire FT Pte Ltd,AspireBA,Key,SG AM-Rachel,2026-Q1,2026-Q2,5248.652407030953,5039.43859359839,0.9601395182595239,-0.049524670135058214,-0.07869491762243931,5812.529857158204,4003.5911781983764,0.6887863420207473,0.9681755505718272,-0.27938920855107996,Risk,Declining
141727,SGWCYA,Concision Technology Limited,Aspire FT Pte Ltd,AspireBA,Key,SG AM - Caroline,2026-Q1,2026-Q2,5241.6815625,3830.2015625,0.7307200021271799,-0.049524670135058214,-0.07869491762243931,5804.810115246643,3998.273925405768,0.6887863420207473,0.7239409342645654,-0.03515459224381812,Risk,Growing
96109,SGMEHX,MASTER ENTERPRISE PTE. LTD.,Aspire FT Pte Ltd,AspireBA,Key,SG AM - Caroline,2026-Q1,2026-Q2,5206.88530733496,2790.621974359152,0.5359484239892881,-0.049524670135058214,-0.07869491762243931,5766.275600788579,3971.7318781506524,0.6887863420207473,0.5793440196710671,0.10944232234968021,Safe,Growing
123356,SGAPG5,APPFACTORY GLOBAL PTE. LTD.,Aspire FT Pte Ltd,AspireBA,Key,SG AM-Rachel,2026-Q1,2026-Q2,5198.76449903941,3882.1462498699784,0.7467440101561232,-0.049524670135058214,-0.07869491762243931,5757.282351279636,3965.5374507185074,0.6887863420207473,0.6530763289417486,0.03571001307899868,Safe,Growing
97373,SGPPJD,AP PREMIER PTE. LTD.,Aspire FT Pte Ltd,AspireBA,Key,SG AM-Rachel,2026-Q1,2026-Q2,5193.3971249999995,5062.3971249999995,0.9747756628567087,-0.049524670135058214,-0.07869491762243931,5751.338345192127,3961.4433005085434,0.6887863420207473,0.9083997694156403,-0.21961342739489298,Risk,Declining
3363,SGPRPP,Propseller Pte. Ltd.,Aspire FT Pte Ltd,AspireOS,Key,SG AM-Rachel,2026-Q1,2026-Q2,5164.600304138796,3024.218953013485,0.5855668928706725,-0.049524670135058214,-0.07869491762243931,5719.447801093082,3939.47752929351,0.6887863420207473,0.6134330531472103,0.07535328887353698,Safe,Growing
102906,SGWS5A,WOOSA SLEEP PTE. LTD.,Aspire FT Pte Ltd,AspireOS,Key,SG AM-Rachel,2026-Q1,2026-Q2,5147.985452340572,1996.0592705884417,0.3877359967443027,-0.049524670135058214,-0.07869491762243931,5701.047969162877,3926.8039763645083,0.6887863420207473,0.41451177112623894,0.27427457089450835,Safe,Growing
142855,SGZWER,ECOMWARTS GROUP PRIVATE LIMITED,Aspire FT Pte Ltd,AspireBA,Key,SG AM-Rachel,2026-Q1,2026-Q2,5143.294833432426,2921.552572047092,0.5680313236286645,-0.049524670135058214,-0.07869491762243931,5695.853423908627,3923.2260445403717,0.6887863420207473,0.5997353049472267,0.08905103707352058,Safe,Growing
76600,SGDCXM,DF CAPITAL MANAGEMENT PTE. LTD.,Aspire FT Pte Ltd,AspireBA,Key,SG AM - Caroline,2026-Q1,2026-Q2,5135.716774846366,4818.6366721217255,0.9382598152067827,-0.049524670135058214,-0.07869491762243931,5687.461233232833,3917.4456182232516,0.6887863420207473,0.9588514572422902,-0.27006511522154286,Risk,Declining
118593,SGSP45,SGAPH PTE. LTD.,Aspire FT Pte Ltd,AspireBA,Key,SG AM-Rachel,2026-Q1,2026-Q2,5130.226586279264,4336.574193606839,0.8452987642309914,-0.049524670135058214,-0.07869491762243931,5681.381218308438,3913.257786984046,0.6887863420207473,0.7558194782097246,-0.06703313618897733,Risk,Declining
111507,SGXAPM,XAPADS MEDIA PTE. LTD.,Aspire FT Pte Ltd,AspireBA,Key,SG AM-Rachel,2026-Q1,2026-Q2,5123.265819834465,3222.496543141353,0.628992649701216,-0.049524670135058214,-0.07869491762243931,5673.672637200096,3907.9482216002602,0.6887863420207473,0.6481123055974827,0.040674036423264615,Safe,Growing
70361,SGATN2,ATAB INTERNATIONAL PTE. LTD.,Aspire FT Pte Ltd,AspireBA,Key,SG AM - Caroline,2026-Q1,2026-Q2,5109.721866970684,5106.982496908737,0.9994638905730556,-0.049524670135058214,-0.07869491762243931,5658.67361949048,3897.6171030581495,0.6887863420207473,0.9993733476083945,-0.3105870055876472,Risk,Declining
150091,SGBN5B,Beynor International Limited,AFT HK Limited,AspireBA,Key,SG AM - Caroline,2026-Q1,2026-Q2,5102.739922836561,3119.5862234839615,0.611355128942142,-0.049524670135058214,-0.07869491762243931,5650.941585514248,3892.2913836592807,0.6887863420207473,0.5308342061224084,0.1579521358983389,Safe,Growing
110911,SGAMWC,AMW CYBERTECH PTE. LTD.,Aspire FT Pte Ltd,AspireBA,Key,SG AM-Rachel,2026-Q1,2026-Q2,5096.507920467541,5035.887551582916,0.9881055087462585,-0.049524670135058214,-0.07869491762243931,5644.0400616504685,3887.537708282779,0.6887863420207473,0.9971427007587982,-0.3083563587380509,Risk,Declining
79131,SGWSAF,WHITE STORM CONSULTING PTE. LTD.,Aspire FT Pte Ltd,AspireBA,Key,SG AM-Rachel,2026-Q1,2026-Q2,5082.419066157667,5082.419066157667,1.0,-0.049524670135058214,-0.07869491762243931,5628.437602204001,3876.7909473141203,0.6887863420207473,0.996683635721014,-0.30789729370026675,Risk,Declining
76401,SGEMPQ,EMURGO GROUP PTE. LTD.,Aspire FT Pte Ltd,AspireBA,Key,SG AM - Caroline,2026-Q1,2026-Q2,5051.805123669028,3645.4311720359174,0.7216096192935312,-0.049524670135058214,-0.07869491762243931,5594.534718004208,3853.4391037221912,0.6887863420207473,0.7348398461152552,-0.046053504094507924,Risk,Growing
68092,SGZGNP,ZIGNIFY PTE. LTD.,Aspire FT Pte Ltd,AspireBA,Scaled,SG AM-Rachel,2026-Q1,2026-Q2,5048.787322913585,1700.9467435579552,0.33690203899822074,-0.049524670135058214,-0.07869491762243931,5591.192706448924,3851.137171808036,0.6887863420207473,0.37331662720028963,0.31546971482045766,Safe,Growing
68726,SGKNPS,SYLNDR PTE LTD,Aspire FT Pte Ltd,AspireBA,Key,SG AM-Rachel,2026-Q1,2026-Q2,5029.712924216978,2413.572994325385,0.4798629724381593,-0.049524670135058214,-0.07869491762243931,5570.069091598215,3836.5875144047614,0.6887863420207473,0.5621516201644022,0.12663472185634506,Safe,Growing
74389,SGZERB,ZERO BYTE LABS PTE. LTD.,Aspire FT Pte Ltd,AspireBA,Key,SG AM-Rachel,2026-Q1,2026-Q2,5009.894930936706,4752.245219313925,0.9485718333069696,-0.049524670135058214,-0.07869491762243931,5548.1219957119965,3821.4706545113145,0.6887863420207473,0.960993937342044,-0.2722075953212967,Risk,Declining
123617,SGKYLE,OKYA LIMITED,AFT HK Limited,AspireBA,Key,SG AM - Caroline,2026-Q1,2026-Q2,4985.159300721506,4385.705646630749,0.8797523573611784,-0.049524670135058214,-0.07869491762243931,5520.728947361362,3802.602696941083,0.6887863420207473,0.7645767542515334,-0.07579041223078609,Risk,Declining
112673,SGMZVJ,STAPLE AI PTE. LTD.,Aspire FT Pte Ltd,AspireBA,Key,SG AM-Rachel,2026-Q1,2026-Q2,4973.984966631958,2544.011899184773,0.5114635279863751,-0.049524670135058214,-0.07869491762243931,5508.354123217482,3794.07908708587,0.6887863420207473,0.5075316400920951,0.18125470192865223,Safe,Growing
89633,SGEMTV,Emerging Travel Asia PTE. LTD.,Aspire FT Pte Ltd,AspireBA,Key,SG AM - Caroline,2026-Q1,2026-Q2,4948.940611187714,4364.946723479958,0.881996181892431,-0.049524670135058214,-0.07869491762243931,5480.619182420498,3774.9756386681534,0.6887863420207473,0.8847131260222136,-0.19592678400146635,Risk,Declining
119185,SGYWPT,YOWA PTE. LTD.,Aspire FT Pte Ltd,AspireBA,Key,SG AM-Rachel,2026-Q1,2026-Q2,4941.3403175,4494.2403175,0.9095184765120157,-0.049524670135058214,-0.07869491762243931,5472.202367863712,3769.178251758118,0.6887863420207473,0.9312149257977038,-0.24242858377695653,Risk,Declining
63847,SGACM4,ACE MANAGEMENT SERVICES PTE. LTD.,Aspire FT Pte Ltd,AspireBA,Key,SG AM-Rachel,2026-Q1,2026-Q2,4921.30651928003,3355.704342668405,0.6818726550605778,-0.049524670135058214,-0.07869491762243931,5450.016282507809,3753.896779182065,0.6887863420207473,0.6807914654076535,0.007994876613093838,Safe,Growing
98042,SGFUEH,FUTAO ELECTRONICS PTE. LTD.,Aspire FT Pte Ltd,AspireBA,Key,SG AM - Caroline,2026-Q1,2026-Q2,4920.250637392079,4858.950637392079,0.9875412850853283,-0.049524670135058214,-0.07869491762243931,5448.8469642669725,3753.0913687483016,0.6887863420207473,0.9924377237552403,-0.303651381734493,Risk,Declining
110948,SGRML3,RUYI MANAGEMENT PTE LTD,Aspire FT Pte Ltd,AspireBA,Key,SG AM-Rachel,2026-Q1,2026-Q2,4919.336029613306,4918.8430662877345,0.999899790678538,-0.049524670135058214,-0.07869491762243931,5447.834097609126,3752.3937200280884,0.6887863420207473,0.9931534346034651,-0.30436709258271777,Risk,Declining
83001,SGANU7,ACCTIVA INTERNATIONAL PTE. LTD.,Aspire FT Pte Ltd,AspireBA,Key,SG AM - Caroline,2026-Q1,2026-Q2,4908.524228206957,4430.7757597898035,0.9026696322141471,-0.049524670135058214,-0.07869491762243931,5435.860754051476,3744.1466445172573,0.6887863420207473,0.8843046239221766,-0.19551828190142928,Risk,Declining
143080,SGFPSF,SOLO FORTIS PTE. LTD.,Aspire FT Pte Ltd,AspireBA,Key,SG AM-Rachel,2026-Q1,2026-Q2,4873.087444976283,4787.209822852676,0.9823771637399735,-0.049524670135058214,-0.07869491762243931,5396.616897801058,3717.116012323744,0.6887863420207473,0.9590362026462931,-0.2702498606255458,Risk,Declining
134956,SGCP2N,CHOVA CR PTE. LTD.,Aspire FT Pte Ltd,AspireBA,Key,SG AM - Caroline,2026-Q1,2026-Q2,4861.2891210660355,4784.825946174247,0.9842710085766262,-0.049524670135058214,-0.07869491762243931,5383.5510468597995,3708.116432648526,0.6887863420207473,0.9440148987251392,-0.25522855670439193,Risk,Declining
142469,SGCCHR,CROSSPOINT CAPITAL ASIA PTE. LTD.,Aspire FT Pte Ltd,AspireBA,Key,SG AM - Caroline,2026-Q1,2026-Q2,4845.409402154963,4827.981765626923,0.9964032685204498,-0.049524670135058214,-0.07869491762243931,5365.965325204801,3696.0036277579848,0.6887863420207473,0.9952468914677338,-0.30646054944698653,Risk,Declining
116786,SGGHYA,GREAT PRO HOLDING PTE. LTD.,Aspire FT Pte Ltd,AspireBA,Key,SG AM - Caroline,2026-Q1,2026-Q2,4818.297,4818.297,1.0,-0.049524670135058214,-0.07869491762243931,5335.940161638263,3675.3227051764143,0.6887863420207473,0.9938543397565162,-0.30506799773576887,Risk,Declining
86698,SGMEUN,MILIEU INSIGHT PTE. LTD.,Aspire FT Pte Ltd,AspireOS,Key,SG AM-Rachel,2026-Q1,2026-Q2,4815.484794646381,2070.602720990342,0.42998842469450554,-0.049524670135058214,-0.07869491762243931,5332.8258331755,3673.1775982666964,0.6887863420207473,0.5865870297715208,0.10219931224922651,Safe,Growing
114867,SGE6W2,KAEDE PTE. LTD.,Aspire FT Pte Ltd,AspireBA,Key,SG AM-Rachel,2026-Q1,2026-Q2,4814.06983166997,3193.242242683209,0.6633144832416138,-0.049524670135058214,-0.07869491762243931,5331.258856757678,3672.098286311832,0.6887863420207473,0.6996182562364629,-0.01083191421571561,Risk,Growing
68139,SGDEKB,DEKANG BIOTECH PTE. LTD.,Aspire FT Pte Ltd,AspireBA,Key,SG AM - Caroline,2026-Q1,2026-Q2,4806.820503161586,4643.54442605482,0.9660324164383973,-0.049524670135058214,-0.07869491762243931,5323.2307125538655,3666.568610232473,0.6887863420207473,0.9690734054234712,-0.2802870634027239,Risk,Declining
114067,SGWP8H,WAVESHORE PTE LTD,Aspire FT Pte Ltd,AspireBA,Key,SG AM-Rachel,2026-Q1,2026-Q2,4792.096891232775,4788.86057731697,0.9993246559931361,-0.049524670135058214,-0.07869491762243931,5306.925301697018,3655.33766593324,0.6887863420207473,0.997874633859272,-0.3090882918385247,Risk,Declining
67484,SGHDPB,BO HOLDINGS PTE. LTD.,Aspire FT Pte Ltd,AspireBA,Key,SG AM - Caroline,2026-Q1,2026-Q2,4790.137766595204,4514.344628731767,0.9424248004333561,-0.049524670135058214,-0.07869491762243931,5304.755702804448,3653.8432758483746,0.6887863420207473,0.9052104090517402,-0.21642406703099293,Risk,Declining
96714,SGATD6,Atas Digital Pte Ltd,Aspire FT Pte Ltd,AspireBA,Key,SG AM-Rachel,2026-Q1,2026-Q2,4781.314697257232,4641.514697257232,0.9707611799574298,-0.049524670135058214,-0.07869491762243931,5294.984746379511,3647.113174514398,0.6887863420207473,0.9545703865094755,-0.26578404448872817,Risk,Declining
139287,SGSWRL,SWRM LABS PTE. LTD.,Aspire FT Pte Ltd,AspireBA,Key,SG AM-Rachel,2026-Q1,2026-Q2,4770.384539596267,4472.451549513782,0.937545288517202,-0.049524670135058214,-0.07869491762243931,5282.880331222833,3638.775818676329,0.6887863420207473,0.9649559320183396,-0.27616958999759234,Risk,Declining
82348,SGTGMR,TGM RESEARCH PTE. LTD.,Aspire FT Pte Ltd,AspireOS,Key,SG AM-Rachel,2026-Q1,2026-Q2,4754.597876081257,2374.702156515324,0.4994538378233062,-0.049524670135058214,-0.07869491762243931,5265.397662166107,3626.7339950079872,0.6887863420207473,0.5200599853632033,0.16872635665754399,Safe,Growing
53431,SGMGBZ,Mighty Bear Games Pte. Ltd.,Aspire FT Pte Ltd,AspireOS,Key,SG AM-Rachel,2026-Q1,2026-Q2,4745.402872398813,2474.0009768266877,0.5213468789376093,-0.049524670135058214,-0.07869491762243931,5255.214813446827,3619.720187887284,0.6887863420207473,0.5277589086942422,0.16102743332650504,Safe,Growing
76632,SGLKAP,LKA PACIFIC PTE. LTD.,Aspire FT Pte Ltd,AspireBA,Key,SG AM - Caroline,2026-Q1,2026-Q2,4729.4864561242075,4729.239974461421,0.9999478840535705,-0.049524670135058214,-0.07869491762243931,5237.588451927596,3607.5793908133173,0.6887863420207473,0.9844953714267588,-0.2957090294060115,Risk,Declining
128853,SGNDDX,YD INDUSTRIAL DEVELOPMENT PTE. LTD.,Aspire FT Pte Ltd,AspireBA,Key,SG AM-Rachel,2026-Q1,2026-Q2,4724.843259212222,3179.865265840749,0.6730096833669211,-0.049524670135058214,-0.07869491762243931,5232.446423347569,3604.0376317571145,0.6887863420207473,0.6617147989595447,0.02707154306120263,Safe,Growing
66401,SGNP8F,NEXTBILLION.AI PTE. LTD.,Aspire FT Pte Ltd,AspireBA,Key,SG AM-Rachel,2026-Q1,2026-Q2,4712.550852208452,2565.5343037659713,0.5444045877114896,-0.049524670135058214,-0.07869491762243931,5218.83340858019,3594.661173111617,0.6887863420207473,0.5642084045248263,0.12457793749592094,Safe,Growing
120483,SGWTUE,WSPN TECHNOLOGY SG PTE. LTD.,Aspire FT Pte Ltd,AspireBA,Key,SG AM - Caroline,2026-Q1,2026-Q2,4712.030606472918,4031.4009497488855,0.8555549160081746,-0.049524670135058214,-0.07869491762243931,5218.257271386042,3594.2643376811575,0.6887863420207473,0.8864457485890049,-0.19765940656825765,Risk,Declining
128403,SGWVWJ,ADVISCENT PTE. LTD.,Aspire FT Pte Ltd,AspireBA,Key,SG AM-Rachel,2026-Q1,2026-Q2,4673.222813420025,3315.6717527458686,0.7095043153569103,-0.049524670135058214,-0.07869491762243931,5175.280248272796,3564.662351140044,0.6887863420207473,0.7636526026948617,-0.0748662606741144,Risk,Growing
145093,SGQCR4,CREDSHIELDS TECHNOLOGIES PTE. LTD.,Aspire FT Pte Ltd,AspireBA,Key,SG AM-Rachel,2026-Q1,2026-Q2,4660.977216982687,4652.99704160526,0.998287875051534,-0.049524670135058214,-0.07869491762243931,5161.719073062301,3555.3215988733045,0.6887863420207473,0.9608831736048012,-0.27209683158405396,Risk,Declining
