Gagan-D-Aspire/High-Value-Data-Projects/csm_targets_2026_Q2.csv
business_id,business_ref_code,company_name,business_group,business_unit,account_motion,account_manager,base_quarter,target_quarter,base_revenue,base_gp,base_take_rate,avg_rev_g,avg_gp_g,target_revenue,target_gp,target_take_rate,hist_avg_tr,tr_delta,guardrail,gp_trend
84093,SGGPGP,GERO PTE. LTD.,Aspire FT Pte Ltd,AspireBA,Key,SG AM - Caroline,2026-Q1,2026-Q2,122828.43437224036,119322.99794204997,0.9714607090116698,-0.04954983560045385,-0.07872632384932805,114357.48189121002,78763.72753515124,0.6887501039073276,0.9615524016517905,-0.27280229774446285,Risk,Declining
86951,SGEVMG,EVERY MOMENT LOGISTICS PTE. LTD.,Aspire FT Pte Ltd,AspireBA,Key,SG AM - Caroline,2026-Q1,2026-Q2,104993.77767162846,104975.5312759181,0.9998262145041831,-0.04954983560045385,-0.07872632384932805,97752.80528599302,67327.25479796046,0.6887501039073276,0.9998314695409506,-0.311081365633623,Risk,Declining
134453,SGBLVG,BERIKLAN LANCAR SEJAHTERA LIMITED,AFT HK Limited,AspireBA,Key,Eureka,2026-Q1,2026-Q2,75660.65574376252,24799.083666910545,0.32776723150400383,-0.04954983560045385,-0.07872632384932805,70442.66348680141,48517.39179604338,0.6887501039073276,0.32913870709359755,0.35961139681373006,Safe,Growing
89483,SGFBPZ,FIBONEX PTE. LTD.,Aspire FT Pte Ltd,AspireBA,Key,SG AM - Caroline,2026-Q1,2026-Q2,70364.89136641289,70364.39517705068,0.9999929483389717,-0.04954983560045385,-0.07872632384932805,65512.12535873629,45121.48314801949,0.6887501039073276,0.9999973932521845,-0.3112472893448569,Risk,Declining
99873,SGSUCM,SUCCESS MCMOORE PTE LIMITED,Aspire FT Pte Ltd,AspireX,Key,Eureka,2026-Q1,2026-Q2,64854.30992679711,28734.593329313982,0.44306374336181403,-0.04954983560045385,-0.07872632384932805,60381.58518364046,41587.82306932152,0.6887501039073276,0.37275170154280807,0.31599840236451954,Safe,Growing
147170,SGAVNH,AVNM HOLDINGS PTE LTD,Aspire FT Pte Ltd,AspireBA,Key,SG AM - Caroline,2026-Q1,2026-Q2,51325.143404999995,51296.89382360493,0.9994495956655756,-0.04954983560045385,-0.07872632384932805,47785.4674896642,32912.24569876645,0.6887501039073276,0.9993424361067271,-0.3105923321993995,Risk,Declining
151475,SGSM5V,SUCCESS MCMOORE PTE LIMITED,AFT HK Limited,AspireBA,Key,Eureka,2026-Q1,2026-Q2,50143.297108426275,14355.760933730158,0.2862947145794639,-0.04954983560045385,-0.07872632384932805,46685.12808413997,32154.3868188783,0.6887501039073276,0.24127631326861348,0.4474737906387141,Safe,Growing
125930,SGRAT5,Rasewa,Aspire FT Pte Ltd,AspireBA,Key,Eureka,2026-Q1,2026-Q2,46106.24566712347,6956.941944791644,0.15088936095597918,-0.04954983560045385,-0.07872632384932805,42926.49483726853,29565.627779546063,0.6887501039073276,0.19369265021935464,0.49505745368797294,Safe,Growing
91639,SGFT9T,PT REPUBLIK AZERO MANAGEMEN,Aspire FT Pte Ltd,AspireX,Key,Eureka,2026-Q1,2026-Q2,44614.30566739177,7591.880872444477,0.17016696234260395,-0.04954983560045385,-0.07872632384932805,41537.44756678855,28608.921327670785,0.6887501039073276,0.24310833295099157,0.44564177095633606,Safe,Growing
99150,SGHLWJ,HERITAGE LINE PTE. LTD.,Aspire FT Pte Ltd,AspireBA,Key,SG AM - Caroline,2026-Q1,2026-Q2,44327.20992833333,43958.474145820015,0.99168150255544,-0.04954983560045385,-0.07872632384932805,41270.15159457971,28424.821199037935,0.6887501039073276,0.9837256345998473,-0.2949755306925197,Risk,Declining
75513,SGDEUP,DELUGS PTE. LTD.,Aspire FT Pte Ltd,AspireBA,Key,SG AM - Caroline,2026-Q1,2026-Q2,40287.45026646663,22597.498236425585,0.5609066368549681,-0.04954983560045385,-0.07872632384932805,37508.99690154903,25834.325513401523,0.6887501039073276,0.613654706885467,0.07509539702186063,Safe,Growing
104231,SGDGZG,PT Digizie Global Learning,Aspire FT Pte Ltd,AspireBA,Key,Eureka,2026-Q1,2026-Q2,39147.63630134866,4990.219202096812,0.12747178817345087,-0.04954983560045385,-0.07872632384932805,36447.791037112926,25103.419864004092,0.6887501039073276,0.19119152123491,0.4975585826724176,Safe,Growing
71455,SGCP3W,SF CAPITAL SG PTE. LTD.,Aspire FT Pte Ltd,AspireBA,Key,SG AM - Caroline,2026-Q1,2026-Q2,33257.82985486032,32524.831088558145,0.9779601143700285,-0.04954983560045385,-0.07872632384932805,30964.179384083134,21326.58176819239,0.6887501039073276,0.9678152742706729,-0.2790651703633453,Risk,Declining
135284,SGLC7B,LARES CAPITAL PTE. LTD.,Aspire FT Pte Ltd,AspireBA,Key,SG AM - Caroline,2026-Q1,2026-Q2,32871.58076333333,32813.08076333333,0.9982203472226912,-0.04954983560045385,-0.07872632384932805,30604.56824261135,21078.899557137465,0.6887501039073276,0.9960956550791439,-0.3073455511718163,Risk,Declining
122887,SGBLPB,BLAZETEC PTE. LTD.,Aspire FT Pte Ltd,AspireBA,Key,SG AM - Caroline,2026-Q1,2026-Q2,32634.657904359326,32456.667138384186,0.9945459588852817,-0.04954983560045385,-0.07872632384932805,30383.984941251147,20926.972785405404,0.6887501039073276,0.9429406174012789,-0.2541905134939513,Risk,Declining
105489,SGRDVT,PT Ordivo Teknologi Indonesia,Aspire FT Pte Ltd,AspireBA,Key,Eureka,2026-Q1,2026-Q2,30557.109477810525,4968.099385546129,0.1625840752101826,-0.04954983560045385,-0.07872632384932805,28449.716155839833,19594.744958468662,0.6887501039073276,0.21531180094503571,0.4734383029622919,Safe,Growing
28763,SGPRST,Prism Tech Private Limited,Aspire FT Pte Ltd,AspireOS,Key,SG AM-Rachel,2026-Q1,2026-Q2,30257.182315516224,14743.311781993603,0.48726651504601826,-0.04954983560045385,-0.07872632384932805,28170.47368884879,19402.416680313243,0.6887501039073276,0.15720444917606433,0.5315456547312633,Safe,Growing
117955,SGNAMD,NAM HO DMC PTE. LTD.,Aspire FT Pte Ltd,AspireBA,Key,SG AM - Caroline,2026-Q1,2026-Q2,29782.212866065256,422.05209682216747,0.014171280647284146,-0.04954983560045385,-0.07872632384932805,27728.260853587388,19097.842544077797,0.6887501039073276,0.12340218855190918,0.5653479153554184,Safe,Growing
138876,SGDBJV,V MEDICAL AESTHETICS PTE. LTD.,Aspire FT Pte Ltd,AspireBA,Key,SG AM-Rachel,2026-Q1,2026-Q2,29498.462570172305,2138.8847779335747,0.0725083476077947,-0.04954983560045385,-0.07872632384932805,27464.07960361831,18915.88768071123,0.6887501039073276,0.04396960576009166,0.6447804981472359,Safe,Growing
138008,SGDSFP,DOSFARM PTE. LTD.,Aspire FT Pte Ltd,AspireOS,Key,SG AM-Rachel,2026-Q1,2026-Q2,27110.158368448243,27076.657443118445,0.9987642667049563,-0.04954983560045385,-0.07872632384932805,25240.486541513084,17384.38772813864,0.6887501039073276,0.997421032770213,-0.3086709288628854,Risk,Declining
88136,SGPAVT,PAVING THE WAY PTE. LTD.,Aspire FT Pte Ltd,AspireBA,Key,SG AM - Caroline,2026-Q1,2026-Q2,25784.84737058766,25478.31759003805,0.9881120188091839,-0.04954983560045385,-0.07872632384932805,24006.576582368347,16534.532115565416,0.6887501039073276,0.99060289654427,-0.3018527926369424,Risk,Declining
118203,SGSRC7,SORA CLOUD PTE. LTD.,Aspire FT Pte Ltd,AspireBA,Key,SG AM-Rachel,2026-Q1,2026-Q2,25573.901366255617,25347.795562876978,0.9911587285748672,-0.04954983560045385,-0.07872632384932805,23810.178622940508,16399.263000602306,0.6887501039073276,0.9860116835076735,-0.29726157960034594,Risk,Declining
176080,SGPPY2,PERSISTENCE AI PTE LTD,Aspire FT Pte Ltd,AspireBA,Key,SG AM-Rachel,2026-Q1,2026-Q2,25551.935430973554,25474.485892081102,0.9969689364979152,-0.04954983560045385,-0.07872632384932805,23789.727584391654,16385.17734567677,0.6887501039073276,0.9967809131339112,-0.30803080922658355,Risk,Declining
73338,SGBLCA,BLOCKTECH APAC PTE. LTD.,Aspire FT Pte Ltd,AspireX,Key,SG AM - Caroline,2026-Q1,2026-Q2,25030.373435046156,24567.132544292603,0.9814928493993242,-0.04954983560045385,-0.07872632384932805,23304.135491573357,16050.725741291591,0.6887501039073276,0.9710064348860526,-0.28225633097872505,Risk,Declining
141988,SGATFM,ASIA TRAVELS INTERNATIONAL LIMITED,AFT HK Limited,AspireBA,Key,SG AM - Caroline,2026-Q1,2026-Q2,24656.724371884284,23848.344371884283,0.9672146231669854,-0.04954983560045385,-0.07872632384932805,22956.2554083289,15811.123297809681,0.6887501039073276,0.9508314351902306,-0.262081331282903,Risk,Declining
65061,SGPP5T,POSTEX PTE. LTD.,Aspire FT Pte Ltd,AspireOS,Key,SG AM-Rachel,2026-Q1,2026-Q2,24412.999499139638,22613.96812745265,0.9263084664483612,-0.04954983560045385,-0.07872632384932805,22729.339199034348,15654.834735079801,0.6887501039073276,0.9530339407768877,-0.26428383686956014,Risk,Declining
129328,SGWPEZ,WEGO PTE. LTD.,Aspire FT Pte Ltd,AspireOS,Key,SG AM-Rachel,2026-Q1,2026-Q2,23953.98239428797,7900.7396809773745,0.3298299026412148,-0.04954983560045385,-0.07872632384932805,22301.978543302557,15360.490039038626,0.6887501039073276,0.381562982838999,0.30718712106832863,Safe,Growing
67398,SGMAPC,MAVINA PTE. LTD.,Aspire FT Pte Ltd,AspireBA,Key,SG AM - Caroline,2026-Q1,2026-Q2,23827.112050892054,23827.112050892054,1.0,-0.04954983560045385,-0.07872632384932805,22183.857905588808,15279.134437539682,0.6887501039073276,1.0,-0.3112498960926724,Risk,Declining
92687,SGSG9S,SURGE GLOBAL PTE. LTD.,Aspire FT Pte Ltd,AspireOS,Key,SG AM-Rachel,2026-Q1,2026-Q2,23443.714005887407,13850.488540881634,0.5907975390504836,-0.04954983560045385,-0.07872632384932805,21826.901186138406,15033.280459927799,0.6887501039073276,0.6040992724813085,0.08465083142601915,Safe,Growing
90404,SGPUNK,PUREST NEST PTE. LTD.,Aspire FT Pte Ltd,AspireBA,Key,SG AM - Caroline,2026-Q1,2026-Q2,23313.447302731638,5344.043726674829,0.22922580505924006,-0.04954983560045385,-0.07872632384932805,21705.618421090556,14949.746942898924,0.6887501039073276,0.16166576944181427,0.5270843344655134,Safe,Growing
90656,SGDAZP,DAZZ PTE LTD,Aspire FT Pte Ltd,AspireBA,Key,SG AM-Rachel,2026-Q1,2026-Q2,22976.312157256736,22830.68047313026,0.9936616597507151,-0.04954983560045385,-0.07872632384932805,21391.734046592253,14733.559047348332,0.6887501039073276,0.9952365096019059,-0.3064864056945783,Risk,Declining
84694,SGLVTX,LOVE IN THE HAIR PTE. LTD.,Aspire FT Pte Ltd,AspireBA,Key,SG AM-Rachel,2026-Q1,2026-Q2,22794.38303638414,22313.226874096446,0.9788914592897874,-0.04954983560045385,-0.07872632384932805,21222.3518001116,14616.897007484726,0.6887501039073276,0.9837517456227709,-0.2950016417154433,Risk,Declining
108372,SGEVSA,EVENTUS SECURITY PTE. LTD.,Aspire FT Pte Ltd,AspireBA,Key,SG AM-Rachel,2026-Q1,2026-Q2,22625.726814098205,21404.87614023717,0.9460414826055304,-0.04954983560045385,-0.07872632384932805,21065.327077094673,14508.746213190798,0.6887501039073276,0.925146166961701,-0.23639606305437344,Risk,Declining
89907,SGYBUE,MAX NOW PTE. LTD.,Aspire FT Pte Ltd,AspireOS,Key,SG AM-Rachel,2026-Q1,2026-Q2,22521.33564756053,19481.73944552794,0.8650348163359559,-0.04954983560045385,-0.07872632384932805,20968.135323426657,14441.805382753017,0.6887501039073276,0.7964898023728836,-0.10773969846555598,Risk,Declining
105492,SGML5E,MAGICBLOCK LABS PTE. LTD.,Aspire FT Pte Ltd,AspireOS,Key,SG AM-Rachel,2026-Q1,2026-Q2,22353.51348710167,21031.328501111802,0.9408511334581569,-0.04954983560045385,-0.07872632384932805,20811.88714055513,14334.18943056492,0.6887501039073276,0.9430774278593764,-0.2543273239520488,Risk,Declining
152838,SGSTKW,SUPERLINEAR TECHNOLOGY PTE LTD,Aspire FT Pte Ltd,AspireBA,Key,SG AM-Rachel,2026-Q1,2026-Q2,21667.56501686701,18918.32008442836,0.8731170332107685,-0.04954983560045385,-0.07872632384932805,20173.245606417884,13894.325007568357,0.6887501039073276,0.8951931563128647,-0.20644305240553706,Risk,Declining
80381,SGZUSS,ZUSPRESSO M SDN BHD,Aspire FT Pte Ltd,AspireBA,Key,SG AM-Rachel,2026-Q1,2026-Q2,21641.599080350225,12297.51607055438,0.5682350932062166,-0.04954983560045385,-0.07872632384932805,20149.070429634245,13877.674352046648,0.6887501039073276,0.6166233167985313,0.07212678710879628,Safe,Growing
102316,SGDGLZ,PT Digital Laskar Pelangi,Aspire FT Pte Ltd,AspireBA,Key,Eureka,2026-Q1,2026-Q2,21624.85367185973,2899.584742698015,0.1340857509001887,-0.04954983560045385,-0.07872632384932805,20133.479880442603,13866.936359670932,0.6887501039073276,0.20406099694099344,0.48468910696633416,Safe,Growing
58863,SGSKHZ,OSOME LTD.,Aspire FT Pte Ltd,AspireOS,Key,SG AM-Rachel,2026-Q1,2026-Q2,21537.45302799487,15278.233224963345,0.7093797583727449,-0.04954983560045385,-0.07872632384932805,20052.106885670357,13810.890701066297,0.6887501039073276,0.7804401478780124,-0.09169004397068481,Risk,Declining
120791,SGFLP4,FLYWHEEL AI PTE. LTD,Aspire FT Pte Ltd,AspireBA,Key,SG AM-Rachel,2026-Q1,2026-Q2,21338.104633005605,20859.343305071776,0.9775630808748924,-0.04954983560045385,-0.07872632384932805,19866.506698005836,13683.05855252714,0.6887501039073276,0.9708473169826596,-0.282097213075332,Risk,Declining
115719,SGAPYF,AIRGSM PTE. LTD.,Aspire FT Pte Ltd,AspireOS,Key,SG AM-Rachel,2026-Q1,2026-Q2,20679.676071450835,8823.559135672289,0.42667782150870265,-0.04954983560045385,-0.07872632384932805,19253.487141992737,13260.841269625893,0.6887501039073276,0.5382475225343718,0.1505025813729558,Safe,Growing
72111,SGANN3,ANTLER INNOVATION PTE. LTD.,Aspire FT Pte Ltd,AspireOS,Key,SG AM-Rachel,2026-Q1,2026-Q2,19991.936888113654,7970.39129623341,0.398680295002945,-0.04954983560045385,-0.07872632384932805,18613.17839258697,12819.828551939901,0.6887501039073276,0.4965212930589397,0.1922288108483879,Safe,Growing
92684,SGEDGT,EDGE TUTOR INTERNATIONAL PTE. LTD.,Aspire FT Pte Ltd,AspireOS,Key,SG AM-Rachel,2026-Q1,2026-Q2,19464.186628332292,16735.268895903595,0.859798008283765,-0.04954983560045385,-0.07872632384932805,18121.824814040763,12481.408723660963,0.6887501039073276,0.8738573239447349,-0.18510722003740732,Risk,Declining
70084,SGTSD5,ATTIX APAC PTE. LTD.,Aspire FT Pte Ltd,AspireOS,Key,SG AM-Rachel,2026-Q1,2026-Q2,19456.84089845421,14614.983675011317,0.7511488504884899,-0.04954983560045385,-0.07872632384932805,18114.985687776523,12476.698274735832,0.6887501039073276,0.744481740164467,-0.055731636257139394,Risk,Declining
91424,SGAMGD,AMITY GLOBAL INSTITUTE PTE. LTD.,Aspire FT Pte Ltd,AspireBA,Key,SG AM - Caroline,2026-Q1,2026-Q2,19369.01904054908,14783.572748647568,0.7632587235160505,-0.04954983560045385,-0.07872632384932805,18033.220528297228,12420.38251264847,0.6887501039073276,0.7924615618676024,-0.10371145796027481,Risk,Declining
120054,SGCDHK,CODE HOUSE PTE. LTD.,Aspire FT Pte Ltd,AspireBA,Key,SG AM - Caroline,2026-Q1,2026-Q2,18991.894434410817,18981.381254750566,0.9994464386006062,-0.04954983560045385,-0.07872632384932805,17682.10459543036,12178.551377402895,0.6887501039073276,0.998753696514168,-0.3100035926068404,Risk,Declining
68165,SGTP78,SF TREASURY SG PTE. LTD.,Aspire FT Pte Ltd,AspireBA,Key,SG AM - Caroline,2026-Q1,2026-Q2,18882.114102880623,18727.415682303927,0.9918071451250738,-0.04954983560045385,-0.07872632384932805,17579.895344460598,12108.154745177182,0.6887501039073276,0.991336326504754,-0.3025862225974264,Risk,Declining
76492,SGMAGL,MAGIK LABS PTE. LTD.,Aspire FT Pte Ltd,AspireBA,Key,SG AM-Rachel,2026-Q1,2026-Q2,18623.751597128372,17907.05959496251,0.9615173130704573,-0.04954983560045385,-0.07872632384932805,17339.350997185193,11942.479800996925,0.6887501039073276,0.9697541611292342,-0.2810040572219066,Risk,Declining
77441,SGGZ7B,COBO SINGAPORE PTE. LTD.,Aspire FT Pte Ltd,AspireOS,Key,SG AM-Rachel,2026-Q1,2026-Q2,18384.145996054376,1153.1639701427682,0.06272600154449717,-0.04954983560045385,-0.07872632384932805,17116.26997098883,11788.832721024428,0.6887501039073276,0.13780770852584068,0.5509423953814869,Safe,Growing
129875,SGJSP7,Clarus Technology Limited,Aspire FT Pte Ltd,AspireBA,Key,SG AM - Caroline,2026-Q1,2026-Q2,18011.30020237535,17025.7698409428,0.945282664196415,-0.04954983560045385,-0.07872632384932805,16769.137759161993,11549.745374059114,0.6887501039073276,0.9412867052312816,-0.25253660132395395,Risk,Declining
101907,SG4VPC,STARTCAREFULLY PTE. LTD.,Aspire FT Pte Ltd,AspireBA,Key,SG AM-Rachel,2026-Q1,2026-Q2,17854.482347494493,17682.304758843617,0.9903566182821851,-0.04954983560045385,-0.07872632384932805,16623.134961915486,11449.185932284821,0.6887501039073276,0.9949740865327035,-0.30622398262537587,Risk,Declining
146972,SGBHLQ,BHINDI LABS PTE. LTD.,Aspire FT Pte Ltd,AspireBA,Key,SG AM - Caroline,2026-Q1,2026-Q2,17415.756399624075,12864.053399860404,0.7386445414531682,-0.04954983560045385,-0.07872632384932805,16214.666068737652,11167.852939665676,0.6887501039073276,0.7816331523109561,-0.09288304840362849,Risk,Declining
116073,SGFYDF,"Intrepid Ecommerce Services (Thailand) Co., Ltd.",Aspire FT Pte Ltd,AspireOS,Key,SG AM-Rachel,2026-Q1,2026-Q2,17319.263365670748,5133.740817393384,0.29641796588007263,-0.04954983560045385,-0.07872632384932805,16124.827747184974,11105.97678636141,0.6887501039073276,0.31819259907713404,0.37055750483019356,Safe,Growing
80086,SGMSME,MISTER MOBILE TRADING PTE. LTD.,Aspire FT Pte Ltd,AspireX,Key,SG AM - Caroline,2026-Q1,2026-Q2,17306.771892885463,7983.019276504449,0.46126564364011413,-0.04954983560045385,-0.07872632384932805,16113.197757922806,11097.966630048651,0.6887501039073276,0.39717232406760855,0.29157777983971905,Safe,Growing
83438,SGBRHP,BRIOHR PTE. LTD.,Aspire FT Pte Ltd,AspireBA,Key,SG AM-Rachel,2026-Q1,2026-Q2,17058.38285593861,17038.642765308763,0.998842792379761,-0.04954983560045385,-0.07872632384932805,15881.939051909012,10938.687172252176,0.6887501039073276,0.9961961289812212,-0.3074460250738936,Risk,Declining
55419,SGVPUA,PX Ventures PTE LTD,Aspire FT Pte Ltd,AspireBA,Key,SG AM - Caroline,2026-Q1,2026-Q2,16802.99330911465,11735.04841588277,0.6983903522426083,-0.04954983560045385,-0.07872632384932805,15644.162631283021,10774.918637839313,0.6887501039073276,0.6655943401218226,0.02315576378550499,Safe,Declining
103624,SGPCZC,PRIMROSE CAPITAL MANAGEMENT PTE. LTD. (AP),Aspire FT Pte Ltd,AspireBA,Key,SG AM - Caroline,2026-Q1,2026-Q2,16339.77500063143,15687.67304314845,0.9600911299294035,-0.04954983560045385,-0.07872632384932805,15212.890510989526,10477.879920174833,0.6887501039073276,0.9451634189881839,-0.2564133150808563,Risk,Declining
123896,SGCLMS,COFFEE MEETS BAGEL PTE. LTD.,Aspire FT Pte Ltd,AspireOS,Key,SG AM-Rachel,2026-Q1,2026-Q2,16184.083947361174,13761.232990773422,0.8502942171785509,-0.04954983560045385,-0.07872632384932805,15067.936804659452,10378.043039878243,0.6887501039073276,0.8965667938246021,-0.20781668991727453,Risk,Declining
86460,SGPPGY,PREFER PTE. LTD.,Aspire FT Pte Ltd,AspireBA,Key,SG AM-Rachel,2026-Q1,2026-Q2,16149.171832299713,15781.533838318363,0.977234870134576,-0.04954983560045385,-0.07872632384932805,15035.43242905351,10355.655647802208,0.6887501039073276,0.8611384326967754,-0.17238832878944776,Risk,Declining
90493,SGKRMQ,KRIS MANAGEMENT & SERVICES PTE. LTD.,Aspire FT Pte Ltd,AspireBA,Key,SG AM - Caroline,2026-Q1,2026-Q2,16100.001898746626,15768.888620727628,0.9794339603124659,-0.04954983560045385,-0.07872632384932805,14989.65353579783,10324.125430315597,0.6887501039073276,0.9865145537763647,-0.29776444986903705,Risk,Declining
110959,SGLYNM,LYNCHPIN MANAGEMENT SERVICES PTE. LTD.,Aspire FT Pte Ltd,AspireBA,Key,SG AM - Caroline,2026-Q1,2026-Q2,16057.832567006593,6041.711719037703,0.3762470242373416,-0.04954983560045385,-0.07872632384932805,14950.392442749857,10297.084348399289,0.6887501039073276,0.446535390115192,0.2422147137921356,Safe,Growing
72538,SGABHT,ABHIBHA TECHNOLOGIES PTE. LTD.,Aspire FT Pte Ltd,AspireBA,Key,SG AM-Rachel,2026-Q1,2026-Q2,15985.2291692,15866.473978824091,0.992570942266832,-0.04954983560045385,-0.07872632384932805,14882.796191178779,10250.527423105963,0.6887501039073276,0.9826139015958678,-0.2938637976885402,Risk,Declining
69274,SGTRT9,TRIPLO TECHNOLOGY SERVICES PTE. LTD.,Aspire FT Pte Ltd,AspireBA,Key,SG AM-Rachel,2026-Q1,2026-Q2,15785.667073005385,9788.492358294523,0.6200873433491793,-0.04954983560045385,-0.07872632384932805,14696.997040368262,10122.558238679327,0.6887501039073276,0.5893771065615367,0.09937299734579086,Safe,Growing
145670,SGELSG,ELSER GLOBAL PTE. LTD.,Aspire FT Pte Ltd,AspireBA,Key,SG AM-Rachel,2026-Q1,2026-Q2,15783.280015433333,14774.538053219676,0.9360879385509678,-0.04954983560045385,-0.07872632384932805,14694.774607961104,10121.02753812797,0.6887501039073276,0.9563189875228908,-0.2675688836155632,Risk,Declining
118501,SGMMWC,MMW CAPITAL INVESTMENT PTE LTD,Aspire FT Pte Ltd,AspireBA,Key,SG AM - Caroline,2026-Q1,2026-Q2,15738.11411472467,15737.571445619724,0.9999655187971703,-0.04954983560045385,-0.07872632384932805,14652.72360650701,10092.064906507056,0.6887501039073276,0.9999929028930811,-0.31124279898575347,Risk,Declining
90121,SGTERJ,TERRAVERDE JOURNEYS PTE. LTD.,Aspire FT Pte Ltd,AspireBA,Key,SG AM - Caroline,2026-Q1,2026-Q2,15407.557079571778,14712.476075894841,0.9548870077139928,-0.04954983560045385,-0.07872632384932805,14344.96367815892,9880.095223878796,0.6887501039073276,0.940137244173436,-0.2513871402661084,Risk,Declining
60315,SGBAZT,BAZAAR TECHNOLOGIES PTE LTD,Aspire FT Pte Ltd,AspireOS,Key,SG AM-Rachel,2026-Q1,2026-Q2,15305.648097053254,10114.78931202741,0.6608533822213498,-0.04954983560045385,-0.07872632384932805,14250.082922880421,9814.746093821925,0.6887501039073276,0.6840797633306204,0.004670340576707233,Safe,Declining
131028,SGSMMQ,SMK IMPORT AND EXPORT PTE. LTD.,Aspire FT Pte Ltd,AspireBA,Key,SG AM-Rachel,2026-Q1,2026-Q2,15297.235231206374,14100.496970940305,0.9217676761729647,-0.04954983560045385,-0.07872632384932805,14242.250256457088,9809.351344008983,0.6887501039073276,0.9631360855166038,-0.2743859816092762,Risk,Declining
114025,SGWXHM,DIGIMENTAL GLOBAL NETWORK SOLUTION PTE. LTD.,Aspire FT Pte Ltd,AspireBA,Key,SG AM-Rachel,2026-Q1,2026-Q2,14810.423240957192,11464.205958473189,0.7740633587546456,-0.04954983560045385,-0.07872632384932805,13789.011609853233,9497.18317906576,0.6887501039073276,0.8033693549640466,-0.114619251056719,Risk,Declining
136203,SGGTG8,IDA GLOBAL TRANSLATION PTE. LTD.,Aspire FT Pte Ltd,AspireBA,Key,SG AM-Rachel,2026-Q1,2026-Q2,14771.925216791433,5316.63617994192,0.35991491304724677,-0.04954983560045385,-0.07872632384932805,13753.16862997741,9472.49632295194,0.6887501039073276,0.405606312084803,0.2831437918225246,Safe,Growing
55188,SGPRLF,Oxixo Private Ltd.,Aspire FT Pte Ltd,AspireBA,Key,SG AM-Rachel,2026-Q1,2026-Q2,14760.266747171416,9839.909264793452,0.6666484714227217,-0.04954983560045385,-0.07872632384932805,13742.314195210214,9465.020329878178,0.6887501039073276,0.750640672086052,-0.0618905681787244,Risk,Declining
81634,SGSUG2,SUNGIL GARMENT PTE. LTD.,Aspire FT Pte Ltd,AspireBA,Key,SG AM-Rachel,2026-Q1,2026-Q2,14748.711575013662,14702.562863637233,0.9968710004842314,-0.04954983560045385,-0.07872632384932805,13731.555933920525,9457.610576297042,0.6887501039073276,0.9958128325922985,-0.30706272868497086,Risk,Declining
133221,SGMBS6,MAZON INTERNATIONAL PTE. LTD.,Aspire FT Pte Ltd,AspireBA,Key,SG AM-Rachel,2026-Q1,2026-Q2,14546.685205,14313.185205,0.9839482331053854,-0.04954983560045385,-0.07872632384932805,13543.462459730596,9328.061176404439,0.6887501039073276,0.9895415086854783,-0.3007914047781507,Risk,Declining
116405,SG48H5,PENGYUAN PHARMA LIMITED,AFT HK Limited,AspireBA,Key,SG AM - Caroline,2026-Q1,2026-Q2,14068.986900908089,14019.486900908089,0.9964816229947016,-0.04954983560045385,-0.07872632384932805,13098.708967277069,9021.737162263926,0.6887501039073276,0.9939063898401296,-0.305156285932802,Risk,Declining
173232,SGPL4F,PANGO LABS PTE LTD,Aspire FT Pte Ltd,AspireBA,Key,SG AM-Rachel,2026-Q1,2026-Q2,14016.674623234343,12862.540570751959,0.9176599240900358,-0.04954983560045385,-0.07872632384932805,13050.004443952825,8988.191916763595,0.6887501039073276,0.9284504605830853,-0.23970035667575773,Risk,Declining
84818,SGTRS9,EXO TRAVEL (SINGAPORE) CO. PTE. LTD. (USD),Aspire FT Pte Ltd,AspireBA,Key,SG AM - Caroline,2026-Q1,2026-Q2,13869.070550833332,5126.30051907614,0.36962105717806176,-0.04954983560045385,-0.07872632384932805,12912.579993963398,8893.54081255397,0.6887501039073276,0.5125824745080774,0.17616762939925024,Safe,Growing
174591,SGZYLU,ZYNK LABS PTE LTD,AFT HK Limited,AspireBA,Key,SG AM-Rachel,2026-Q1,2026-Q2,13794.3169315144,13654.0769315144,0.9898334944240981,-0.04954983560045385,-0.07872632384932805,12842.981812473436,8845.605057820998,0.6887501039073276,0.9927430503640953,-0.30399294645676767,Risk,Declining
139091,SGLMFD,LMF DIGITAL PTE. LTD.,Aspire FT Pte Ltd,AspireBA,Key,SG AM-Rachel,2026-Q1,2026-Q2,13693.331552934656,13369.388745069456,0.9763430245873382,-0.04954983560045385,-0.07872632384932805,12748.960964115055,8780.848188744707,0.6887501039073276,0.9819734058219822,-0.2932233019146546,Risk,Declining
68432,SGARP6,ARMADA-GROUP PTE. LTD.,Aspire FT Pte Ltd,AspireBA,Key,SG AM - Caroline,2026-Q1,2026-Q2,13626.123679329852,8866.962995410691,0.6507326077526678,-0.04954983560045385,-0.07872632384932805,12686.38813048749,8737.751143081947,0.6887501039073276,0.7052395626980069,-0.016489458790679312,Risk,Declining
120816,SGARL4,AROHA LABS PTE. LTD.,Aspire FT Pte Ltd,AspireBA,Key,SG AM - Caroline,2026-Q1,2026-Q2,13491.47714868127,10545.957675656675,0.7816755392635042,-0.04954983560045385,-0.07872632384932805,12561.027595941432,8651.40906188747,0.6887501039073276,0.7770019734504944,-0.08825186954316677,Risk,Declining
67575,SGSTNE,STELLAR NATION TRADING PTE.LTD.,Aspire FT Pte Ltd,AspireBA,Key,SG AM - Caroline,2026-Q1,2026-Q2,13460.162637636617,13426.665693308933,0.9975114012193269,-0.04954983560045385,-0.07872632384932805,12531.872712969722,8631.328633211298,0.6887501039073276,0.9973856368063488,-0.30863553289902124,Risk,Declining
150792,SGEZRZ,LENDTECH INVESTMENT HOLDINGS PTE LTD,Aspire FT Pte Ltd,AspireOS,Key,SG AM-Rachel,2026-Q1,2026-Q2,13338.369319088708,6430.711541435764,0.4821212689194842,-0.04954983560045385,-0.07872632384932805,12418.478959385735,8553.228673647887,0.6887501039073276,0.5467034238653006,0.14204668004202703,Safe,Growing
80606,SGHRZQ,HORIZON QUANTUM COMPUTING PTE. LTD.,Aspire FT Pte Ltd,AspireBA,Key,SG AM-Rachel,2026-Q1,2026-Q2,13280.72011446913,7191.299591300591,0.5414841611988935,-0.04954983560045385,-0.07872632384932805,12364.80557417147,8516.261124004504,0.6887501039073276,0.5919831761012693,0.09676692780605833,Safe,Growing
108293,SGLP5D,LETSVIBE PTE. LTD.,Aspire FT Pte Ltd,AspireOS,Key,SG AM-Rachel,2026-Q1,2026-Q2,13162.206360079,5382.663567194856,0.4089484255102158,-0.04954983560045385,-0.07872632384932805,12254.465207213318,8440.264184796903,0.6887501039073276,0.7316644837686305,-0.042914379861302865,Risk,Growing
123082,SGGDFQ,GODSOURCE FURNITURE PTE. LTD.,Aspire FT Pte Ltd,AspireBA,Key,SG AM-Rachel,2026-Q1,2026-Q2,13139.477869166667,12984.477869166667,0.9882034886360496,-0.04954983560045385,-0.07872632384932805,12233.304203238908,8425.689541110745,0.6887501039073276,0.9906347302433983,-0.3018846263360707,Risk,Declining
67457,SGRARH,RARIUM INTERNATIONAL PTE. LTD.,Aspire FT Pte Ltd,AspireBA,Key,SG AM - Caroline,2026-Q1,2026-Q2,13110.772509554276,13072.793136878232,0.9971031933741229,-0.04954983560045385,-0.07872632384932805,12206.578529669654,8407.282230662928,0.6887501039073276,0.9957271723563436,-0.30697706844901596,Risk,Declining
60213,SGNPQM,UPSURGE LABS PTE LTD,Aspire FT Pte Ltd,AspireBA,Key,SG AM - Caroline,2026-Q1,2026-Q2,12980.475086957142,9793.795697181406,0.7545020988501623,-0.04954983560045385,-0.07872632384932805,12085.2671637691,8323.729014793782,0.6887501039073276,0.8156276568109143,-0.1268775529035867,Risk,Declining
56856,SGTNKF,Tonik Financial Pte Ltd,Aspire FT Pte Ltd,AspireBA,Key,SG AM - Caroline,2026-Q1,2026-Q2,12900.084028102465,6279.568997496376,0.4867851235555144,-0.04954983560045385,-0.07872632384932805,12010.420332868951,8272.178252234171,0.6887501039073276,0.5297878176410805,0.1589622862662471,Safe,Growing
70216,SGSTWN,SUNERA TECH PTE. LTD.,Aspire FT Pte Ltd,AspireBA,Key,SG AM-Rachel,2026-Q1,2026-Q2,12800.24055,12794.74055,0.999570320574952,-0.04954983560045385,-0.07872632384932805,11917.462632989334,8208.153626783098,0.6887501039073276,0.9961403073045485,-0.3073902033972209,Risk,Declining
69417,SGZAUT,ZAURAC TECHNOLOGIES PTE. LTD.,Aspire FT Pte Ltd,AspireBA,Key,SG AM-Rachel,2026-Q1,2026-Q2,12694.578665043437,5281.999906798397,0.41608312069019143,-0.04954983560045385,-0.07872632384932805,11819.08779692416,8140.397948221343,0.6887501039073276,0.4838830764011673,0.20486702750616032,Safe,Growing
126651,SGKSFP,KALEI SG PTE. LTD.,Aspire FT Pte Ltd,AspireBA,Key,SG AM-Rachel,2026-Q1,2026-Q2,12652.71161774555,9282.20547889018,0.733613928722741,-0.04954983560045385,-0.07872632384932805,11780.108141051509,8113.550706188783,0.6887501039073276,0.736009527507374,-0.047259423600046424,Risk,Declining
111587,SGGTYF,GOTYME FINANCIAL PTE. LTD.,Aspire FT Pte Ltd,AspireBA,Key,SG AM - Caroline,2026-Q1,2026-Q2,12605.710257606454,12594.710257606454,0.9991273795942309,-0.04954983560045385,-0.07872632384932805,11736.348263964093,8083.411086297853,0.6887501039073276,0.9167027779754734,-0.2279526740681458,Risk,Declining
83575,SGPP8Y,POURQUOI PAS PTE. LTD.,Aspire FT Pte Ltd,AspireBA,Key,SG AM-Rachel,2026-Q1,2026-Q2,12529.264346724563,12251.023573257415,0.9777927286257723,-0.04954983560045385,-0.07872632384932805,11665.174501031976,8034.390149682881,0.6887501039073276,0.9765574750638562,-0.28780737115652855,Risk,Declining
129420,SGRCCB,RACKSYS CREATION PTE. LTD.,Aspire FT Pte Ltd,AspireBA,Key,SG AM - Caroline,2026-Q1,2026-Q2,12447.236556864416,12402.238687205856,0.9963849108633076,-0.04954983560045385,-0.07872632384932805,11588.803817472828,7981.789833446045,0.6887501039073276,0.9952621757268427,-0.3065120718195151,Risk,Declining
112237,SGDPUP,DPUNION PTE. LTD.,Aspire FT Pte Ltd,AspireBA,Scaled,SG AM - Caroline,2026-Q1,2026-Q2,12433.410269045697,12371.613787414326,0.9950298043502015,-0.04954983560045385,-0.07872632384932805,11575.931069668683,7972.923727058367,0.6887501039073276,0.9893197550296576,-0.30056965112233003,Risk,Declining
130625,SGTAZP,TAZAPAY PTE. LTD.,Aspire FT Pte Ltd,AspireOS,Key,SG AM-Rachel,2026-Q1,2026-Q2,12418.540040978387,5350.436402202013,0.43084262598878587,-0.04954983560045385,-0.07872632384932805,11562.086377715907,7963.388194037328,0.6887501039073276,0.5215555800633784,0.16719452384394917,Safe,Growing
81753,SGBANS,BANDLAB SINGAPORE PTE. LTD.,Aspire FT Pte Ltd,AspireOS,Key,SG AM-Rachel,2026-Q1,2026-Q2,12405.35140552307,6713.686757324442,0.5411927915508622,-0.04954983560045385,-0.07872632384932805,11549.807306115268,7954.930982196503,0.6887501039073276,0.5562549572772485,0.1324951466300791,Safe,Growing
66817,SGKRRT,KRRAVE TECHNOLOGIES PTE. LTD.,Aspire FT Pte Ltd,AspireBA,Key,SG AM - Caroline,2026-Q1,2026-Q2,12358.264673834743,9373.264137711043,0.7584611905550441,-0.04954983560045385,-0.07872632384932805,11505.967945189723,7924.736617803802,0.6887501039073276,0.8326750543491982,-0.1439249504418706,Risk,Declining
94208,SGVADF,VIAS DEVELOPMENT PTE. LTD.,Aspire FT Pte Ltd,AspireBA,Key,SG AM - Caroline,2026-Q1,2026-Q2,12208.679641666668,12175.679641666668,0.9972970050022957,-0.04954983560045385,-0.07872632384932805,11366.699153767086,7828.815223240413,0.6887501039073276,0.9947825289953799,-0.3060324250880523,Risk,Declining
81235,SGDEDX,DECUBE DATA PTE. LTD.,Aspire FT Pte Ltd,AspireBA,Key,SG AM-Rachel,2026-Q1,2026-Q2,11919.28370597637,10906.02471791102,0.9149899429311092,-0.04954983560045385,-0.07872632384932805,11097.261619663237,7643.240093629853,0.6887501039073276,0.9059475286739377,-0.21719742476661008,Risk,Declining
127034,SGMC4R,MUST COMPANY SG PTE. LTD.,Aspire FT Pte Ltd,AspireBA,Key,SG AM-Rachel,2026-Q1,2026-Q2,11827.623648439714,4305.542428443104,0.36402430077415304,-0.04954983560045385,-0.07872632384932805,11011.922964786883,7584.463086216453,0.6887501039073276,0.42929017205099124,0.25945993185633637,Safe,Growing
66036,SGSCNR,SCALE INSIGHTS PTE. LTD.,Aspire FT Pte Ltd,AspireBA,Key,SG AM-Rachel,2026-Q1,2026-Q2,11826.79854483058,10296.25853692519,0.8705871244780456,-0.04954983560045385,-0.07872632384932805,11011.154765049403,7583.933988567442,0.6887501039073276,0.8806640038183429,-0.19191389991101526,Risk,Declining
150189,SGENMN,MEDIATROPY PTE LTD (USD),Aspire FT Pte Ltd,AspireBA,Key,SG AM-Rachel,2026-Q1,2026-Q2,11764.146642820471,7365.4641639430665,0.6260942155492535,-0.04954983560045385,-0.07872632384932805,10952.82369711559,7543.7584594670025,0.6887501039073276,0.6644507197788035,0.02429938412852406,Safe,Growing
144668,SGHMGC,KIM HENG MARINE & OILFIELD PTE LTD,Aspire FT Pte Ltd,AspireBA,Key,SG AM - Caroline,2026-Q1,2026-Q2,11680.980645638867,7921.735033098047,0.6781738000786478,-0.04954983560045385,-0.07872632384932805,10875.393303532317,7490.428267840938,0.6887501039073276,-0.24439877929111828,0.9331488831984459,Safe,Declining
137316,SGPVPB,PIVENE PTE. LTD.,Aspire FT Pte Ltd,AspireBA,Key,SG AM-Rachel,2026-Q1,2026-Q2,11445.19290841945,11419.761438552225,0.9977779780497612,-0.04954983560045385,-0.07872632384932805,10655.866839427743,7339.229392878505,0.6887501039073276,0.9978154663665049,-0.30906536245917726,Risk,Declining
102393,SGHYJD,TELEPORT EVERYWHERE PTE. LTD.,Aspire FT Pte Ltd,AspireOS,Key,SG AM-Rachel,2026-Q1,2026-Q2,11392.699376993638,6070.145867290231,0.5328101502922349,-0.04954983560045385,-0.07872632384932805,10606.993562648522,7305.567918418525,0.6887501039073276,0.5889556426550713,0.09979446125225633,Safe,Growing
137806,SGEQTJ,LEARTBAR PARTNERS PTE. LTD.,Aspire FT Pte Ltd,AspireBA,Key,SG AM - Caroline,2026-Q1,2026-Q2,11382.070866812292,9770.321159112873,0.8583957412882625,-0.04954983560045385,-0.07872632384932805,10597.098055416778,7298.752386784446,0.6887501039073276,0.9404686473307363,-0.2517185434234087,Risk,Declining
117503,SGKASE,KAIN SUITE PTE. LTD.,Aspire FT Pte Ltd,AspireBA,Key,SG AM-Rachel,2026-Q1,2026-Q2,11213.0769498,6248.166308266919,0.5572213885840107,-0.04954983560045385,-0.07872632384932805,10439.758927036379,7190.385045763756,0.6887501039073276,0.610384708926008,0.07836539498131956,Safe,Growing
84773,SGBRP3,JOIN BRANDS PTE. LTD.,Aspire FT Pte Ltd,AspireBA,Key,SG AM-Rachel,2026-Q1,2026-Q2,11117.389974468684,7793.920532393281,0.7010566823950748,-0.04954983560045385,-0.07872632384932805,10350.671073685471,7129.025777511439,0.6887501039073276,0.7173472860549425,-0.028597182147614864,Risk,Declining
134433,SGYDNT,YDNE TIME PTE LTD,Aspire FT Pte Ltd,AspireBA,Key,SG AM - Caroline,2026-Q1,2026-Q2,11084.804406329506,10935.62050415596,0.9865415846139459,-0.04954983560045385,-0.07872632384932805,10320.332792997973,7108.130283535555,0.6887501039073276,0.9801501000891664,-0.29139999618183876,Risk,Declining
115418,SGFYWD,"Intrepid Philippines, Inc.",Aspire FT Pte Ltd,AspireOS,Key,SG AM-Rachel,2026-Q1,2026-Q2,11064.879709335277,4193.494841091123,0.37899145325123895,-0.04954983560045385,-0.07872632384932805,10301.782217250993,7095.353572562281,0.6887501039073276,0.3656525477038934,0.3230975562034342,Safe,Growing
85644,SGGRVW,GREAT VISION SHIPPING PTE. LTD.,Aspire FT Pte Ltd,AspireBA,Key,SG AM - Caroline,2026-Q1,2026-Q2,11038.191490071642,11032.691490071642,0.9995017299704443,-0.04954983560045385,-0.07872632384932805,10276.934570476464,7078.239753264472,0.6887501039073276,0.9987663236761557,-0.3100162197688281,Risk,Declining
125582,SGKNSG,KINGMIDAS CAPITAL PTE. LTD,Aspire FT Pte Ltd,AspireBA,Key,SG AM-Rachel,2026-Q1,2026-Q2,11010.898352940243,11009.90199321372,0.9999095114953761,-0.04954983560045385,-0.07872632384932805,10251.523724435723,7060.738030413539,0.6887501039073276,0.9987878783007542,-0.3100377743934266,Risk,Declining
85191,SGMP9G,MONETRACK PTE. LTD.,Aspire FT Pte Ltd,AspireBA,Key,SG AM - Caroline,2026-Q1,2026-Q2,10942.4844731,10131.414031808912,0.9258787669943742,-0.04954983560045385,-0.07872632384932805,10187.828057671559,7016.8676333112735,0.6887501039073276,0.9196509093779693,-0.23090080547064173,Risk,Declining
65951,SGATAG,Atlasv Global Pte. Ltd.,Aspire FT Pte Ltd,AspireBA,Key,SG AM - Caroline,2026-Q1,2026-Q2,10935.421164695927,4563.465143750162,0.4173104149370048,-0.04954983560045385,-0.07872632384932805,10181.251875478576,7012.338287142543,0.6887501039073276,0.4325853999733821,0.2561647039339455,Safe,Growing
105066,SGHNPB,HONGTEX PTE. LTD.,Aspire FT Pte Ltd,AspireBA,Key,SG AM-Rachel,2026-Q1,2026-Q2,10888.895435443987,10723.895435443987,0.984846947885741,-0.04954983560045385,-0.07872632384932805,10137.934827047593,6982.503665534745,0.6887501039073276,0.985237868300343,-0.2964877643930154,Risk,Declining
114313,SGEXLP,CILLIA EXPRESS LIMITED,AFT HK Limited,AspireBA,Key,SG AM - Caroline,2026-Q1,2026-Q2,10861.90131385853,7280.865299323419,0.6703122306988627,-0.04954983560045385,-0.07872632384932805,10112.802374727777,6965.1936863880255,0.6887501039073276,0.6203658749992103,0.06838422890811735,Safe,Declining
109572,SGSPLU,SUNA OPTOELECTRONICS (SINGAPORE) PTE LTD,Aspire FT Pte Ltd,AspireBA,Key,SG AM-Rachel,2026-Q1,2026-Q2,10738.876021222452,10721.879076894767,0.9984172510890251,-0.04954983560045385,-0.07872632384932805,9998.261611046346,6886.303723500815,0.6887501039073276,0.9980820661276723,-0.30933196222034465,Risk,Declining
77903,SGMUTW,MULTIPLIER TECHNOLOGIES PTE. LTD. (USD Advance/SGD Debit),Aspire FT Pte Ltd,AspireOS,Key,SG AM-Rachel,2026-Q1,2026-Q2,10724.578530294477,3855.2583713009844,0.35947877675665885,-0.04954983560045385,-0.07872632384932805,9984.950156998739,6877.135458142368,0.6887501039073276,0.3797092626309456,0.309040841276382,Safe,Growing
65252,SGBYAW,DC Byte Asia Pte. Ltd.,Aspire FT Pte Ltd,AspireBA,Key,SG AM-Rachel,2026-Q1,2026-Q2,10616.603137024056,9486.44483681489,0.8935480317364523,-0.04954983560045385,-0.07872632384932805,9884.421365406413,6807.896242487476,0.6887501039073276,0.9323487215185835,-0.2435986176112559,Risk,Declining
80992,SGNVDN,INVIDEO INNOVATION PTE. LTD.,Aspire FT Pte Ltd,AspireOS,Key,SG AM-Rachel,2026-Q1,2026-Q2,10537.0170973,5392.590342911228,0.5117757988921763,-0.04954983560045385,-0.07872632384932805,9810.32403490593,6756.861698406013,0.6887501039073276,0.5597485717200686,0.12900153218725896,Safe,Growing
82427,SGTPBD,TERRA PAYMENT SERVICES (SINGAPORE) PTE LTD,Aspire FT Pte Ltd,AspireBA,Key,SG AM - Caroline,2026-Q1,2026-Q2,10470.188277976582,10052.843721427667,0.9601397276277472,-0.04954983560045385,-0.07872632384932805,9748.104113805022,6714.007721282656,0.6887501039073276,0.9532850417248043,-0.2645349378174767,Risk,Declining
134548,SGGVDN,GREENBOY VENTURES LIMITED,AFT HK Limited,AspireBA,Key,SG AM - Caroline,2026-Q1,2026-Q2,10339.93167704143,10330.00603712304,0.9990400671659727,-0.04954983560045385,-0.07872632384932805,9626.830754270784,6630.48068230226,0.6887501039073276,0.9997413197827545,-0.3109912158754269,Risk,Declining
119967,SGGTTH,GLORY TOP TRADING PTE. LTD.,Aspire FT Pte Ltd,AspireBA,Key,SG AM - Caroline,2026-Q1,2026-Q2,10259.026793131645,10120.529678439641,0.9864999753402802,-0.04954983560045385,-0.07872632384932805,9551.505534634876,6578.600429451186,0.6887501039073276,0.9799487875271985,-0.2911986836198709,Risk,Declining
142151,SGAEP5,CHRONOAI PTE. LTD.,Aspire FT Pte Ltd,AspireBA,Key,SG AM - Caroline,2026-Q1,2026-Q2,10162.603305937891,10069.8513226367,0.9908732063518608,-0.04954983560045385,-0.07872632384932805,9461.731963498818,6516.768873003094,0.6887501039073276,0.991030682930032,-0.30228057902270444,Risk,Declining
123816,SGJNMR,Jingkaida Microelectronics Technology Pte Ltd,Aspire FT Pte Ltd,AspireBA,Key,SG AM - Caroline,2026-Q1,2026-Q2,10112.883119126573,10055.000507055585,0.9942763491489867,-0.04954983560045385,-0.07872632384932805,9415.440765601828,6484.885805641547,0.6887501039073276,0.9936405220395385,-0.30489041813221085,Risk,Declining
80816,SGSSHW,"(USD) SPROUT SOLUTIONS PHIL., INC",Aspire FT Pte Ltd,AspireBA,Key,SG AM-Rachel,2026-Q1,2026-Q2,10086.0214832,2080.9083070049055,0.206316069271815,-0.04954983560045385,-0.07872632384932805,9390.43166197089,6467.660782917109,0.6887501039073276,0.338679700648757,0.3500704032585706,Safe,Growing
147380,SGDYMA,Dyment labs PTE LTD,Aspire FT Pte Ltd,AspireBA,Key,SG AM-Rachel,2026-Q1,2026-Q2,10081.062841645784,9841.452950188217,0.9762316835812473,-0.04954983560045385,-0.07872632384932805,9385.8149967448,6464.481054262935,0.6887501039073276,0.982959527629817,-0.29420942372248937,Risk,Declining
135388,SGHECK,HELMSMAN CAPITAL PTE. LTD.,Aspire FT Pte Ltd,AspireBA,Key,SG AM - Caroline,2026-Q1,2026-Q2,10052.036296649732,10035.289814986947,0.9983340209716148,-0.04954983560045385,-0.07872632384932805,9358.79028857592,6445.867783703553,0.6887501039073276,0.9950826827147056,-0.30633257880737796,Risk,Declining
125931,SGESH9,ESSENCE SHIPPING PTE. LTD.,Aspire FT Pte Ltd,AspireBA,Key,SG AM - Caroline,2026-Q1,2026-Q2,9965.843816290135,9745.672859192202,0.9779074445519563,-0.04954983560045385,-0.07872632384932805,9278.54213543241,6390.59685988759,0.6887501039073276,0.9431486402965102,-0.25439853638918264,Risk,Declining
107087,SGFGZX,OSOME LTD.,Aspire FT Pte Ltd,AspireOS,Key,SG AM-Rachel,2026-Q1,2026-Q2,9919.797413751985,6436.728119602165,0.6488769731001581,-0.04954983560045385,-0.07872632384932805,9235.671356599118,6361.069606511572,0.6887501039073276,0.6575464735611899,0.031203630346137712,Safe,Declining
58755,SGASLS,Ascenda Loyalty Pte Ltd,Aspire FT Pte Ltd,AspireOS,Key,SG AM-Rachel,2026-Q1,2026-Q2,9836.634232267741,4264.37263763887,0.43351948816498387,-0.04954983560045385,-0.07872632384932805,9158.243584526585,6307.741220451301,0.6887501039073276,0.4247749579174656,0.263975145989862,Safe,Growing
143847,SGMPR3,MOBIVERSA PTE. LTD.,Aspire FT Pte Ltd,AspireBA,Key,SG AM-Rachel,2026-Q1,2026-Q2,9663.280753363335,5608.674270189485,0.5804109818745945,-0.04954983560045385,-0.07872632384932805,8996.845554616752,6196.578310580466,0.6887501039073276,0.6067269767330515,0.08202312717427607,Safe,Growing
95603,SGRNCW,PT. RINAIYANTI CAHAYA INTERMA,Aspire FT Pte Ltd,AspireBA,Key,Eureka,2026-Q1,2026-Q2,9663.109265791838,1485.674359518476,0.1537470309663039,-0.04954983560045385,-0.07872632384932805,8996.685893810585,6196.468344183629,0.6887501039073276,0.2713367362832754,0.4174133676240522,Safe,Growing
78038,SGZUZG,MATHRIX SINGAPORE PTE. LTD.,Aspire FT Pte Ltd,AspireBA,Key,SG AM-Rachel,2026-Q1,2026-Q2,9391.959113719557,9228.814510207198,0.9826293320129512,-0.04954983560045385,-0.07872632384932805,8744.235809561911,6022.593322425942,0.6887501039073276,0.9880985404546059,-0.2993484365472783,Risk,Declining
83894,SGYUTW,YUKICHI TRADING PTE. LTD.,Aspire FT Pte Ltd,AspireBA,Key,SG AM-Rachel,2026-Q1,2026-Q2,9373.837420503143,9131.869597027957,0.9741868977857524,-0.04954983560045385,-0.07872632384932805,8727.363892123367,6010.972787537028,0.6887501039073276,0.9608132042898557,-0.2720631003825281,Risk,Declining
120222,SGUPWW,UNITE PROPERTIES PTE. LTD.,Aspire FT Pte Ltd,AspireBA,Key,SG AM - Caroline,2026-Q1,2026-Q2,9340.41445623565,9335.188647014533,0.9994405163447936,-0.04954983560045385,-0.07872632384932805,8696.245966941751,5989.54031333481,0.6887501039073276,0.9991092152248112,-0.3103591113174836,Risk,Declining
124255,SGMAA3,Hendra Permana,Aspire FT Pte Ltd,AspireBA,Key,SG AM-Rachel,2026-Q1,2026-Q2,9325.801221439526,4879.6844168210855,0.5232455958425264,-0.04954983560045385,-0.07872632384932805,8682.640544531943,5980.169577236352,0.6887501039073276,0.5593997859997452,0.12935031790758245,Safe,Growing
124255,SGMAA3,Hendra Permana,Aspire FT Pte Ltd,AspireBA,Key,Eureka,2026-Q1,2026-Q2,9325.801221439526,4879.6844168210855,0.5232455958425264,-0.04954983560045385,-0.07872632384932805,8682.640544531941,5980.16957723635,0.6887501039073276,0.5593997859997452,0.12935031790758245,Safe,Growing
74188,SGERAA,ERA AGRO TECHNOLOGY PTE. LTD.,Aspire FT Pte Ltd,AspireBA,Key,SG AM-Rachel,2026-Q1,2026-Q2,9308.044807517434,2739.1975202585404,0.29428280341391233,-0.04954983560045385,-0.07872632384932805,8666.10871463501,5968.78327767706,0.6887501039073276,0.309215242802719,0.3795348611046086,Safe,Growing
65171,SGLETF,SD LEGOS TECHNOLOGIES PTE LTD,Aspire FT Pte Ltd,AspireBA,Key,SG AM - Caroline,2026-Q1,2026-Q2,9290.576963905794,6805.60819148316,0.7325280462045768,-0.04954983560045385,-0.07872632384932805,8649.845553586789,5957.582023815236,0.6887501039073276,0.7431795261896452,-0.05442942228231762,Risk,Declining
91438,SGECME,ECOMMERCE ENABLERS PTE. LTD. (SGD),Aspire FT Pte Ltd,AspireOS,Key,SG AM-Rachel,2026-Q1,2026-Q2,9258.416211446875,3729.706657924069,0.402844997755961,-0.04954983560045385,-0.07872632384932805,8619.902790856599,5936.958942873545,0.6887501039073276,0.508566535547916,0.18018356835941163,Safe,Growing
90181,SGWULN,WULOOK INVESTMENT MANAGEMENT PTE. LTD.,Aspire FT Pte Ltd,AspireBA,Key,SG AM-Rachel,2026-Q1,2026-Q2,9142.9793298637,9139.992721755283,0.999673344103638,-0.04954983560045385,-0.07872632384932805,8512.427097930165,5862.935048202952,0.6887501039073276,0.9996271452922759,-0.3108770413849483,Risk,Declining
125477,SGKBLP,OKBL PTE. LTD.,Aspire FT Pte Ltd,AspireBA,Key,SG AM - Caroline,2026-Q1,2026-Q2,9031.46143505298,6802.698386865194,0.7532223257315265,-0.04954983560045385,-0.07872632384932805,8408.600115997673,5791.424203608564,0.6887501039073276,0.7434806951013543,-0.05473059119402668,Risk,Declining
176595,SGDP67,DIGITAL PATHOLOGY PTE LTD,Aspire FT Pte Ltd,AspireBA,Scaled,SG AM - Caroline,2026-Q1,2026-Q2,8992.696879052814,8981.590263791675,0.9987649294299011,-0.04954983560045385,-0.07872632384932805,8372.508985849623,5766.566433968962,0.6887501039073276,0.9987649294299011,-0.31001482552257353,Risk,Declining
58127,SGWDHP,WOODHOO PTE. LTD.,Aspire FT Pte Ltd,AspireBA,Key,SG AM - Caroline,2026-Q1,2026-Q2,8966.894391965168,8963.16758390821,0.9995843814040793,-0.04954983560045385,-0.07872632384932805,8348.485986086138,5750.020590385696,0.6887501039073276,0.9967201306458321,-0.3079700267385045,Risk,Declining
134985,SGUUDK,HAPPY SUPPLIER PTE. LTD.,Aspire FT Pte Ltd,AspireBA,Key,SG AM-Rachel,2026-Q1,2026-Q2,8933.074463941124,6830.748751955935,0.7646582125256709,-0.04954983560045385,-0.07872632384932805,8316.998474042706,5728.333563193999,0.6887501039073276,0.7218593406644673,-0.033109236757139726,Risk,Declining
56632,SGPRPH,PRIVYR PTE. LTD.,Aspire FT Pte Ltd,AspireBA,Key,SG AM-Rachel,2026-Q1,2026-Q2,8897.581824987152,3078.1278855050678,0.3459510624404415,-0.04954983560045385,-0.07872632384932805,8283.953610797527,5705.573910200279,0.6887501039073276,0.44353247519349176,0.24521762871383584,Safe,Growing
76663,SGMEPR,MEDIQ PTE. LTD.,Aspire FT Pte Ltd,AspireBA,Key,SG AM-Rachel,2026-Q1,2026-Q2,8769.005108333335,8570.176843995456,0.9773260179596738,-0.04954983560045385,-0.07872632384932805,8164.244281101039,5623.124096933146,0.6887501039073276,0.9803225261955459,-0.29157242228821834,Risk,Declining
123806,SGKPTZ,SHOPUP PTE. LTD.,Aspire FT Pte Ltd,AspireBA,Key,SG AM - Caroline,2026-Q1,2026-Q2,8760.089012637185,4374.16015292283,0.49932827698585325,-0.04954983560045385,-0.07872632384932805,8155.943090441694,5617.406651003967,0.6887501039073276,0.5097224020078384,0.17902770189948924,Safe,Growing
116072,SGFYDR,INTREPID DIGITAL COMMERCE PTE. LTD.,Aspire FT Pte Ltd,AspireOS,Key,SG AM-Rachel,2026-Q1,2026-Q2,8662.638221886391,3126.673272006618,0.36093776421448526,-0.04954983560045385,-0.07872632384932805,8065.2130644869985,5554.916336200156,0.6887501039073276,0.3769919734022708,0.3117581305050568,Safe,Growing
159924,SGFLJY,One Funnel Limited,AFT HK Limited,AspireBA,Key,SG AM-Rachel,2026-Q1,2026-Q2,8539.089074084895,4855.7901385697705,0.5686543490108924,-0.04954983560045385,-0.07872632384932805,7950.184573693363,5475.690451213737,0.6887501039073276,0.5686543490108924,0.1200957548964352,Safe,Growing
98527,SGWALH,WALKER HOLDINGS PTE. LTD.,Aspire FT Pte Ltd,AspireBA,Key,SG AM-Rachel,2026-Q1,2026-Q2,8496.974485083996,5807.309003726922,0.6834560953338574,-0.04954983560045385,-0.07872632384932805,7910.97444801163,5448.684473076223,0.6887501039073276,0.7216607236399282,-0.032910619732600566,Risk,Declining
110521,SGTTKK,TRY-V Technologies Pte. Ltd.,Aspire FT Pte Ltd,AspireBA,Key,SG AM-Rachel,2026-Q1,2026-Q2,8384.956461666667,8347.716049675018,0.9955586636422146,-0.04954983560045385,-0.07872632384932805,7806.681829206324,5376.852921037303,0.6887501039073276,0.9912186261045416,-0.302468522197214,Risk,Declining
125793,SGNSG8,NINE SMART PTE. LTD.,Aspire FT Pte Ltd,AspireBA,Key,SG AM-Rachel,2026-Q1,2026-Q2,8351.29843581263,8309.864313867052,0.9950386012110527,-0.04954983560045385,-0.07872632384932805,7775.3450536317705,5355.269713604208,0.6887501039073276,0.9846402564331946,-0.29589015252586703,Risk,Declining
124956,SGKH5E,KAYNES HOLDING PTE. LTD.,Aspire FT Pte Ltd,AspireBA,Scaled,SG AM - Caroline,2026-Q1,2026-Q2,8328.926148224013,8284.613804984196,0.9946797051082911,-0.04954983560045385,-0.07872632384932805,7754.51568715929,5340.923485281963,0.6887501039073276,0.9042797101509202,-0.21552960624359263,Risk,Declining
92525,SGVBPX,VIBEFAM PTE. LTD.,Aspire FT Pte Ltd,AspireBA,Key,SG AM-Rachel,2026-Q1,2026-Q2,8312.772835559297,7501.9072900882675,0.9024554668446593,-0.04954983560045385,-0.07872632384932805,7739.476399473346,5330.565174325577,0.6887501039073276,0.797822376990778,-0.10907227308345036,Risk,Declining
72736,SGKNEN,KINETIC INNOVATION PTE. LTD.,Aspire FT Pte Ltd,AspireBA,Key,SG AM-Rachel,2026-Q1,2026-Q2,8235.706966218844,6878.613123567245,0.8352182941648949,-0.04954983560045385,-0.07872632384932805,7667.725433969523,5281.146689379368,0.6887501039073276,0.845730705578439,-0.15698060167111139,Risk,Declining
104921,SGTTMS,TTMFS SINGAPORE PTE LTD,Aspire FT Pte Ltd,AspireOS,Key,SG AM-Rachel,2026-Q1,2026-Q2,8234.2635637,2914.184189091681,0.3539095107349486,-0.04954983560045385,-0.07872632384932805,7666.381576757192,5280.221107584738,0.6887501039073276,0.4977980129322858,0.1909520909750418,Safe,Growing
147173,SGSGG4,Stadioo Global Limited,AFT HK Limited,AspireBA,Key,SG AM - Caroline,2026-Q1,2026-Q2,8118.837245107207,8071.613243862733,0.9941834033841566,-0.04954983560045385,-0.07872632384932805,7558.915718336811,5206.20398643121,0.6887501039073276,0.9880738387868545,-0.2993237348795269,Risk,Declining
121003,SGCTYN,LION CITY INNOVATIONS PTE. LTD.,Aspire FT Pte Ltd,AspireBA,Key,SG AM - Caroline,2026-Q1,2026-Q2,8024.979683119338,7846.546288432021,0.9777652527815548,-0.04954983560045385,-0.07872632384932805,7471.531111505034,5146.0178293959225,0.6887501039073276,0.9664582141473907,-0.27770811024006314,Risk,Declining
115951,SGSKPL,SKINSEOUL PTE. LTD.,Aspire FT Pte Ltd,AspireBA,Key,SG AM-Rachel,2026-Q1,2026-Q2,8013.609907862972,3667.4579100650603,0.45765366073865693,-0.04954983560045385,-0.07872632384932805,7460.94546108433,5138.726961568736,0.6887501039073276,0.5739278270769986,0.11482227683032897,Safe,Growing
146268,SGGDL7,Goodsol HK Limited,AFT HK Limited,AspireBA,Key,SG AM - Caroline,2026-Q1,2026-Q2,7861.238533284005,1989.8083917415374,0.25311639932013386,-0.04954983560045385,-0.07872632384932805,7319.0824893855615,5041.018825070608,0.6887501039073276,0.35988712797193556,0.32886297593539204,Safe,Growing
104000,SGRPBE,RADIAROSE PTE. LTD.,Aspire FT Pte Ltd,AspireBA,Key,SG AM-Rachel,2026-Q1,2026-Q2,7840.629972922936,6377.863068451797,0.8134375796941442,-0.04954983560045385,-0.07872632384932805,7299.895213407162,5027.803586746786,0.6887501039073276,0.834686117274145,-0.14593601336681739,Risk,Declining
108170,SGYNCA,YING CONSERVATION RESEARCH PTE. LTD.,Aspire FT Pte Ltd,AspireBA,Key,SG AM - Caroline,2026-Q1,2026-Q2,7815.9957668912275,7787.999577529023,0.9964180905162721,-0.04954983560045385,-0.07872632384932805,7276.959923345271,5012.006903333514,0.6887501039073276,0.9971373284931765,-0.3083872245858489,Risk,Declining
74054,SGPL5G,Primal Co Ltd,Aspire FT Pte Ltd,AspireBA,Key,SG AM-Rachel,2026-Q1,2026-Q2,7810.623300606118,4517.937646590207,0.5784349689786739,-0.04954983560045385,-0.07872632384932805,7271.957973112408,5008.56180959089,0.6887501039073276,0.6147921622394646,0.07395794166786296,Safe,Growing
121299,SGHGFS,HIGH FIVE SOLUTIONS PTE. LTD.,Aspire FT Pte Ltd,AspireBA,Key,SG AM-Rachel,2026-Q1,2026-Q2,7633.041743715865,6366.6100067482585,0.8340855743373558,-0.04954983560045385,-0.07872632384932805,7106.623457696002,4894.687644918374,0.6887501039073276,0.8314087436394462,-0.14265863973211856,Risk,Declining
87141,SGTCZF,THE CARE SVC PTE. LTD.,Aspire FT Pte Ltd,AspireBA,Key,SG AM - Caroline,2026-Q1,2026-Q2,7628.0613638180175,7529.924981527707,0.9871348200270388,-0.04954983560045385,-0.07872632384932805,7101.986553326991,4891.493976552409,0.6887501039073276,0.9882811984303129,-0.2995310945229853,Risk,Declining
62907,SGAMEN,AMENLI INSURANCE PTE. LTD.,Aspire FT Pte Ltd,AspireBA,Key,SG AM - Caroline,2026-Q1,2026-Q2,7566.746430526669,5142.91732145148,0.6796735385109921,-0.04954983560045385,-0.07872632384932805,7044.9002490900075,4852.175778577501,0.6887501039073276,0.8054249420297108,-0.11667483812238322,Risk,Declining
54182,SGFEXR,PROPERTY SCOUT HOLDING PTE. LTD.,Aspire FT Pte Ltd,AspireOS,Key,SG AM-Rachel,2026-Q1,2026-Q2,7480.6640208350445,6778.323335231743,0.9061125210747132,-0.04954983560045385,-0.07872632384932805,6964.754575510646,4796.975437571992,0.6887501039073276,0.9010899643697412,-0.2123398604624136,Risk,Declining
80725,SGSPSV,SPROUT SOLUTIONS PHIL INC,Aspire FT Pte Ltd,AspireBA,Key,SG AM-Rachel,2026-Q1,2026-Q2,7459.21024553969,4892.360676350467,0.6558818581733774,-0.04954983560045385,-0.07872632384932805,6944.780375461808,4783.21820521289,0.6887501039073276,0.6946528807837454,-0.005902776876417826,Risk,Declining
146925,SGLT93,LUSTRON TECHNOLOGY PTE. LTD.,Aspire FT Pte Ltd,AspireBA,Key,SG AM-Rachel,2026-Q1,2026-Q2,7405.511353200445,7394.511353200445,0.9985146197912118,-0.04954983560045385,-0.07872632384932805,6894.784866362889,4748.78379312611,0.6887501039073276,0.9975429021612267,-0.30879279825389905,Risk,Declining
144644,SGMGHM,MADINA GLOBAL SOLUTION PTE. LTD.,Aspire FT Pte Ltd,AspireBA,Key,SG AM-Rachel,2026-Q1,2026-Q2,7383.642424770624,4234.745416098713,0.5735306739519238,-0.04954983560045385,-0.07872632384932805,6874.424144518025,4734.760343839832,0.6887501039073276,0.617245698725455,0.07150440518187262,Safe,Growing
79689,SGPSGR,PURPLE STONE CONSULTING PTE. LTD.,Aspire FT Pte Ltd,AspireBA,Key,SG AM-Rachel,2026-Q1,2026-Q2,7353.036902466666,6974.500452219782,0.9485197129746623,-0.04954983560045385,-0.07872632384932805,6845.929354361871,4715.1345541589635,0.6887501039073276,0.9865489942880608,-0.29779889038073315,Risk,Declining
55758,SGMMUS,IMMUNI SOFTWARE PTE. LTD.,Aspire FT Pte Ltd,AspireOS,Key,SG AM-Rachel,2026-Q1,2026-Q2,7337.1654540362515,4621.844241765176,0.6299223141032824,-0.04954983560045385,-0.07872632384932805,6831.152491937916,4704.95698862904,0.6887501039073276,0.6395572140746164,0.049192889832711195,Safe,Growing
92699,SGWATH,WAFFO TECHNOLOGIES PTE. LTD.,Aspire FT Pte Ltd,AspireBA,Key,SG AM-Rachel,2026-Q1,2026-Q2,7308.99408001459,6095.542638604095,0.8339783247699563,-0.04954983560045385,-0.07872632384932805,6804.923977254017,4686.892096415169,0.6887501039073276,0.8774181910053194,-0.18866808709799177,Risk,Declining
124505,SGBWXZ,Benjamin Warwick Limited,AFT HK Limited,AspireBA,Key,SG AM - Caroline,2026-Q1,2026-Q2,7245.286904069053,6709.15449000586,0.9260025971142573,-0.04954983560045385,-0.07872632384932805,6745.610413120706,4646.039872955237,0.6887501039073276,0.919351444473321,-0.23060134056599335,Risk,Declining
70699,SGNTCD,INTELLECT COMPANY PTE. LTD.,Aspire FT Pte Ltd,AspireOS,Key,SG AM-Rachel,2026-Q1,2026-Q2,7230.673738953897,3543.657239069733,0.4900867287067518,-0.04954983560045385,-0.07872632384932805,6732.005055586268,4636.669181539697,0.6887501039073276,0.5185469965673938,0.17020310733993382,Safe,Growing
72147,SGCP9H,CARGOAI PTE. LTD.,Aspire FT Pte Ltd,AspireBA,Key,SG AM-Rachel,2026-Q1,2026-Q2,7225.513499038836,4848.766420220737,0.6710618450668921,-0.04954983560045385,-0.07872632384932805,6727.200695377194,4633.360177946489,0.6887501039073276,0.650280222310129,0.03846988159719855,Safe,Declining
133261,SGJVHF,CAVAS C A PTE LTD,Aspire FT Pte Ltd,AspireBA,Key,SG AM - Caroline,2026-Q1,2026-Q2,7216.568011666666,7194.568011666666,0.9969514594798478,-0.04954983560045385,-0.07872632384932805,6718.872140060183,4627.623884606499,0.6887501039073276,0.9890300498445269,-0.3002799459371993,Risk,Declining
99918,SGJTY5,DIGITAL ASSET NETWORK SECURITY PTE LTD,Aspire FT Pte Ltd,AspireBA,Key,SG AM-Rachel,2026-Q1,2026-Q2,7209.457692468635,7153.653386004057,0.9922595694648608,-0.04954983560045385,-0.07872632384932805,6712.2521892069035,4623.064392768442,0.6887501039073276,0.9943963868251747,-0.3056462829178471,Risk,Declining
108958,SGMBBP,MOBBIN PTE. LTD.,Aspire FT Pte Ltd,AspireOS,Key,SG AM-Rachel,2026-Q1,2026-Q2,7195.875287523555,3257.8009263215467,0.4527317103410657,-0.04954983560045385,-0.07872632384932805,6699.6065047163,4614.35467626156,0.6887501039073276,0.5029320277568743,0.18581807615045332,Safe,Growing
138436,SGYNQE,YAQITE INTERNATIONAL PTE. LTD.,Aspire FT Pte Ltd,AspireBA,Key,SG AM-Rachel,2026-Q1,2026-Q2,7147.353093486818,6861.853093486818,0.9600551426149397,-0.04954983560045385,-0.07872632384932805,6654.430679149219,4583.239821708134,0.6887501039073276,0.9709982425304863,-0.2822481386231587,Risk,Declining
96850,SGGP5G,GOROCKY PTE. LTD.,Aspire FT Pte Ltd,AspireBA,Key,SG AM-Rachel,2026-Q1,2026-Q2,7139.68057778335,4800.232079253625,0.6723314897574799,-0.04954983560045385,-0.07872632384932805,6647.28730408217,4578.319821388454,0.6887501039073276,0.6728600859990145,0.015890017908313125,Safe,Declining
122962,SGEP8R,ERANOVA PTE. LTD.,Aspire FT Pte Ltd,AspireBA,Key,SG AM - Caroline,2026-Q1,2026-Q2,7125.100668964751,7098.702393620732,0.9962950312465053,-0.04954983560045385,-0.07872632384932805,6633.712909299563,4568.970455571454,0.6887501039073276,0.9906626461777163,-0.30191254227038866,Risk,Declining
69527,SGTAPG,TABLEVIBE PTE. LTD.,Aspire FT Pte Ltd,AspireOS,Key,SG AM-Rachel,2026-Q1,2026-Q2,7114.603830133993,5163.616678371755,0.7257771200837906,-0.04954983560045385,-0.07872632384932805,6623.9399926077685,4562.2393581845035,0.6887501039073276,0.7244472022638795,-0.03569709835655188,Risk,Declining
80746,SGDGP4,DIGITIBLE PTE. LTD.,Aspire FT Pte Ltd,AspireBA,Key,SG AM-Rachel,2026-Q1,2026-Q2,7103.041653384583,6491.897257943198,0.9139601842050052,-0.04954983560045385,-0.07872632384932805,6613.17520980319,4554.8251129093105,0.6887501039073276,0.9795906575447558,-0.2908405536374282,Risk,Declining
83147,SGGEKD,META 1 NETWORK PTE. LTD.,Aspire FT Pte Ltd,AspireBA,Key,SG AM - Caroline,2026-Q1,2026-Q2,7089.331438451891,5254.463748144448,0.7411790228405337,-0.04954983560045385,-0.07872632384932805,6600.4105298339055,4546.033438254121,0.6887501039073276,0.737207477129124,-0.04845737322179644,Risk,Declining
122858,SGNUPR,NUTRIMOTION PTE. LTD.,Aspire FT Pte Ltd,AspireBA,Key,SG AM - Caroline,2026-Q1,2026-Q2,7082.964065,6871.144996330122,0.9700945724521506,-0.04954983560045385,-0.07872632384932805,6594.482286932002,4541.950360339448,0.6887501039073276,0.9755585877659062,-0.2868084838585786,Risk,Declining
107154,SGAPMP,APPLABS MEDIA PTE. LTD.,Aspire FT Pte Ltd,AspireBA,Key,SG AM-Rachel,2026-Q1,2026-Q2,7062.2118698815775,6863.15575699383,0.9718139137489392,-0.04954983560045385,-0.07872632384932805,6575.1612820719565,4528.643016234498,0.6887501039073276,0.9316959896453291,-0.24294588573800147,Risk,Declining
104726,SGBLTH,BLUE TECHNOLOGY COMPANY LIMITED,Aspire FT Pte Ltd,AspireBA,Scaled,SG AM-Rachel,2026-Q1,2026-Q2,7061.3780227,1381.1279516874051,0.1955890121230636,-0.04954983560045385,-0.07872632384932805,6574.384941768876,4528.108311770084,0.6887501039073276,0.19906424237668102,0.4896858615306466,Safe,Growing
93539,SGNTAL,INITIA LABS PTE. LTD.,Aspire FT Pte Ltd,AspireBA,Key,SG AM - Caroline,2026-Q1,2026-Q2,7055.087911826743,2772.4100393723847,0.3929660514541394,-0.04954983560045385,-0.07872632384932805,6568.528632975571,4524.074778480181,0.6887501039073276,0.4232796833003943,0.2654704206069333,Safe,Growing
102761,SGAYK4,SHARDLAB PTE. LTD.,Aspire FT Pte Ltd,AspireBA,Key,SG AM - Caroline,2026-Q1,2026-Q2,7022.859423948869,5034.941789078727,0.7169361488155263,-0.04954983560045385,-0.07872632384932805,6538.522806248954,4503.408262204399,0.6887501039073276,0.7374104455121236,-0.04866034160479604,Risk,Declining
133106,SGGCAC,GRAND CORNERSTONE PTE. LTD.,Aspire FT Pte Ltd,AspireBA,Key,SG AM-Rachel,2026-Q1,2026-Q2,6965.351034957908,6739.104553295122,0.9675182944079496,-0.04954983560045385,-0.07872632384932805,6484.980525210869,4466.531010575982,0.6887501039073276,0.9825771895819682,-0.29382708567464055,Risk,Declining
77290,SGGLDA,GOLDIE AGENCY PTE. LTD.,Aspire FT Pte Ltd,AspireBA,Key,SG AM-Rachel,2026-Q1,2026-Q2,6940.419142676957,2472.9504052477964,0.3563113919217804,-0.04954983560045385,-0.07872632384932805,6461.768079048836,4450.543435869939,0.6887501039073276,0.4896309691242224,0.19911913478310522,Safe,Growing
86540,SGEMBA,Embassy Alliance Travel Pte Ltd,Aspire FT Pte Ltd,AspireBA,Key,SG AM - Caroline,2026-Q1,2026-Q2,6939.315303044003,5246.886023433454,0.7561100475045216,-0.04954983560045385,-0.07872632384932805,6460.74036652053,4449.835598759281,0.6887501039073276,0.6873447916784707,0.0014053122288568698,Safe,Declining
113081,SGLPRM,YOBO LABS PTE. LTD.,Aspire FT Pte Ltd,AspireBA,Key,SG AM - Caroline,2026-Q1,2026-Q2,6935.525489185841,6525.633359902259,0.9408996290298834,-0.04954983560045385,-0.07872632384932805,6457.211919936719,4447.40538080805,0.6887501039073276,0.9346801694801409,-0.24593006557281327,Risk,Declining
146485,SGSYPB,SYNGENTIX PTE. LTD.,Aspire FT Pte Ltd,AspireBA,Key,SG AM-Rachel,2026-Q1,2026-Q2,6806.075337489622,6682.950902502295,0.9819096279600189,-0.04954983560045385,-0.07872632384932805,6336.689392281995,4364.395477362685,0.6887501039073276,0.9836794243925561,-0.29492932048522846,Risk,Declining
147638,SGBMM2,BEFITTING MOTION PTE. LTD.,Aspire FT Pte Ltd,AspireBA,Key,SG AM-Rachel,2026-Q1,2026-Q2,6755.3829166666665,6744.3829166666665,0.9983716689141542,-0.04954983560045385,-0.07872632384932805,6289.493011200442,4331.888964988715,0.6887501039073276,0.9960864841348512,-0.30733638022752363,Risk,Declining
107103,SGQUFM,QUANTUM FRONTIER PTE LTD,Aspire FT Pte Ltd,AspireBA,Key,SG AM - Caroline,2026-Q1,2026-Q2,6746.206077699584,6732.160409981711,0.9979179901182825,-0.04954983560045385,-0.07872632384932805,6280.949059619847,4326.0043174498005,0.6887501039073276,0.9976985470418922,-0.3089484431345646,Risk,Declining
84886,SGPATN,PATEN INTERNATIONAL PTE. LTD.,Aspire FT Pte Ltd,AspireBA,Key,SG AM - Caroline,2026-Q1,2026-Q2,6738.694558859553,5849.6581812895665,0.8680699399854613,-0.04954983560045385,-0.07872632384932805,6273.9555781502295,4321.187556360928,0.6887501039073276,0.817628609308525,-0.12887850540119739,Risk,Declining
87493,SGGTZ7,GETGO TECHNOLOGIES PTE. LTD.,Aspire FT Pte Ltd,AspireOS,Key,SG AM-Rachel,2026-Q1,2026-Q2,6734.197223804881,1415.6621972048629,0.21021988964038704,-0.04954983560045385,-0.07872632384932805,6269.768405084793,4318.303640477031,0.6887501039073276,0.3139785249887875,0.3747715789185401,Safe,Growing
95083,SGGP5E,GLINTS PTE. LTD.,Aspire FT Pte Ltd,AspireOS,Key,SG AM-Rachel,2026-Q1,2026-Q2,6705.6793971596035,3377.140679176084,0.5036239401195614,-0.04954983560045385,-0.07872632384932805,6243.217331134923,4300.016585535207,0.6887501039073276,0.39345981221393983,0.2952902916933878,Safe,Growing
137290,SGDRDU,SPRING STAR FINANCIAL CONSULTING PTE. LTD.,Aspire FT Pte Ltd,AspireBA,Key,SG AM-Rachel,2026-Q1,2026-Q2,6681.192740538351,6675.3893925968705,0.9991313904317909,-0.04954983560045385,-0.07872632384932805,6220.419414630877,4284.314518174175,0.6887501039073276,0.999074200564403,-0.3103240966570754,Risk,Declining
105103,SGTML4,TIME LOGISTICS & TECHNOLOGY PTE. LTD.,Aspire FT Pte Ltd,AspireBA,Key,SG AM - Caroline,2026-Q1,2026-Q2,6663.949751313594,6559.634452168615,0.9843463256720362,-0.04954983560045385,-0.07872632384932805,6204.3656007228965,4273.257452176944,0.6887501039073276,0.989931316314426,-0.3011812124070984,Risk,Declining
137265,SGS2GT,OMNISHELF PTE. LTD.,Aspire FT Pte Ltd,AspireBA,Key,SG AM - Caroline,2026-Q1,2026-Q2,6618.121986607709,4022.429998914498,0.6077902473019086,-0.04954983560045385,-0.07872632384932805,6161.698381204446,4243.870400300175,0.6887501039073276,0.6968046677697105,-0.008054563862382902,Risk,Growing
77244,SGPPYK,PROPFUNNELS PTE. LIMITED,Aspire FT Pte Ltd,AspireBA,Scaled,SG AM-Rachel,2026-Q1,2026-Q2,6618.001998298937,655.2251936900761,0.0990064968034903,-0.04954983560045385,-0.07872632384932805,6161.586667976824,4243.793457803042,0.6887501039073276,0.04563576583056975,0.6431143380767579,Safe,Growing
50195,SGDEPK,Deliveree Private Limited,Aspire FT Pte Ltd,AspireBA,Key,SG AM-Rachel,2026-Q1,2026-Q2,6617.568287233302,4136.790322363306,0.6251224230423214,-0.04954983560045385,-0.07872632384932805,6161.182868110875,4243.5153406034115,0.6887501039073276,0.6246869815601926,0.06406312234713496,Safe,Growing
91832,SGFRPA,FIRST PAGE DIGITAL PTE. LTD.,Aspire FT Pte Ltd,AspireOS,Key,SG AM-Rachel,2026-Q1,2026-Q2,6617.420311998843,-276.2059051848904,-0.04173921137880091,-0.04954983560045385,-0.07872632384932805,6161.045098096289,4243.42045149155,0.6887501039073276,-0.0025993102224631157,0.6913494141297907,Safe,Growing
115420,SG7BGM,PT INTREPID DIGITAL INDONESIA,Aspire FT Pte Ltd,AspireOS,Key,SG AM-Rachel,2026-Q1,2026-Q2,6608.243481842954,9.02234239368228,0.0013653162778387918,-0.04954983560045385,-0.07872632384932805,6152.501154719216,4237.535809602813,0.6887501039073276,0.016394727475794808,0.6723553764315328,Safe,Growing
63053,SGTNAP,Tinai Private Limited,Aspire FT Pte Ltd,AspireBA,Key,SG AM - Caroline,2026-Q1,2026-Q2,6556.270442169134,6324.262534344818,0.9646128222026856,-0.04954983560045385,-0.07872632384932805,6104.112473599031,4204.208100453347,0.6887501039073276,0.9719804877559901,-0.2832303838486625,Risk,Declining
111928,SGTPVY,TPA VENTURES PTE. LTD. (PHP),Aspire FT Pte Ltd,AspireOS,Key,SG AM-Rachel,2026-Q1,2026-Q2,6535.626218972351,3174.284323667379,0.4856893918524149,-0.04954983560045385,-0.07872632384932805,6084.89199429837,4190.969993337869,0.6887501039073276,0.4155526660882305,0.2731974378190971,Safe,Growing
74424,SGMVST,MVS TECHNOLOGY PTE. LTD.,Aspire FT Pte Ltd,AspireBA,Key,SG AM-Rachel,2026-Q1,2026-Q2,6534.216543731396,6344.574929755444,0.9709771458128542,-0.04954983560045385,-0.07872632384932805,6083.579538337632,4190.066039158536,0.6887501039073276,0.9440835183332844,-0.2553334144259568,Risk,Declining
78894,SGDAGC,Dagaz Company Limited,Aspire FT Pte Ltd,AspireBA,Key,SG AM - Caroline,2026-Q1,2026-Q2,6530.757836666667,6228.757836666667,0.9537572809231367,-0.04954983560045385,-0.07872632384932805,6080.359363525966,4187.848143422401,0.6887501039073276,0.9342968945654729,-0.24554679065814533,Risk,Declining
103959,SGSQPY,SQUAREX PTE. LTD.,Aspire FT Pte Ltd,AspireOS,Key,SG AM-Rachel,2026-Q1,2026-Q2,6490.152853383435,4456.995163014647,0.6867319250718623,-0.04954983560045385,-0.07872632384932805,6042.554732503539,4161.810199877526,0.6887501039073276,0.7063076358103949,-0.017557531903067303,Risk,Declining
70664,SGHRCH,HRC SG HOLDINGS PTE. LTD.,Aspire FT Pte Ltd,AspireBA,Key,SG AM - Caroline,2026-Q1,2026-Q2,6489.886417998847,3760.8534259472362,0.5794944909231391,-0.04954983560045385,-0.07872632384932805,6042.306672029398,4161.639348200187,0.6887501039073276,0.6439156972262353,0.04483440668109229,Safe,Growing
122552,SGCPS7,CYBROG PTE. LTD.,Aspire FT Pte Ltd,AspireBA,Key,SG AM - Caroline,2026-Q1,2026-Q2,6488.152582177831,2573.5556364838735,0.39665461067502,-0.04954983560045385,-0.07872632384932805,6040.692411459218,4160.527526064742,0.6887501039073276,0.645872651278741,0.042877452628586554,Safe,Growing
89596,SGSACE,Sasi Capital Limited,AFT HK Limited,AspireBA,Key,SG AM - Caroline,2026-Q1,2026-Q2,6478.944277507878,6470.444277507878,0.9986880578631447,-0.04954983560045385,-0.07872632384932805,6032.1191642308795,4154.6227011454,0.6887501039073276,0.9970956355578451,-0.3083455316505175,Risk,Declining
102400,SGCLBN,COVE LIVING PTE. LTD.,Aspire FT Pte Ltd,AspireOS,Key,SG AM-Rachel,2026-Q1,2026-Q2,6469.518786037328,3919.92684632738,0.6059070196669745,-0.04954983560045385,-0.07872632384932805,6023.3437086479125,4148.578605200798,0.6887501039073276,0.6479107264076414,0.04083937749968625,Safe,Growing
99490,SGBRLG,X HOLDINGS LABO PTE. LTD.,Aspire FT Pte Ltd,AspireBA,Key,SG AM-Rachel,2026-Q1,2026-Q2,6418.971066666667,6413.471066666667,0.9991431648557256,-0.04954983560045385,-0.07872632384932805,5976.282049577553,4116.164882626036,0.6887501039073276,0.9996320305095503,-0.3108819266022227,Risk,Declining
122276,SGGPDD,GRAAS PTE. LTD.,Aspire FT Pte Ltd,AspireOS,Key,SG AM-Rachel,2026-Q1,2026-Q2,6384.681564841885,3431.4980141313085,0.5374579733196589,-0.04954983560045385,-0.07872632384932805,5944.357348232728,4094.176741257578,0.6887501039073276,0.5996925776021951,0.08905752630513253,Safe,Growing
105159,SGRPKP,RENTLY PTE. LTD.,Aspire FT Pte Ltd,AspireBA,Key,SG AM - Caroline,2026-Q1,2026-Q2,6380.326609707461,3264.293071045086,0.5116184908275023,-0.04954983560045385,-0.07872632384932805,5940.302735752587,4091.384126490577,0.6887501039073276,0.633101020868328,0.055649083038999625,Safe,Growing
110383,SGPSEC,POSEIDON CONSULTANCY LIMITED,AFT HK Limited,AspireBA,Key,SG AM-Rachel,2026-Q1,2026-Q2,6372.291358582033,3244.2055866271203,0.5091113077021988,-0.04954983560045385,-0.07872632384932805,5932.821641576277,4086.2315220993028,0.6887501039073276,0.45722230971812006,0.23152779418920755,Safe,Growing
71355,SGUANN,UANGCERMAT INTERNATIONAL PTE. LTD.,Aspire FT Pte Ltd,AspireOS,Key,SG AM-Rachel,2026-Q1,2026-Q2,6258.898082156088,5886.394034128325,0.9404840847161644,-0.04954983560045385,-0.07872632384932805,5827.248615088237,4013.518089135854,0.6887501039073276,0.9181300365770944,-0.22937993266976675,Risk,Declining
93695,SGSGLK,SERVI GROUP PTE. LTD.,Aspire FT Pte Ltd,AspireBA,Key,SG AM-Rachel,2026-Q1,2026-Q2,6253.2977114784935,4366.5741973662825,0.6982834336115232,-0.04954983560045385,-0.07872632384932805,5822.034478055389,4009.926851712693,0.6887501039073276,0.7034779893823438,-0.014727885475016245,Risk,Declining
77008,SGPXLT,PIXELATION LABS PTE. LTD.,Aspire FT Pte Ltd,AspireBA,Key,SG AM - Caroline,2026-Q1,2026-Q2,6239.057105212629,4256.006479482623,0.6821553974761346,-0.04954983560045385,-0.07872632384932805,5808.775985577718,4000.7950636410424,0.6887501039073276,0.6643098495111346,0.024440254396193017,Safe,Declining
116549,SGCSUV,OCEAN STAR GLOBAL PTE. LTD.,Aspire FT Pte Ltd,AspireBA,Key,SG AM-Rachel,2026-Q1,2026-Q2,6197.05321689375,5879.919155743799,0.9488250221435224,-0.04954983560045385,-0.07872632384932805,5769.668926024801,3973.860072310461,0.6887501039073276,0.9191144585837374,-0.2303643546764098,Risk,Declining
52843,SGTNYA,TINY ASSETS PTE. LTD.,Aspire FT Pte Ltd,AspireBA,Key,SG AM - Caroline,2026-Q1,2026-Q2,6188.811636838958,256.95444838095557,0.04151919034850436,-0.04954983560045385,-0.07872632384932805,5761.995732544092,3968.5751595033216,0.6887501039073276,0.08609267483415826,0.6026574290731693,Safe,Growing
128220,SGNEV8,NEW VISION MEDICAL SUPPLIES PTE. LTD.,Aspire FT Pte Ltd,AspireBA,Key,SG AM - Caroline,2026-Q1,2026-Q2,6157.311984460064,6113.311984460064,0.9928540245953026,-0.04954983560045385,-0.07872632384932805,5732.668476645169,3948.3760089556217,0.6887501039073276,0.9760205804998614,-0.2872704765925338,Risk,Declining
116044,SGQUHN,PO QUAN HOLDINGS PTE. LTD.,Aspire FT Pte Ltd,AspireBA,Key,SG AM - Caroline,2026-Q1,2026-Q2,6132.473797648748,5719.413687320828,0.9326438034702584,-0.04954983560045385,-0.07872632384932805,5709.543273486774,3932.448522877399,0.6887501039073276,0.9109962388151632,-0.22224613490783562,Risk,Declining
101000,SGAVRE,AVIRAL ELECTRONICS PTE. LTD.,Aspire FT Pte Ltd,AspireBA,Key,SG AM-Rachel,2026-Q1,2026-Q2,6126.735044027809,5883.082522013593,0.9602312617955101,-0.04954983560045385,-0.07872632384932805,5704.200297191108,3928.7685473985844,0.6887501039073276,0.948860477919081,-0.2601103740117534,Risk,Declining
116075,SGFYDC,INTREPID MALAYSIA SDN. BHD.,Aspire FT Pte Ltd,AspireOS,Key,SG AM-Rachel,2026-Q1,2026-Q2,6112.562256448171,1199.5605079103905,0.1962451190816042,-0.04954983560045385,-0.07872632384932805,5691.00494623455,3919.6802480561614,0.6887501039073276,0.21632700285882478,0.4724231010485028,Safe,Growing
91687,SGECEF,ECOMMERCE ENABLERS PTE. LTD. (USD),Aspire FT Pte Ltd,AspireOS,Key,SG AM-Rachel,2026-Q1,2026-Q2,6094.4669918,-118.07518588520566,-0.019374161193107416,-0.04954983560045385,-0.07872632384932805,5674.157634698781,3908.076660485342,0.6887501039073276,0.0244783423158593,0.6642717615914683,Safe,Growing
114625,SGPSPB,POSEIDON PHAROS PTE. LTD.,Aspire FT Pte Ltd,AspireBA,Key,SG AM - Caroline,2026-Q1,2026-Q2,6088.04693046494,5690.331112013605,0.9346726753269359,-0.04954983560045385,-0.07872632384932805,5668.180337571963,3903.9597964681607,0.6887501039073276,0.9427675106284739,-0.25401740672114625,Risk,Declining
84486,SGTT7X,TANGE TECHNOLOGY (SINGAPORE) PTE. LTD.,Aspire FT Pte Ltd,AspireBA,Key,SG AM - Caroline,2026-Q1,2026-Q2,6079.347809957865,6079.241899628427,0.9999825786691683,-0.04954983560045385,-0.07872632384932805,5660.081158249671,3898.381485868368,0.6887501039073276,0.9995248728678814,-0.3107747689605538,Risk,Declining
145961,SGGSTQ,GRAPESEED SERVICES PTE. LTD.,Aspire FT Pte Ltd,AspireBA,Key,SG AM-Rachel,2026-Q1,2026-Q2,6020.979710591101,4412.551167339842,0.7328626534944171,-0.04954983560045385,-0.07872632384932805,5605.738457388318,3860.9529450035066,0.6887501039073276,0.7379414476626769,-0.04919134375534928,Risk,Declining
116971,SGMPN4,MANGOSTAR PTE. LTD.,Aspire FT Pte Ltd,AspireBA,Key,SG AM - Caroline,2026-Q1,2026-Q2,6016.0890823249065,5933.932629863177,0.9863438770042314,-0.04954983560045385,-0.07872632384932805,5601.18511486428,3857.8168298669493,0.6887501039073276,0.9748905129844997,-0.2861404090771721,Risk,Declining
85545,SGNCRG,INCRED GLOBAL WEALTH PTE. LTD.,Aspire FT Pte Ltd,AspireBA,Key,SG AM - Caroline,2026-Q1,2026-Q2,6007.437927184435,4851.75323688053,0.8076243642777761,-0.04954983560045385,-0.07872632384932805,5593.1305929421305,3852.2692770561453,0.6887501039073276,0.7414675098219198,-0.052717405914592175,Risk,Declining
83461,SGTEEJ,TEECOM JOINT STOCK COMPANY,Aspire FT Pte Ltd,AspireBA,Key,SG AM-Rachel,2026-Q1,2026-Q2,5989.296417099999,1640.011842430869,0.27382378967727866,-0.04954983560045385,-0.07872632384932805,5576.240225320309,3840.6360346015827,0.6887501039073276,0.2294804572940566,0.45926964661327097,Safe,Growing
133410,SGNNTX,Nonce Technology Pte. Ltd.,Aspire FT Pte Ltd,AspireBA,Key,SG AM-Rachel,2026-Q1,2026-Q2,5967.6086938887875,5966.862796827163,0.9998750090530587,-0.04954983560045385,-0.07872632384932805,5556.048211744108,3826.728783152876,0.6887501039073276,0.9993672145236998,-0.3106171106163722,Risk,Declining
70402,SGGLPQ,RAON WORLD SOLUTION PTE. LTD,Aspire FT Pte Ltd,AspireBA,Key,SG AM-Rachel,2026-Q1,2026-Q2,5959.755830524537,3573.7943326309196,0.5996544882471098,-0.04954983560045385,-0.07872632384932805,5548.736926824121,3821.693134904539,0.6887501039073276,0.637287839530664,0.05146226437666357,Safe,Growing
72657,SGANSG,ANSOVA GLOBAL TRAVEL PTE. LTD.,Aspire FT Pte Ltd,AspireBA,Key,SG AM - Caroline,2026-Q1,2026-Q2,5946.87252871007,3206.2685879795085,0.5391520622815463,-0.04954983560045385,-0.07872632384932805,5536.742131307294,3813.431718245977,0.6887501039073276,0.6184385744199167,0.07031152948741093,Safe,Growing
139243,SGQVYK,CKNIGHT PTE LTD,Aspire FT Pte Ltd,AspireBA,Scaled,SG AM - Caroline,2026-Q1,2026-Q2,5903.059276672059,901.5957752820179,0.15273364759269475,-0.04954983560045385,-0.07872632384932805,5495.950492122612,3785.336472518977,0.6887501039073276,0.17953526471242884,0.5092148391948987,Safe,Growing
121341,SGPAV3,PANACEA VENTURES PTE. LTD.,Aspire FT Pte Ltd,AspireBA,Key,SG AM - Caroline,2026-Q1,2026-Q2,5835.619428021966,5830.688368388154,0.9991550066458869,-0.04954983560045385,-0.07872632384932805,5433.161681777799,3742.0906728697696,0.6887501039073276,0.9974255581825426,-0.30867545427521503,Risk,Declining
70049,SGTAPB,TANKARD PTE. LTD.,Aspire FT Pte Ltd,AspireBA,Key,SG AM-Rachel,2026-Q1,2026-Q2,5821.86748360166,5770.128282486884,0.9911129545183726,-0.04954983560045385,-0.07872632384932805,5420.358150225421,3733.2722391826887,0.6887501039073276,0.9922599486881098,-0.30350984478078225,Risk,Declining
146263,SGTFSU,GALAXY MINES AND MINERALS EXPORTS LIMITED,AFT HK Limited,AspireBA,Key,SG AM - Caroline,2026-Q1,2026-Q2,5798.944240856923,5756.944240856923,0.992757302319949,-0.04954983560045385,-0.07872632384932805,5399.015825620642,3718.5727108935234,0.6887501039073276,0.9793899725338029,-0.2906398686264753,Risk,Declining
63024,SGCAG5,CAPX GLOBAL PTE. LTD.,Aspire FT Pte Ltd,AspireBA,Key,SG AM - Caroline,2026-Q1,2026-Q2,5793.989434914005,4141.669558970308,0.7148217312950241,-0.04954983560045385,-0.07872632384932805,5394.402731480124,3715.3954418249073,0.6887501039073276,0.7188362020538585,-0.03008609814653085,Risk,Declining
103445,SGCNM8,KG CONNECT LIMITED,AFT HK Limited,AspireBA,Key,SG AM - Caroline,2026-Q1,2026-Q2,5767.122162711124,2188.5061000503097,0.379479754079198,-0.04954983560045385,-0.07872632384932805,5369.388380282779,3698.1668048385613,0.6887501039073276,0.4581661752046189,0.23058392870270872,Safe,Growing
79892,SGFCGY,FOCUS GLOBAL INC,Aspire FT Pte Ltd,AspireOS,Key,SG AM-Rachel,2026-Q1,2026-Q2,5738.894557741463,1904.3914087527287,0.33183941429692343,-0.04954983560045385,-0.07872632384932805,5343.107512659186,3680.065854532037,0.6887501039073276,0.3202993830144804,0.3684507208928472,Safe,Growing
86188,SGTSAK,HR TECH SOLUTIONS PTE. LTD.,Aspire FT Pte Ltd,AspireBA,Key,SG AM-Rachel,2026-Q1,2026-Q2,5704.838970508712,5589.670607671834,0.9798121623708849,-0.04954983560045385,-0.07872632384932805,5311.4005938161,3658.2277108842804,0.6887501039073276,0.9769115328528786,-0.28816142894555097,Risk,Declining
107790,SGSP3G,SHOPTASTIC PTE LTD,Aspire FT Pte Ltd,AspireBA,Key,SG AM-Rachel,2026-Q1,2026-Q2,5655.604137419224,3567.799586985628,0.6308432309432629,-0.04954983560045385,-0.07872632384932805,5265.561276867838,3626.6558765731243,0.6887501039073276,0.7037330675765809,-0.014982963669253335,Risk,Growing
107250,SGQELS,QUANTUM EMPIRE PTE. LTD.,Aspire FT Pte Ltd,AspireBA,Key,SG AM - Caroline,2026-Q1,2026-Q2,5589.781932189484,5441.68930254834,0.9735065461519467,-0.04954983560045385,-0.07872632384932805,5204.278547986123,3584.4473906881185,0.6887501039073276,0.9708003951441394,-0.2820502912368118,Risk,Declining
91494,SGJGCC,JGC CONSTRUCTION INTERNATIONAL PTE. LTD.,Aspire FT Pte Ltd,AspireOS,Key,SG AM-Rachel,2026-Q1,2026-Q2,5587.571238720422,3829.797456431587,0.6854136247770913,-0.04954983560045385,-0.07872632384932805,5202.220316603079,3583.029783609181,0.6887501039073276,0.7463184364295339,-0.05756833252220628,Risk,Declining
70215,SGFACT,Factail Technologies Pte. Ltd.,Aspire FT Pte Ltd,AspireBA,Key,SG AM-Rachel,2026-Q1,2026-Q2,5583.9927,5583.9927,1.0,-0.04954983560045385,-0.07872632384932805,5198.888574413176,3580.7350458296933,0.6887501039073276,0.9979501234707097,-0.30920001956338206,Risk,Declining
134854,SGQPUW,QUAK PTE. LTD,Aspire FT Pte Ltd,AspireBA,Key,SG AM-Rachel,2026-Q1,2026-Q2,5556.9153554002005,5094.251932172204,0.9167409626316548,-0.04954983560045385,-0.07872632384932805,5173.678638614846,3563.3716999290964,0.6887501039073276,0.7153423829190916,-0.026592279011763975,Risk,Declining
105386,SGNTFZ,ONELOT TECHNOLOGIES INCORPORATED PTE. LTD.,Aspire FT Pte Ltd,AspireBA,Key,SG AM - Caroline,2026-Q1,2026-Q2,5551.494066647247,4896.565050999809,0.8820265305546883,-0.04954983560045385,-0.07872632384932805,5168.631232991208,3559.895298781353,0.6887501039073276,0.9350236429107351,-0.24627353900340754,Risk,Declining
105899,SGPP3P,PROCREDIT PTE. LTD.,Aspire FT Pte Ltd,AspireBA,Key,SG AM - Caroline,2026-Q1,2026-Q2,5546.0684027392035,5491.372213376998,0.990137844434953,-0.04954983560045385,-0.07872632384932805,5163.579753948241,3556.416092065624,0.6887501039073276,0.9804788291459697,-0.29172872523864213,Risk,Declining
138643,SGPWNU,POWER INNOVATION (SINGAPORE) PTE. LTD.,Aspire FT Pte Ltd,AspireBA,Key,SG AM - Caroline,2026-Q1,2026-Q2,5543.966728333334,5065.566600883994,0.9137079728483221,-0.04954983560045385,-0.07872632384932805,5161.623023049254,3555.0683934556278,0.6887501039073276,0.9496525730599061,-0.26090246915257853,Risk,Declining
150613,SGRYNL,orynda Limited,AFT HK Limited,AspireBA,Key,SG AM - Caroline,2026-Q1,2026-Q2,5516.163876978812,5163.0750739471505,0.9359901535004708,-0.04954983560045385,-0.07872632384932805,5135.737615598215,3537.239816384041,0.6887501039073276,0.932527088955431,-0.2437769850481034,Risk,Declining
179972,SGTNAD,TINY AWAY ESCAPE TALBINGO PTE LTD,Aspire FT Pte Ltd,AspireBA,Key,SG AM - Caroline,2026-Q1,2026-Q2,5514.210517962017,5512.915610746764,0.9997651690643594,-0.04954983560045385,-0.07872632384932805,5133.9189714094155,3535.987225010035,0.6887501039073276,0.9997651690643594,-0.3110150651570318,Risk,Declining
70484,SGCLGS,COLABS GLOBAL PTE. LTD.,Aspire FT Pte Ltd,AspireOS,Key,SG AM-Rachel,2026-Q1,2026-Q2,5503.453571166419,3007.9640622328893,0.5465593601065616,-0.04954983560045385,-0.07872632384932805,5123.9038852881185,3529.0893334033512,0.6887501039073276,0.654942909555217,0.03380719435211066,Safe,Growing
74194,SGBEDH,BEAM DATA PTE LTD,Aspire FT Pte Ltd,AspireBA,Key,SG AM - Caroline,2026-Q1,2026-Q2,5494.775956930263,5494.775956930263,1.0,-0.04954983560045385,-0.07872632384932805,5115.824729041098,3523.5248136987325,0.6887501039073276,0.9964666243286886,-0.307716520421361,Risk,Declining
77547,SGRUGC,RUGGABLE CORPORATION PTE. LTD.,Aspire FT Pte Ltd,AspireBA,Key,SG AM-Rachel,2026-Q1,2026-Q2,5484.620728333333,5468.120728333333,0.9969915877838623,-0.04954983560045385,-0.07872632384932805,5106.369863184427,3517.0127738575206,0.6887501039073276,0.995212573007934,-0.30646246910060637,Risk,Declining
98978,SGTL7P,RENTLY SERVICE PTE. LTD.,Aspire FT Pte Ltd,AspireBA,Key,SG AM - Caroline,2026-Q1,2026-Q2,5470.454923669196,4645.635499221464,0.8492228825652215,-0.04954983560045385,-0.07872632384932805,5093.181013561512,3507.92895230932,0.6887501039073276,0.9224002268195779,-0.2336501229122503,Risk,Declining
60553,SGQAAT,QOALA TECHNOLOGY PTE. LTD.,Aspire FT Pte Ltd,AspireBA,Key,SG AM-Rachel,2026-Q1,2026-Q2,5458.870551097833,3225.8839056797383,0.5909434699877579,-0.04954983560045385,-0.07872632384932805,5082.395565686016,3500.5004739643846,0.6887501039073276,0.558732474049324,0.13001762985800358,Safe,Growing
87629,SGFTXV,FUNPOWER TECHNOLOGY PTE. LTD.,Aspire FT Pte Ltd,AspireBA,Key,SG AM-Rachel,2026-Q1,2026-Q2,5443.4703168231645,4747.035980952859,0.8720605982330868,-0.04954983560045385,-0.07872632384932805,5068.057419790184,3490.625074488792,0.6887501039073276,0.939817046198416,-0.2510669422910884,Risk,Declining
80159,SGGP7R,GEONODE PTE. LTD.,Aspire FT Pte Ltd,AspireBA,Key,SG AM-Rachel,2026-Q1,2026-Q2,5430.667264157983,4659.157532633955,0.8579346341809714,-0.04954983560045385,-0.07872632384932805,5056.137338981585,3482.4151175932857,0.6887501039073276,0.8802093319522257,-0.19145922804489812,Risk,Declining
58971,SGACPM,ACHERON PTE. LTD.,Aspire FT Pte Ltd,AspireBA,Key,SG AM - Caroline,2026-Q1,2026-Q2,5413.455869305735,3631.7117574147865,0.6708675280806429,-0.04954983560045385,-0.07872632384932805,5040.112940517192,3471.3783114858825,0.6887501039073276,0.6176497110168004,0.07110039289052716,Safe,Declining
128829,SGLNDN,LINDER INTERNATION PTE. LTD.,Aspire FT Pte Ltd,AspireBA,Key,SG AM-Rachel,2026-Q1,2026-Q2,5413.04029,5407.482287778939,0.9989732198684483,-0.04954983560045385,-0.07872632384932805,5039.726021941107,3471.1118212764004,0.6887501039073276,0.9986778762898476,-0.30992777238252,Risk,Declining
123885,SGCA87,CLOUD AMBASSADORS TECHNOLOGY PTE. LTD.,Aspire FT Pte Ltd,AspireBA,Key,SG AM-Rachel,2026-Q1,2026-Q2,5411.2896403171735,2889.299782649445,0.5339392223847205,-0.04954983560045385,-0.07872632384932805,5038.096107089348,3469.989217252891,0.6887501039073276,0.5922319178259952,0.09651818608133245,Safe,Growing
94677,SGSPCQ,SYNKRONOUS PTE. LTD.,Aspire FT Pte Ltd,AspireBA,Key,SG AM-Rachel,2026-Q1,2026-Q2,5409.467479610232,4902.386493315337,0.9062604612734577,-0.04954983560045385,-0.07872632384932805,5036.399613023362,3468.8207567886648,0.6887501039073276,0.9172208630066335,-0.22847075909930592,Risk,Declining
103207,SGQHJA,AJ HACKETT INTERNATIONAL PTE. LTD.,Aspire FT Pte Ltd,AspireBA,Key,SG AM - Caroline,2026-Q1,2026-Q2,5396.066886767843,3667.9940157451647,0.6797532522696793,-0.04954983560045385,-0.07872632384932805,5023.923201831301,3460.227627283743,0.6887501039073276,0.7302835336308687,-0.041533429723541126,Risk,Declining
86112,SGANPH,ANPRI HOLDINGS PTE. LTD.,Aspire FT Pte Ltd,AspireBA,Key,SG AM - Caroline,2026-Q1,2026-Q2,5391.428860739475,5240.377580700089,0.9719830709184824,-0.04954983560045385,-0.07872632384932805,5019.605040647689,3457.2534933198413,0.6887501039073276,0.9816935371733313,-0.2929434332660037,Risk,Declining
59273,SGCEAB,Ocean Bay Energy Pte Ltd,Aspire FT Pte Ltd,AspireBA,Key,SG AM - Caroline,2026-Q1,2026-Q2,5388.3864462178,5363.7847968611595,0.9954343197908702,-0.04954983560045385,-0.07872632384932805,5016.772448460496,3455.302545156585,0.6887501039073276,0.9922990296861274,-0.30354892577879977,Risk,Declining
107711,SGHAHM,HATI HEALTH PTE. LTD.,Aspire FT Pte Ltd,AspireBA,Scaled,SG AM - Caroline,2026-Q1,2026-Q2,5339.68520301048,4627.531772463669,0.8666300720976391,-0.04954983560045385,-0.07872632384932805,4971.429921979355,3424.0728753312783,0.6887501039073276,0.8259674732320947,-0.13721736932476714,Risk,Declining
79727,SGAMES,AMERICAN STUDY EDUCATION JOINT STOCK COMPANY,Aspire FT Pte Ltd,AspireBA,Key,SG AM - Caroline,2026-Q1,2026-Q2,5336.269973110573,4530.711949215565,0.8490409915626066,-0.04954983560045385,-0.07872632384932805,4968.250225898158,3421.88285932496,0.6887501039073276,0.5352411486905052,0.1535089552168224,Safe,Declining
67502,SGQAPF,Qapita Fintech Pte Ltd,Aspire FT Pte Ltd,AspireOS,Key,SG AM-Rachel,2026-Q1,2026-Q2,5305.3090142862075,2795.395860772173,0.5269053797327721,-0.04954983560045385,-0.07872632384932805,4939.424512160232,3402.0291459927607,0.6887501039073276,0.5891522619003877,0.09959784200693989,Safe,Growing
151523,SGALJZ,ACP LUCENTE VENTURES SPV PTE LTD,Aspire FT Pte Ltd,AspireBA,Key,SG AM - Caroline,2026-Q1,2026-Q2,5253.807755833333,4813.807755833333,0.9162512180786467,-0.04954983560045385,-0.07872632384932805,4891.4750755253035,3369.003966528156,0.6887501039073276,0.9206299991111803,-0.23187989520385266,Risk,Declining
87708,SGRDPE,RIDMIK PTE. LTD.,Aspire FT Pte Ltd,AspireBA,Key,SG AM-Rachel,2026-Q1,2026-Q2,5248.652407030953,5039.43859359839,0.9601395182595239,-0.04954983560045385,-0.07872632384932805,4886.67526910976,3365.6980993607153,0.6887501039073276,0.9681755505577835,-0.2794254466504559,Risk,Declining
141727,SGWCYA,Concision Technology Limited,Aspire FT Pte Ltd,AspireBA,Key,SG AM - Caroline,2026-Q1,2026-Q2,5241.6815625,3830.2015625,0.7307200021271799,-0.04954983560045385,-0.07872632384932805,4880.185173951508,3361.228045646101,0.6887501039073276,0.7239409342645654,-0.0351908303572378,Risk,Declining
96109,SGMEHX,MASTER ENTERPRISE PTE. LTD.,Aspire FT Pte Ltd,AspireBA,Key,SG AM - Caroline,2026-Q1,2026-Q2,5206.88530733496,2790.6219729377326,0.5359484237162997,-0.04954983560045385,-0.07872632384932805,4847.788667879806,3338.9149487229815,0.6887501039073276,0.5793440195862255,0.1094060843211021,Safe,Growing
123356,SGAPG5,APPFACTORY GLOBAL PTE. LTD.,Aspire FT Pte Ltd,AspireBA,Key,SG AM-Rachel,2026-Q1,2026-Q2,5198.76449903941,3882.146249869979,0.7467440101561234,-0.04954983560045385,-0.07872632384932805,4840.227917045957,3333.707480800551,0.6887501039073276,0.6530763289417486,0.035673774965579,Safe,Declining
97373,SGPPJD,AP PREMIER PTE. LTD.,Aspire FT Pte Ltd,AspireBA,Key,SG AM-Rachel,2026-Q1,2026-Q2,5193.3971249999995,5062.3971249999995,0.9747756628567087,-0.04954983560045385,-0.07872632384932805,4835.230707868356,3330.2656524602316,0.6887501039073276,0.9083997694156403,-0.21964966550831266,Risk,Declining
3363,SGPRPP,Propseller Pte. Ltd.,Aspire FT Pte Ltd,AspireOS,Key,SG AM-Rachel,2026-Q1,2026-Q2,5164.600304138796,3024.218938782059,0.5855668901151009,-0.04954983560045385,-0.07872632384932805,4808.419880741964,3311.7996924910876,0.6887501039073276,0.613433052141285,0.07531705176604264,Safe,Growing
102906,SGWS5A,WOOSA SLEEP PTE. LTD.,Aspire FT Pte Ltd,AspireOS,Key,SG AM-Rachel,2026-Q1,2026-Q2,5147.985452340572,1996.0592667979893,0.3877359960080045,-0.04954983560045385,-0.07872632384932805,4792.950884305175,3301.1454195879073,0.6887501039073276,0.41451176976439036,0.27423833414293725,Safe,Growing
142855,SGZWER,ECOMWARTS GROUP PRIVATE LIMITED,Aspire FT Pte Ltd,AspireBA,Key,SG AM-Rachel,2026-Q1,2026-Q2,5143.294833432426,2921.5525687304457,0.5680313229838159,-0.04954983560045385,-0.07872632384932805,4788.583757348063,3298.1375604424197,0.6887501039073276,0.5997353047277586,0.089014799179569,Safe,Growing
76600,SGDCXM,DF CAPITAL MANAGEMENT PTE. LTD.,Aspire FT Pte Ltd,AspireBA,Key,SG AM - Caroline,2026-Q1,2026-Q2,5135.716774846366,4818.636662180403,0.9382598132710601,-0.04954983560045385,-0.07872632384932805,4781.52832509449,3293.2781307446603,0.6887501039073276,0.9588514565153339,-0.2701013526080063,Risk,Declining
118593,SGSP45,SGAPH PTE. LTD.,Aspire FT Pte Ltd,AspireBA,Key,SG AM-Rachel,2026-Q1,2026-Q2,5130.226586279264,4336.574193133032,0.8452987641386355,-0.04954983560045385,-0.07872632384932805,4776.416771382595,3289.757547594464,0.6887501039073276,0.7558194781609766,-0.067069374253649,Risk,Declining
111507,SGXAPM,XAPADS MEDIA PTE. LTD.,Aspire FT Pte Ltd,AspireBA,Key,SG AM-Rachel,2026-Q1,2026-Q2,5123.265819834465,3222.1196781413532,0.6289190901762465,-0.04954983560045385,-0.07872632384932805,4769.936059267941,3285.2939564521034,0.6887501039073276,0.6480723106154718,0.040677793291855835,Safe,Growing
70361,SGATN2,ATAB INTERNATIONAL PTE. LTD.,Aspire FT Pte Ltd,AspireBA,Key,SG AM - Caroline,2026-Q1,2026-Q2,5109.721866970684,5106.9824954873175,0.9994638902948763,-0.04954983560045385,-0.07872632384932805,4757.326174982831,3276.608897340474,0.6887501039073276,0.9993733475212595,-0.3106232436139319,Risk,Declining
150091,SGBN5B,Beynor International Limited,AFT HK Limited,AspireBA,Key,SG AM - Caroline,2026-Q1,2026-Q2,5102.739923944471,3102.586224591872,0.6080235855315825,-0.04954983560045385,-0.07872632384932805,4750.825746745132,3272.131726716317,0.6887501039073276,0.5285626429377619,0.1601874609695657,Safe,Growing
110911,SGAMWC,AMW CYBERTECH PTE. LTD.,Aspire FT Pte Ltd,AspireBA,Key,SG AM-Rachel,2026-Q1,2026-Q2,5096.507920467541,5035.887550635302,0.9881055085603246,-0.04954983560045385,-0.07872632384932805,4745.023537929223,3268.1354547914675,0.6887501039073276,0.9971427007178431,-0.30839259681051545,Risk,Declining
79131,SGWSAF,WHITE STORM CONSULTING PTE. LTD.,Aspire FT Pte Ltd,AspireBA,Key,SG AM-Rachel,2026-Q1,2026-Q2,5082.419066157667,5082.419066157667,1.0,-0.04954983560045385,-0.07872632384932805,4731.906331723317,3259.100977654176,0.6887501039073276,0.996683635721014,-0.30793353181368643,Risk,Declining
76401,SGEMPQ,EMURGO GROUP PTE. LTD.,Aspire FT Pte Ltd,AspireBA,Key,SG AM - Caroline,2026-Q1,2026-Q2,5051.805123669028,3644.8792800359174,0.7215003727991615,-0.04954983560045385,-0.07872632384932805,4703.403702086654,3239.4697885302926,0.6887501039073276,0.7346007872240846,-0.04585068331675701,Risk,Declining
68092,SGZGNP,ZIGNIFY PTE. LTD.,Aspire FT Pte Ltd,AspireBA,Scaled,SG AM-Rachel,2026-Q1,2026-Q2,5048.787322913585,1700.946743084149,0.3369020389043752,-0.04954983560045385,-0.07872632384932805,4700.594026159369,3237.5346239434284,0.6887501039073276,0.3733166271676292,0.3154334767396984,Safe,Growing
68726,SGKNPS,SYLNDR PTE LTD,Aspire FT Pte Ltd,AspireBA,Key,SG AM-Rachel,2026-Q1,2026-Q2,5029.712924216978,2413.572994325385,0.4798629724381593,-0.04954983560045385,-0.07872632384932805,4682.8351072683045,3225.303166711926,0.6887501039073276,0.5621516201644022,0.12659848374292537,Safe,Growing
74389,SGZERB,ZERO BYTE LABS PTE. LTD.,Aspire FT Pte Ltd,AspireBA,Key,SG AM-Rachel,2026-Q1,2026-Q2,5009.894930936706,4752.245215997279,0.9485718326449505,-0.04954983560045385,-0.07872632384932805,4664.383876335893,3212.5948794900096,0.6887501039073276,0.9609939371727425,-0.2722438332654149,Risk,Declining
123617,SGKYLE,OKYA LIMITED,AFT HK Limited,AspireBA,Key,SG AM - Caroline,2026-Q1,2026-Q2,4985.159304194279,4385.526145215681,0.8797163495910563,-0.04954983560045385,-0.07872632384932805,4641.354160116501,3196.733160050947,0.6887501039073276,0.7645605762483313,-0.07581047234100369,Risk,Declining
112673,SGMZVJ,STAPLE AI PTE. LTD.,Aspire FT Pte Ltd,AspireBA,Key,SG AM-Rachel,2026-Q1,2026-Q2,4973.984966631958,2544.0118891435736,0.5114635259676316,-0.04954983560045385,-0.07872632384932805,4630.950468886857,3189.5676166355106,0.6887501039073276,0.5075316394659742,0.18121846444135337,Safe,Growing
89633,SGEMTV,Emerging Travel Asia PTE. LTD.,Aspire FT Pte Ltd,AspireBA,Key,SG AM - Caroline,2026-Q1,2026-Q2,4948.940611187714,4364.946722532345,0.8819961817009531,-0.04954983560045385,-0.07872632384932805,4607.633315665539,3173.5079249315045,0.6887501039073276,0.8847131259409202,-0.19596302203359262,Risk,Declining
119185,SGYWPT,YOWA PTE. LTD.,Aspire FT Pte Ltd,AspireBA,Key,SG AM-Rachel,2026-Q1,2026-Q2,4941.3403175,4494.2403175,0.9095184765120157,-0.04954983560045385,-0.07872632384932805,4600.557181770299,3168.634236975896,0.6887501039073276,0.9312149257977038,-0.24246482189037621,Risk,Declining
63847,SGACM4,ACE MANAGEMENT SERVICES PTE. LTD.,Aspire FT Pte Ltd,AspireBA,Key,SG AM-Rachel,2026-Q1,2026-Q2,4921.30651928003,3355.703414214287,0.6818724664004904,-0.04954983560045385,-0.07872632384932805,4581.905029043112,3155.7875648469503,0.6887501039073276,0.6807914042930845,0.007958699614243114,Safe,Declining
98042,SGFUEH,FUTAO ELECTRONICS PTE. LTD.,Aspire FT Pte Ltd,AspireBA,Key,SG AM - Caroline,2026-Q1,2026-Q2,4920.25063739208,4858.950637392079,0.9875412850853282,-0.04954983560045385,-0.07872632384932805,4580.92196681898,3155.1104806379317,0.6887501039073276,0.9924377237552403,-0.3036876198479127,Risk,Declining
110948,SGRML3,RUYI MANAGEMENT PTE LTD,Aspire FT Pte Ltd,AspireBA,Key,SG AM-Rachel,2026-Q1,2026-Q2,4919.336029613306,4918.8430662877345,0.999899790678538,-0.04954983560045385,-0.07872632384932805,4580.07043563214,3154.523988444516,0.6887501039073276,0.9931534345832775,-0.30440333067594993,Risk,Declining
83001,SGANU7,ACCTIVA INTERNATIONAL PTE. LTD.,Aspire FT Pte Ltd,AspireBA,Key,SG AM - Caroline,2026-Q1,2026-Q2,4908.524228206957,4430.775759789804,0.9026696322141472,-0.04954983560045385,-0.07872632384932805,4570.004277988293,3147.5909213213686,0.6887501039073276,0.8843046239221766,-0.19555452001484896,Risk,Declining
143080,SGFPSF,SOLO FORTIS PTE. LTD.,Aspire FT Pte Ltd,AspireBA,Key,SG AM-Rachel,2026-Q1,2026-Q2,4873.087444976283,4787.199488545036,0.9823750430500092,-0.04954983560045385,-0.07872632384932805,4537.011418335754,3124.867085807482,0.6887501039073276,0.9590353513585628,-0.27028524745123517,Risk,Declining
134956,SGCP2N,CHOVA CR PTE. LTD.,Aspire FT Pte Ltd,AspireBA,Key,SG AM - Caroline,2026-Q1,2026-Q2,4861.2891210660355,4784.825946174247,0.9842710085766262,-0.04954983560045385,-0.07872632384932805,4526.026774431363,3117.301411176948,0.6887501039073276,0.9440148987251392,-0.2552647948178116,Risk,Declining
142469,SGCCHR,CROSSPOINT CAPITAL ASIA PTE. LTD.,Aspire FT Pte Ltd,AspireBA,Key,SG AM - Caroline,2026-Q1,2026-Q2,4845.409402154963,4827.9817556856,0.9964032664687503,-0.04954983560045385,-0.07872632384932805,4511.242211906476,3107.1185422017074,0.6887501039073276,0.9952468902751976,-0.30649678636787003,Risk,Declining
116786,SGGHYA,GREAT PRO HOLDING PTE. LTD.,Aspire FT Pte Ltd,AspireBA,Key,SG AM - Caroline,2026-Q1,2026-Q2,4818.297,4818.297,1.0,-0.04954983560045385,-0.07872632384932805,4485.999636322819,3089.732715645576,0.6887501039073276,0.9938543397565162,-0.30510423584918855,Risk,Declining
86698,SGMEUN,MILIEU INSIGHT PTE. LTD.,Aspire FT Pte Ltd,AspireOS,Key,SG AM-Rachel,2026-Q1,2026-Q2,4815.484794646381,2070.602720990342,0.42998842469450554,-0.04954983560045385,-0.07872632384932805,4483.381376760655,3087.929389100079,0.6887501039073276,0.5865870297715208,0.10216307413580683,Safe,Growing
114867,SGE6W2,KAEDE PTE. LTD.,Aspire FT Pte Ltd,AspireBA,Key,SG AM-Rachel,2026-Q1,2026-Q2,4814.06983166997,3192.8563722019203,0.6632343285087617,-0.04954983560045385,-0.07872632384932805,4482.06399773699,3087.0220441606443,0.6887501039073276,0.6996053060511822,-0.010855202143854603,Risk,Declining
68139,SGDEKB,DEKANG BIOTECH PTE. LTD.,Aspire FT Pte Ltd,AspireBA,Key,SG AM - Caroline,2026-Q1,2026-Q2,4806.820503161586,4643.54442605482,0.9660324164383973,-0.04954983560045385,-0.07872632384932805,4475.314624451741,3082.3734126091194,0.6887501039073276,0.9690734054234712,-0.2803233015161436,Risk,Declining
114067,SGWP8H,WAVESHORE PTE LTD,Aspire FT Pte Ltd,AspireBA,Key,SG AM-Rachel,2026-Q1,2026-Q2,4792.096891232775,4788.860575421744,0.9993246555976462,-0.04954983560045385,-0.07872632384932805,4461.606437148633,3072.9318971797225,0.6887501039073276,0.9978746336801794,-0.30912452977285176,Risk,Declining
67484,SGHDPB,BO HOLDINGS PTE. LTD.,Aspire FT Pte Ltd,AspireBA,Key,SG AM - Caroline,2026-Q1,2026-Q2,4790.137766595204,4514.344628731768,0.9424248004333563,-0.04954983560045385,-0.07872632384932805,4459.782424969298,3071.675608601677,0.6887501039073276,0.9052104090517402,-0.2164603051444126,Risk,Declining
96714,SGATD6,Atas Digital Pte Ltd,Aspire FT Pte Ltd,AspireBA,Key,SG AM-Rachel,2026-Q1,2026-Q2,4781.314697257232,4641.514697257232,0.9707611799574298,-0.04954983560045385,-0.07872632384932805,4451.567845037552,3066.017815820132,0.6887501039073276,0.9545703865094755,-0.26582028260214785,Risk,Declining
139287,SGSWRL,SWRM LABS PTE. LTD.,Aspire FT Pte Ltd,AspireBA,Key,SG AM-Rachel,2026-Q1,2026-Q2,4770.384539596267,4472.451549513782,0.937545288517202,-0.04954983560045385,-0.07872632384932805,4441.391493664433,3059.0088527544995,0.6887501039073276,0.9649559320183396,-0.276205828111012,Risk,Declining
82348,SGTGMR,TGM RESEARCH PTE. LTD.,Aspire FT Pte Ltd,AspireOS,Key,SG AM-Rachel,2026-Q1,2026-Q2,4754.597876081257,2374.702156515324,0.4994538378233062,-0.04954983560045385,-0.07872632384932805,4426.693568902409,3048.8856555474335,0.6887501039073276,0.5200599853556563,0.16869011855167126,Safe,Growing
53431,SGMGBZ,Mighty Bear Games Pte. Ltd.,Aspire FT Pte Ltd,AspireOS,Key,SG AM-Rachel,2026-Q1,2026-Q2,4745.402872398814,2474.0009706758174,0.5213468776414347,-0.04954983560045385,-0.07872632384932805,4418.132705349285,3042.9893598856825,0.6887501039073276,0.5277589083532984,0.1609911955540292,Safe,Growing
76632,SGLKAP,LKA PACIFIC PTE. LTD.,Aspire FT Pte Ltd,AspireBA,Key,SG AM - Caroline,2026-Q1,2026-Q2,4729.4864561242075,4729.239974461421,0.9999478840535705,-0.04954983560045385,-0.07872632384932805,4403.31397632128,3032.7829587278698,0.6887501039073276,0.9844953714267588,-0.2957452675194312,Risk,Declining
128853,SGNDDX,YD INDUSTRIAL DEVELOPMENT PTE. LTD.,Aspire FT Pte Ltd,AspireBA,Key,SG AM-Rachel,2026-Q1,2026-Q2,4724.843259212222,3179.865263945523,0.6730096829658018,-0.04954983560045385,-0.07872632384932805,4398.991000867808,3029.805508935102,0.6887501039073276,0.6617147987715125,0.02703530513581509,Safe,Declining
66401,SGNP8F,NEXTBILLION.AI PTE. LTD.,Aspire FT Pte Ltd,AspireBA,Key,SG AM-Rachel,2026-Q1,2026-Q2,4712.550852208452,2565.1367587198747,0.5443202289303191,-0.04954983560045385,-0.07872632384932805,4387.546348670477,3021.9230035450064,0.6887501039073276,0.5641859734391077,0.1245641304682199,Safe,Growing
120483,SGWTUE,WSPN TECHNOLOGY SG PTE. LTD.,Aspire FT Pte Ltd,AspireBA,Key,SG AM - Caroline,2026-Q1,2026-Q2,4712.030606472918,4031.400944545628,0.8555549149039251,-0.04954983560045385,-0.07872632384932805,4387.061982061195,3021.5893959925343,0.6887501039073276,0.8864457482980864,-0.19769564439075882,Risk,Declining
128403,SGWVWJ,ADVISCENT PTE. LTD.,Aspire FT Pte Ltd,AspireBA,Key,SG AM-Rachel,2026-Q1,2026-Q2,4673.222813420025,3315.671750850644,0.7095043149513605,-0.04954983560045385,-0.07872632384932805,4350.930596735266,2996.703900594985,0.6887501039073276,0.7636526024798909,-0.07490249857256326,Risk,Declining
145093,SGQCR4,CREDSHIELDS TECHNOLOGIES PTE. LTD.,Aspire FT Pte Ltd,AspireBA,Key,SG AM-Rachel,2026-Q1,2026-Q2,4660.977216982687,4652.997041505384,0.998287875030106,-0.04954983560045385,-0.07872632384932805,4339.529526779542,2988.8514124783255,0.6887501039073276,0.9608831735976011,-0.2721330696902735,Risk,Declining
119580,SGDTVG,ATUM CAPITAL PTE. LTD.,Aspire FT Pte Ltd,AspireBA,Key,SG AM - Caroline,2026-Q1,2026-Q2,4647.592938566914,4625.264932945982,0.9951957914739803,-0.04954983560045385,-0.07872632384932805,4327.068304877778,2980.2687445986735,0.6887501039073276,0.9979284734905277,-0.3091783695832001,Risk,Declining
